!!!!SEGMENT: pl-sa--290-a-vii-50--003_lechleitner-ferdinand-simon--missa-s-luciae-patrem.krn
!!!id: 17xx:432
!!!COM: Lechleitner, Ferdinand Simon
!!!COM-rism: pe30001903
!!!CDT: ~1700-~1800
!!!CNT:
!!!OTL: Missa S. Luciae – Patrem
!!!PDT: 1738
!!!SMS-siglum: PL-SA
!!!SMS-shelfmark: 290/A VII 50
!!!NIFC-rismID: 1001070169
!!!URL-scan: http://bc.bdsandomierz.pl/dlibra/publication/1785/edition/1753/content
!!!ONB-nifc: UWAGA: części Mszy: Kyrie, Gloria, Patrem, Sanctus, Benedictus, Agnus Dei
**kern	**fba	**kern	**kern	**kern	**text	**kern	**text	**kern	**text	**kern	**text	**kern	**kern
*part9	*part9	*part8	*part7	*part6	*part6	*part5	*part5	*part4	*part4	*part3	*part3	*part2	*part1
*staff9	*staff9	*staff8	*staff7	*staff6	*staff6	*staff5	*staff5	*staff4	*staff4	*staff3	*staff3	*staff2	*staff1
*I"Baſso pro Organo	*	*I"Violino Secundo	*I"Violino Primo	*I"Baſso	*	*I"Tenore	*	*I"Alto	*	*I"Canto	*	*I"Clarino 2do	*I"Clarino Primo ex C.
*I'Org	*	*I'vn 2	*I'vn 1	*I'B	*	*I'T	*	*I'A	*	*I'C	*	*I'cl 2	*I'cl 1
*group4	*	*group3	*group3	*group2	*	*group2	*	*group2	*	*group2	*	*group1	*group1
*clefF4	*	*clefG2	*clefG2	*clefF4	*	*clefC4	*	*clefC3	*	*clefC1	*	*clefG2	*clefG2
*Trd0c0	*	*	*	*	*	*	*	*	*	*	*	*	*
*k[]	*	*k[]	*k[]	*k[]	*	*k[]	*	*k[]	*	*k[]	*	*k[]	*k[]
*M4/4	*	*M4/4	*M4/4	*M4/4	*	*M4/4	*	*M4/4	*	*M4/4	*	*M4/4	*M4/4
*met(c)	*	*met(c)	*met(c)	*met(c)	*	*met(c)	*	*met(c)	*	*met(c)	*	*met(c)	*met(c)
=1	=1	=1	=1	=1	=1	=1	=1	=1	=1	=1	=1	=1	=1
*2\right	*	*2\right	*2\right	*2\right	*	*2\right	*	*2\right	*	*2\right	*	*	*
!LO:TX:a:t=P:problem: metrum C z kropką w środku:global	!	!	!	!	!	!	!	!	!	!	!	!	!
!LO:TX:b:t=Patrem omnipotentem	!	!LO:TX:a:t=P:problem: metrum C z kropką w środku	!LO:TX:a:t=P:problem: metrum C z kropką w środku:global	!LO:TX:a:t=P:problem: metrum C z kropką w środku:global	!	!LO:TX:a:t=P:problem: metrum C z kropką w środku:global	!	!LO:TX:a:t=P:problem: metrum C z kropką w środku:global	!	!LO:TX:a:t=P:problem: metrum C z kropką w środku:global	!	!LO:TX:b:t=Patrem	!LO:TX:b:t=Patrem
!LO:TX:a:t=Tut	!	!LO:TX:b:t=Patrem omnipotentem	!LO:TX:b:t=Patrem Omnipo	!LO:TX:a:t=P:problem:oddech jako rozdzielacz słów:global	!	!LO:TX:a:t=P:problem:oddech jako rozdzielacz słów:global	!	!LO:TX:a:t=P:problem:oddech jako rozdzielacz słów:global	!	!LO:TX:a:t=P:problem:oddech jako rozdzielacz słów:global	!	!LO:TX:a:t=P:problem: metrum C z kropką w środku:global	!LO:TX:a:t=P:problem: metrum C z kropką w środku:global
8C/L	.	8ee\L	8ccc\L	8C/	Pat-	8e\	Patrem	8g\	Patrem	8cc\	Pa-	8cc\L	8gg\L
8C/	.	8ee\	8ccc\	16C/	-rem	16e\	.	16g,\	.	16cc,\	-trem	8ee\	8gg\
.	.	.	.	16C/	o-	16e\	o-	16g\	om-	16cc\	o-	.	.
!	!	!	!	!	!	!	!LO:TX:a:t=P:problem:litera p z przekreśleniem	!	!LO:TX:a:t=P:problem:litera p z przekreśleniem	!	!	!	!
8D/	7	8dd\	8ccc\	8D/	-mni-	8d\	-mnipo-	8f\	-nipo-	8cc\	-mni-	8dd\	8ff\
!	!	!	!	!	!LO:TX:a:t=P:problem:litera p z przekreśleniem	!	!	!	!	!	!LO:TX:a:t=P:problem:litera p z przekreśleniem	!	!
8D/J	6	8dd\J	8bb\J	8D/	-po-	8d\	.	8f\	.	8b\	-po-	8dd\J	8ff\J
8E\L	.	8cc\L	8ccc\L	8E\	-ten-	4c\	-ten-	8e\	-ten-	4cc\	-ten-	4cc\	4ee\
8C\	.	8cc\	8gg\	16C,/	-tem	.	.	4e,\	-tem	.	.	.	.
.	.	.	.	16C/	fa-	.	.	.	.	.	.	.	.
!	!	!LO:TX:a:t=P:problem: kropka przy nucie	!	!	!	!	!	!	!	!	!	!	!
8E\	6	8cc\	8gg\	8E\	-cto-	8c,\	-tem	.	.	8cc,\	-tem	8r	8r
8G\J	.	8b\J	8gg\J	8G\	-rem	8B\	fa-	8g\	fac-	8dd\	fa-	8g/	8dd\
=2	=2	=2	=2	=2	=2	=2	=2	=2	=2	=2	=2	=2	=2
!	!	!	!	!	!	!	!	!	!	!	!	!LO:TX:a:t=P:problem:mixed beam	!
8c\L	.	8cc\L	8ee\L	8c\	Caeli	8c\	-cto-	8g\	-to-	8ee\	-cto-	8g/L	8cc\L
8B\	6	8dd\	8dd\	16B\	.	8G,/	-rem	8g,\	-rem	8dd,\	-rem	8g/	8dd\
.	.	.	.	16B\	et	.	.	.	.	.	.	.	.
8A\	7	8cc\	8.cc\	(8A\L	ter-	8G/L	Cae-	4a\	Caeli	4cc\	Cae-	8cc\	8cc\
!LO:TX:a:t=#	!	!	!	!	!	!	!	!	!	!	!	!	!
8D\J	7	8cc\J	.	8D\J)	.	8F#X/J	.	.	.	.	.	8cc\J	8cc\J
.	.	.	16cc\Jk	.	.	.	.	.	.	.	.	.	.
!LO:TX:a:t=P:problem:mixed beam	!	!	!	!	!	!	!	!	!	!	!	!	!
8G\L	.	8dd\L	8dd\L	8G\	rea	8G,/	-li	8b\	.	16b\LL	-li	8dd\L	16dd\LL
.	.	.	.	.	.	.	.	.	.	16dd\JJ	.	.	16ee\
8C\	6 5	8ee\	8gg\	8C/	et	8e\	et	8g\	et	16cc\LL	et	8ee\	16ff\
.	.	.	.	.	.	.	.	.	.	16b\JJ	.	.	16gg\JJ
8D\	7 4	8dd\	8gg\	4D/	ter-	4d\	ter-	8g\L	ter-	4a\	ter-	8dd\	8.gg\L
8DD/J	#	8dd\J	8ff#X\J	.	.	.	.	8f#X\J	.	.	.	8dd\J	.
.	.	.	.	.	.	.	.	.	.	.	.	.	16ff#X\Jk
=3	=3	=3	=3	=3	=3	=3	=3	=3	=3	=3	=3	=3	=3
!LO:TX:a:t=P:problem:mixed beam	!	!	!	!	!	!	!	!	!	!	!	!	!
8GG/L	.	8dd\L	8gg\L	8GG/	-ra	8d\	-ra	8g,\	-ra	8b,\	-ra	8dd\L	8gg\L
8G\J	.	8dd\	8gg\	16G\	vi-	16B\	vi-	16d\	vi-	16dd\	Viſi	16dd\L	16dd\L
.	.	.	.	16G\	-ſi-	16B\	-si-	16g\	-si-	16dd\	.	16dd\JJ	16dd\JJ
8F#X\L	.	8dd\	8aa\	8F#X\	-bi-	8d\	-bi-	8a\	-bi-	8dd\	bi-	16dd\LL	16dd\LL
.	.	.	.	.	.	.	.	.	.	.	.	16dd\	16dd\
16E\L	.	8dd\J	8aa\J	16E\	-li-	16d\	-li-	16g\	-li-	16cc\	-li-	16dd\	16dd\
16D\JJ	.	.	.	16D\	-um	16d\	-um	16f#X\	-um	16dd,\	-um	16dd\JJ	16dd\JJ
!LO:TX:a:t=P:problem:mixed beam	!	!	!	!LO:LB:g=original	!	!LO:LB:g=original	!	!LO:LB:g=original	!	!	!	!	!
8GG/L	.	8dd\L	8bb\L	8G\	omni-	8B\	o-	8g\	om-	8dd\	Om-	8dd\L	8dd\L
!	!	!	!	!	!	!	!	!	!	!LO:LB:g=original	!	!	!
8G\	.	8dd\	8gg\	16G\	-um	16d\	-mnium	16g\	-nium	16b\	-ni-	8dd\J	8dd\J
.	.	.	.	16G,\	.	16d,\	.	16g,\	.	16b,\	-um	.	.
8F#X\	6	8dd\	8dd\	8F#\	et	8d\	et	8d\	et	8a\	et	4r	4r
8D\J	.	8ff#X\J	8dd\J	8D/	in-	8d\	in-	8f#X\	in-	8a\	in-	.	.
=4	=4	=4	=4	=4	=4	=4	=4	=4	=4	=4	=4	=4	=4
!LO:TX:a:t=P:problem:mixed beam	!	!	!	!	!	!	!	!	!	!	!	!	!
8G\L	6 5	8gg\L	8ee\L	8G\	-visi-	8d\	-visi-	8e\	-vi-	8b\	-vi-	0r	0r
8E\	.	8gg\	8ee\	8E\	.	8e\	.	8e\	-si-	8b\	-si-	.	.
8A\	4	8.aa\	8.ee\	8.A\	-bi-	8.d\	-bi-	8.e\	-bi-	8.a\	-bi-	.	.
8AA/J	#	.	.	.	.	.	.	.	.	.	.	.	.
.	.	16aa\Jk	16ee\Jk	16AA/	-lium	16c#X\	-lium	16e\	-lium	16a\	-li um	.	.
8D\L	.	8aa\L	8ff#X\L	8D,/	.	8d,\	.	8f#X,\	.	8a,\	.	.	.
8D\	.	8dd\	8ff#\	16D/	et	16A/	et	16f#\	et	16dd\	et	.	.
.	.	.	.	16D/	in	16A/	in	16f#\	in	16dd\	in	.	.
8F#X\	6	8dd\	8dd\	8F#X\	u-	8A/	u-	8f#\	u-	8dd\	u-	.	.
8D\J	.	8dd\J	8ff#\J	8D/	-num	8A/	-num	8f#\	-num	8dd,	-num	.	.
=5	=5	=5	=5	=5	=5	=5	=5	=5	=5	=5	=5	=5	=5
8G\L	.	8dd\L	8gg\L	8G\	Do-	8B\	Do-	8g\	Do-	8dd\	Do-	.	.
8G\	.	8dd\	8gg\	16G\	-mi-	16d\	-mi-	16g\	-mi-	16b\	-mi-	.	.
.	.	.	.	16G,\	-num	16d\	-num	16g\	-nu(m)	16b,\	-num	.	.
8B\	6	8dd\	8dd\	8B\	Jeſum	8B\	Jeſu(m)	8d\	Jeſu(m)	8dd\	Jesu(m)	.	.
8G\J	.	8dd\J	8dd\J	8G\	.	8B\	.	8g\	.	8dd,\	.	.	.
!LO:TX:a:t=P:problem:mixed beam	!	!	!	!	!	!	!	!	!	!	!	!	!
8c\L	.	8cc\L	8ee\L	8c\	Chri-	8c\	Chri-	8e\	Chri-	8ee\	Chriſ-	.	.
8C/	.	8cc\	8ee\	8C/	-ſtu(m)	8c\	-ſtu(m)	8g\	-ſtu(m)	8ee,\	-tu(m)	.	.
8E/	.	8g\	8cc\	8E\	Fi-	8G/	fi-	8g\	Fi-	8cc\	Fi-	.	.
!	!	!	!	!	!	!LO:LB:g=original	!	!LO:LB:g=original	!	!	!	!	!
8C/J	.	8g\J	8cc\J	16E\	-li-	16G/	-li-	16g\	-li-	16cc\	-li-	.	.
.	.	.	.	16E/	-um	16G/	-um	16g\	-um	16cc\	-um	.	.
!	!	!	!	!LO:LB:g=original	!	!	!	!	!	!LO:LB:g=original	!	!	!
=6	=6	=6	=6	=6	=6	=6	=6	=6	=6	=6	=6	=6	=6
8F\L	n	8a\L	8cc\L	8F\	Dei	8A/	Dei	8c/	Dei	8a\	Dei	1r	1r
8F\	.	8a\	8cc\	8F,\	.	8A,/	.	8c,/	.	8a,\	.	.	.
8D\	.	8dd\	8ff\	8BB/	Fi-	8A/	Fi-	8f\	Fi-	8dd\	Fi-	.	.
8D\J	.	8dd\J	8ff\J	16BB/	-li-	16A/	-li-	16f\	-li-	16dd\	-lium	.	.
.	.	.	.	16BB,/	-um	16A,/	-um	16f,\	-um	16dd,\	.	.	.
!LO:TX:a:t=P:problem:mixed beam	!	!	!	!	!	!	!	!	!	!	!	!	!
8G\L	.	8b\L	8dd\L	8G\	D-	8B\	De-	8d\	De-	8b\	Dei	.	.
8GG/J	.	8b\	8dd\	8G\	-ei	8B,\	-i	8d\	-i	8b\	.	.	.
!LO:LB:g=original	!	!	!	!	!	!	!	!	!	!	!	!	!
8E\L	6	8cc\	8gg\	8E\	u-	8c\	u-	8g\	uni	8b\	u-	.	.
8C\J	.	8cc\J	8gg\J	8E\	-ni	8c\	-ni	8g\	.	8b\	-ni	.	.
!	!	!LO:LB:g=original	!LO:LB:g=original	!	!	!	!	!	!	!	!	!	!
=7	=7	=7	=7	=7	=7	=7	=7	=7	=7	=7	=7	=7	=7
!LO:TX:a:t=P:problem:mixed beam	!	!	!	!	!	!	!	!	!	!	!	!	!
8A\L	.	16ff\LL	16aa\LL	(8A\L	ge-	4.c\	ge-	(8e\L	ge-	8cc\	u-	2r	2r
.	.	16ee\	16gg\	.	.	.	.	.	.	.	.	.	.
8F\	6 5	16dd\	16ff\	8F\J)	.	.	.	8a\J)	.	16dd\LL	-ni	.	.
.	.	16cc\JJ	16ee\JJ	.	.	.	.	.	.	16ee,\JJ	.	.	.
8G\	.	8cc\L	8.dd\L	8.G\	.	.	.	8.g\	.	8.dd\	geni-	.	.
8GG/J	4	8b\J	.	.	.	8B\	-ni-	.	.	.	.	.	.
.	3	.	16dd\Jk	16GG/k	-ni-	.	.	16g\	-ni-	16dd\	-tum	.	.
4C/	.	16cc\LL	16cc\LL	4C/	-tum	4c\	-tum	4g\	-tum	4ee\	.	4e/	4cc\
.	.	16dd\	16dd\	.	.	.	.	.	.	.	.	.	.
.	.	16ee\	16ee\	.	.	.	.	.	.	.	.	.	.
.	.	16ff\JJ	16ff\JJ	.	.	.	.	.	.	.	.	.	.
4BB/	6	16gg\LL	16gg\LL	4r	.	4r	.	4r	.	4r	.	8r	8r
.	.	16ff\	16ff\	.	.	.	.	.	.	.	.	.	.
.	.	16ee\	16ee\	.	.	.	.	.	.	.	.	8g/	8dd\
.	.	16dd\JJ	16dd\JJ	.	.	.	.	.	.	.	.	.	.
=8	=8	=8	=8	=8	=8	=8	=8	=8	=8	=8	=8	=8	=8
!LO:TX:b:t=Solo	!	!	!	!	!	!	!	!	!	!	!	!	!
4C/	.	16cc\LL	16cc\LL	0r	.	00r	.	00r	.	00r	.	4cc\	4ee\
.	.	16b\	16b\	.	.	.	.	.	.	.	.	.	.
.	.	16cc\	16cc\	.	.	.	.	.	.	.	.	.	.
.	.	16dd\JJ	16dd\JJ	.	.	.	.	.	.	.	.	.	.
4r	.	16cc\LL	16cc\LL	.	.	.	.	.	.	.	.	8r	8r
.	.	16ee\	16ee\	.	.	.	.	.	.	.	.	.	.
.	.	16dd\	16dd\	.	.	.	.	.	.	.	.	8e/L	8cc\
.	.	16cc\JJ	16cc\JJ	.	.	.	.	.	.	.	.	.	.
!	!	!	!	!	!	!	!	!	!	!	!	!	!LO:LB:g=original
4G\	.	16b\LL	16dd\LL	.	.	.	.	.	.	.	.	8g/	8dd\L
.	.	16a\	16cc\	.	.	.	.	.	.	.	.	.	.
.	.	16b\	16dd\	.	.	.	.	.	.	.	.	8g/J	8dd\J
.	.	16cc\JJ	16ee\JJ	.	.	.	.	.	.	.	.	.	.
8r	.	16b\LL	16dd\LL	.	.	.	.	.	.	.	.	8g/L	16dd\LL
.	.	16cc\	16ee\	.	.	.	.	.	.	.	.	.	16ee\
8GG/	.	16a\	16cc\	.	.	.	.	.	.	.	.	16e/L	16cc\
.	.	16b\JJ	16dd\JJ	.	.	.	.	.	.	.	.	16g/JJ	16dd\JJ
=9	=9	=9	=9	=9	=9	=9	=9	=9	=9	=9	=9	=9	=9
!	!	!	!	!LO:TX:b:t=Verte Cito	!	!	!	!	!	!	!	!LO:TX:a:t=P:problem:mixed beam	!
4C/	.	16cc\LL	16ee\LL	.	.	.	.	.	.	.	.	8cc\L	16ee\LL
.	.	16b\	16dd\	.	.	.	.	.	.	.	.	.	16dd\
.	.	16cc\	16ee\	.	.	.	.	.	.	.	.	16g/L	16ee\
.	.	16b\JJ	16dd\JJ	.	.	.	.	.	.	.	.	16g/JJ	16cc\JJ
!	!	!	!	!	!	!	!	!	!	!	!	!LO:TX:a:t=P:problem:mixed beam	!LO:TX:a:t=P:problem:mixed beam
8r	.	8cc\L	8cc\L	.	.	.	.	.	.	.	.	8g/L	8cc/L
8C/	.	8ee\J	8gg\J	.	.	.	.	.	.	.	.	8ee\J	8gg\J
4F\	.	16ff\LL	16aa\LL	.	.	.	.	.	.	.	.	16ff\LL	16aa\LL
.	.	16ee\	16gg\	.	.	.	.	.	.	.	.	16ee\	16gg\
.	.	16ff\	16aa\	.	.	.	.	.	.	.	.	16ff\	16aa\
.	.	16ee\JJ	16gg\JJ	.	.	.	.	.	.	.	.	16ee\JJ	16gg\JJ
8r	.	16dd\LL	16ff\LL	.	.	.	.	.	.	.	.	16dd\LL	16ff\LL
.	.	16cc\	16ee\	.	.	.	.	.	.	.	.	16cc\	16ee\
8F\	.	16dd\	16ff\	.	.	.	.	.	.	.	.	16dd\	16ff\
.	.	16cc\JJ	16ee\JJ	.	.	.	.	.	.	.	.	16cc\JJ	16ee\JJ
!	!	!	!	!LO:PB:g=original	!	!	!	!	!	!	!	!LO:LB:g=original	!
=10	=10	=10	=10	=10	=10	=10	=10	=10	=10	=10	=10	=10	=10
!LO:TX:a:t=P:problem:mixed beam	!	!	!	!	!	!	!	!	!	!	!	!	!
8G\L	.	8b\L	16dd\LL	2r	.	.	.	.	.	.	.	8g/L	16dd\LL
.	.	.	16ee\	.	.	.	.	.	.	.	.	.	16ee\
8c\	.	8cc\	16cc\	.	.	.	.	.	.	.	.	8g/	16cc\
.	.	.	16dd\JJ	.	.	.	.	.	.	.	.	.	16dd\JJ
8G\	.	8cc\	8ee\L	.	.	.	.	.	.	.	.	8.g/	8ee\L
8GG/J	4	8b\J	16dd\L	.	.	.	.	.	.	.	.	.	16dd\L
!	!	!	!	!	!	!	!	!	!	!	!	!LO:TX:a:t=P:problem:takty 10-14 zamazane	!
.	3	.	16cc\JJ	.	.	.	.	.	.	.	.	16g/Jk	16cc\JJ
!	!	!	!	!	!	!	!	!	!	!	!	!LO:TX:a:t=P:problem:mixed beam	!LO:TX:a:t=P:problem:Takt 10-14 zamazane
8C/L	.	4cc\	4cc\	8r	.	.	.	.	.	.	.	8e/L	8cc\
16C/L	.	.	.	16C/	et	.	.	.	.	.	.	16ee\L	16gg\LL
16D/JJ	.	.	.	16D,/	ex	.	.	.	.	.	.	16dd\JJ	16ff\JJ
!	!	!	!	!	!	!	!	!	!	!	!	!LO:TX:a:t=P:problem:mixed beam	!
8E/L	.	4r	4r	8E\	Patre	.	.	.	.	.	.	8cc\L	8ee\L
8BB/J	6	.	.	8G\	.	.	.	.	.	.	.	8g/J	8dd\J
=11	=11	=11	=11	=11	=11	=11	=11	=11	=11	=11	=11	=11	=11
4C/	.	0r	0r	8c\	natum	.	.	.	.	.	.	4e/	4cc\
.	.	.	.	8C,/	.	.	.	.	.	.	.	.	.
8r	.	.	.	8E\	ante	.	.	.	.	.	.	8r	8r
8C/	.	.	.	8C/	.	.	.	.	.	.	.	8cc\L	8gg\
8F\L	.	.	.	8F\	o-	.	.	.	.	.	.	8cc\	8aa\L
8E\	6	.	.	16E\	-mnia	.	.	.	.	.	.	8cc\J	8gg\J
.	.	.	.	16E\	.	.	.	.	.	.	.	.	.
8D\	7	.	.	8.D/	ſae-	.	.	.	.	.	.	8.dd\L	8.ff\L
8D\J	6	.	.	.	.	.	.	.	.	.	.	.	.
.	.	.	.	16D/	-cula	.	.	.	.	.	.	16dd\Jk	16ff\Jk
=12	=12	=12	=12	=12	=12	=12	=12	=12	=12	=12	=12	=12	=12
8C/L	.	.	.	8C/	.	00r	.	00r	.	00r	.	8ee\L	8ee\L
8C/	.	.	.	8C/	Deum	.	.	.	.	.	.	8cc\J	8ee\J
8E/	6	.	.	8E/	.	.	.	.	.	.	.	16cc\LL	16ee\LL
.	.	.	.	.	.	.	.	.	.	.	.	16g\	16dd\
8C/J	.	.	.	8C/	de	.	.	.	.	.	.	16cc\	16ee\
.	.	.	.	.	.	.	.	.	.	.	.	16dd\JJ	16ff\JJ
4BB/	6	.	.	8G\	Deo	.	.	.	.	.	.	8g/L	8dd\L
.	.	.	.	16G\	.	.	.	.	.	.	.	8g/J	8dd\J
.	.	.	.	16G\	lu-	.	.	.	.	.	.	.	.
!	!	!	!	!	!	!	!	!	!	!	!	!	!LO:LB:g=original
4GG/	.	.	.	(16G\LL	-men	.	.	.	.	.	.	8r	8r
.	.	.	.	16A\JJ,)	.	.	.	.	.	.	.	.	.
.	.	.	.	(16G\LL	de	.	.	.	.	.	.	8g/	8dd\
.	.	.	.	16F\JJ)	.	.	.	.	.	.	.	.	.
!LO:LB:g=original	!	!	!	!LO:LB:g=original	!	!	!	!	!	!	!	!	!
=13	=13	=13	=13	=13	=13	=13	=13	=13	=13	=13	=13	=13	=13
4C/	.	1r	1r	8E\	lumi-	.	.	.	.	.	.	8g\L	16ee\LL
.	.	.	.	.	.	.	.	.	.	.	.	.	16dd\
.	.	.	.	16C/	-ne	.	.	.	.	.	.	16cc\L	16ee\
.	.	.	.	16C,/	.	.	.	.	.	.	.	16dd\JJ	16ff\JJ
8E\L	6	.	.	8C/	Deum	.	.	.	.	.	.	16ee\LL	16gg\LL
.	.	.	.	.	.	.	.	.	.	.	.	16dd\	16ff\
8C\J	.	.	.	8C,/	.	.	.	.	.	.	.	16ee\	16gg\
.	.	.	.	.	.	.	.	.	.	.	.	16cc\JJ	16ee\JJ
8BB/	.	.	.	8BB/	ve-	.	.	.	.	.	.	8g/	4dd\
4GG/	.	.	.	4GG/	-rum	.	.	.	.	.	.	4g/	.
.	.	.	.	.	.	.	.	.	.	.	.	.	8dd\L
8BB/	.	.	.	8BB/	de	.	.	.	.	.	.	8g/	8dd\J
!	!	!	!LO:LB:g=original	!	!	!	!	!	!	!	!	!	!
=14	=14	=14	=14	=14	=14	=14	=14	=14	=14	=14	=14	=14	=14
!LO:TX:a:t=P:problem:mixed beam	!	!	!	!	!	!	!	!	!	!	!	!	!
8C\L	.	2r	2r	(16C/LL	De-	.	.	.	.	.	.	8cc\L	8ee\L
.	.	.	.	16D/JJ)	.	.	.	.	.	.	.	.	.
8F\	6 5	.	.	(16E\LL	-o	.	.	.	.	.	.	8cc\J	8dd\J
.	.	.	.	16F\JJ)	.	.	.	.	.	.	.	.	.
!	!	!	!	!LO:TX:a:t=P:problem:mixed beam	!	!	!	!	!	!	!	!	!
8G\	.	.	.	8G\L	ve-	.	.	.	.	.	.	8g/L	8.dd\L
8GG/J	4	.	.	8GG/J	.	.	.	.	.	.	.	8g/J	.
.	3	.	.	.	.	.	.	.	.	.	.	.	16dd\Jk
8C\L	.	16r	16r	4C/	-ro	.	.	.	.	.	.	4e/	4cc\
.	.	16ee\LL	16gg\LL	.	.	.	.	.	.	.	.	.	.
8C\	.	16ee\	16gg\	.	.	.	.	.	.	.	.	.	.
.	.	16ee\JJ	16gg\JJ	.	.	.	.	.	.	.	.	.	.
!	!	!LO:LB:g=original	!	!	!	!	!	!	!	!	!	!	!
8E\	.	16ee\LL	16gg\LL	4r	.	.	.	.	.	.	.	4r	4r
.	.	16ee\	16gg\	.	.	.	.	.	.	.	.	.	.
8C\J	.	16ee\	16gg\	.	.	.	.	.	.	.	.	.	.
.	.	16ee\JJ	16gg\JJ	.	.	.	.	.	.	.	.	.	.
=15	=15	=15	=15	=15	=15	=15	=15	=15	=15	=15	=15	=15	=15
8D\L	9 4	16ee\LL	16gg\LL	00r	.	.	.	.	.	.	.	00r	00r
.	.	16ee\	16gg\	.	.	.	.	.	.	.	.	.	.
8D\	8 3	16dd\	16ff\	.	.	.	.	.	.	.	.	.	.
.	.	16dd\JJ	16ff\JJ	.	.	.	.	.	.	.	.	.	.
8G\	.	16dd\LL	16ff\LL	.	.	.	.	.	.	.	.	.	.
.	.	16dd\	16ff\	.	.	.	.	.	.	.	.	.	.
8G\J	7	16dd\	16ff\	.	.	.	.	.	.	.	.	.	.
.	.	16dd\JJ	16ff\JJ	.	.	.	.	.	.	.	.	.	.
8C/L	9 4	16dd\LL	16ff\LL	.	.	.	.	.	.	.	.	.	.
.	.	16dd\	16ff\	.	.	.	.	.	.	.	.	.	.
8C/	8 3	16cc\	16ee\	.	.	.	.	.	.	.	.	.	.
.	.	16cc\JJ	16ee\JJ	.	.	.	.	.	.	.	.	.	.
8E/	.	16cc\LL	16ee\LL	.	.	.	.	.	.	.	.	.	.
.	.	16cc\	16ee\	.	.	.	.	.	.	.	.	.	.
8C/J	.	16cc\	16ee\	.	.	.	.	.	.	.	.	.	.
.	.	16cc\JJ	16ee\JJ	.	.	.	.	.	.	.	.	.	.
=16	=16	=16	=16	=16	=16	=16	=16	=16	=16	=16	=16	=16	=16
8G\L	6 4	16cc\LL	16ee\LL	.	.	0r	.	00r	.	00r	.	.	.
.	.	16cc\	16ee\	.	.	.	.	.	.	.	.	.	.
8G\	5 3	16b\	16dd\	.	.	.	.	.	.	.	.	.	.
.	.	16b\JJ	16dd\JJ	.	.	.	.	.	.	.	.	.	.
8B\	.	16b/LL	16dd\LL	.	.	.	.	.	.	.	.	.	.
.	.	16b/	16dd\	.	.	.	.	.	.	.	.	.	.
8G\J	.	16b/	16dd\	.	.	.	.	.	.	.	.	.	.
.	.	16b/JJ	16dd\JJ	.	.	.	.	.	.	.	.	.	.
8A\L	9 4	16b/LL	16dd\LL	.	.	.	.	.	.	.	.	.	.
.	.	16b/	16dd\	.	.	.	.	.	.	.	.	.	.
8A\	8 3	16a/	16cc\	.	.	.	.	.	.	.	.	.	.
.	.	16a/JJ	16cc\JJ	.	.	.	.	.	.	.	.	.	.
8D\	.	16a/LL	16cc\LL	.	.	.	.	.	.	.	.	.	.
.	.	16a/	16cc\	.	.	.	.	.	.	.	.	.	.
8D\J	7	16a/	16cc\	.	.	.	.	.	.	.	.	.	.
.	.	16a/JJ	16cc\JJ	.	.	.	.	.	.	.	.	.	.
=17	=17	=17	=17	=17	=17	=17	=17	=17	=17	=17	=17	=17	=17
4E\	6 4	16a/LL	16cc\LL	.	.	.	.	.	.	.	.	.	.
.	5 3	16a/	16cc\	.	.	.	.	.	.	.	.	.	.
.	.	16g/	16b\	.	.	.	.	.	.	.	.	.	.
.	.	16g/JJ	16b\JJ	.	.	.	.	.	.	.	.	.	.
8r	.	16g#X/LL	16b\LL	.	.	.	.	.	.	.	.	.	.
.	.	16g#/	16b\	.	.	.	.	.	.	.	.	.	.
8E\L	#	16g#/	16b\	.	.	.	.	.	.	.	.	.	.
.	.	16g#/JJ	16b\JJ	.	.	.	.	.	.	.	.	.	.
!	!	!	!LO:LB:g=original	!	!	!	!	!	!	!	!	!	!
8A\J	.	16a\LL	16cc\LL	.	.	.	.	.	.	.	.	.	.
.	.	16cc\	16ee\	.	.	.	.	.	.	.	.	.	.
8r	.	16cc\	16ee\	.	.	.	.	.	.	.	.	.	.
.	.	16cc\JJ	16ee\JJ	.	.	.	.	.	.	.	.	.	.
8B\L	n	16b/LL	16dd\LL	.	.	.	.	.	.	.	.	.	.
.	.	16b/	16dd\	.	.	.	.	.	.	.	.	.	.
8E\J	7 #	16g#/	16b\	.	.	.	.	.	.	.	.	.	.
.	.	16b/JJ	16dd\JJ	.	.	.	.	.	.	.	.	.	.
=18	=18	=18	=18	=18	=18	=18	=18	=18	=18	=18	=18	=18	=18
!LO:TX:a:t=P:problem:mixed beam	!	!	!	!	!	!	!	!	!	!	!	!	!
8A\L	.	16a/LL	16cc\LL	.	.	2r	.	.	.	.	.	.	.
.	.	16cc/	16ee\	.	.	.	.	.	.	.	.	.	.
8D\	6 5	16b/	16dd\	.	.	.	.	.	.	.	.	.	.
.	.	16a/JJ	16cc\JJ	.	.	.	.	.	.	.	.	.	.
8E\	4	8.a/L	8.b\L	.	.	.	.	.	.	.	.	.	.
8EE/J	# 3	.	.	.	.	.	.	.	.	.	.	.	.
.	.	16g#X/Jk	16b\Jk	.	.	.	.	.	.	.	.	.	.
8AA/L	.	4a/	4cc\	.	.	8r	.	.	.	.	.	.	.
8BB/	.	.	.	.	.	16e\	Ge-	.	.	.	.	.	.
.	.	.	.	.	.	16d\	-ni-	.	.	.	.	.	.
8C/	6	4r	4r	.	.	(16c\LL	-tum	.	.	.	.	.	.
.	.	.	.	.	.	16B\JJ)	.	.	.	.	.	.	.
8D/J	6 5	.	.	.	.	(16c\LL	non	.	.	.	.	.	.
.	.	.	.	.	.	16d\JJ)	.	.	.	.	.	.	.
!LO:LB:g=original	!	!	!	!	!	!LO:LB:g=original	!	!	!	!	!	!	!
=19	=19	=19	=19	=19	=19	=19	=19	=19	=19	=19	=19	=19	=19
8E\L	.	0r	0r	0r	.	8B\	Fac-	.	.	.	.	0r	0r
8F#X\	.	.	.	.	.	8B,\	-tum	.	.	.	.	.	.
8G#X\	6	.	.	.	.	8B\	Con-	.	.	.	.	.	.
8A\J	.	.	.	.	.	8c\	-ſub-	.	.	.	.	.	.
8B\L	n	.	.	.	.	(16d\LL	-stan-	.	.	.	.	.	.
.	.	.	.	.	.	16c\JJ)	.	.	.	.	.	.	.
8A\	.	.	.	.	.	(16B\LL	-ci-	.	.	.	.	.	.
.	.	.	.	.	.	16c\JJ)	.	.	.	.	.	.	.
8G#X\	.	.	.	.	.	8d\	-a-	.	.	.	.	.	.
8E\J	7	.	.	.	.	(16e\LL	-lem	.	.	.	.	.	.
.	.	.	.	.	.	16B\JJ)	.	.	.	.	.	.	.
=20	=20	=20	=20	=20	=20	=20	=20	=20	=20	=20	=20	=20	=20
8A\L	.	.	.	.	.	8c\	Pa-	1r	.	1r	.	.	.
8B\	.	.	.	.	.	8A,/	-tri	.	.	.	.	.	.
8c\	6	.	.	.	.	8e\	per	.	.	.	.	.	.
8A\J	.	.	.	.	.	8e,\	quem	.	.	.	.	.	.
8d\L	.	.	.	.	.	8f\	om-	.	.	.	.	.	.
16A\L	.	.	.	.	.	16e\	-nia	.	.	.	.	.	.
16B\JJ	.	.	.	.	.	16e,\	.	.	.	.	.	.	.
8c\L	6	.	.	.	.	8e\	per	.	.	.	.	.	.
8G#X\J	6	.	.	.	.	8e\	quem	.	.	.	.	.	.
!	!	!	!LO:TX:b:t=Verte Cito	!	!	!	!	!	!	!	!	!	!
!	!	!LO:LB:g=original	!LO:PB:g=original	!	!	!	!	!	!	!LO:PB:g=original	!	!	!
=21	=21	=21	=21	=21	=21	=21	=21	=21	=21	=21	=21	=21	=21
!LO:TX:a:t=P:problem:mixed beam	!	!	!	!	!	!	!	!	!	!	!	!	!
8A\L	.	2r	2r	2r	.	8e\	o-	2r	.	2r	.	2r	2r
8D\	6	.	.	.	.	16d\	-mnia	.	.	.	.	.	.
.	.	.	.	.	.	16c\	.	.	.	.	.	.	.
8E\	4	.	.	.	.	8.B\	facta	.	.	.	.	.	.
8EE/J	# 3	.	.	.	.	.	.	.	.	.	.	.	.
.	.	.	.	.	.	16B\	.	.	.	.	.	.	.
!LO:TX:a:t=P:problem:mixed beam	!	!	!	!	!	!LO:LB:g=original	!	!	!	!	!	!	!
8AA/L	.	8r	8r	8r	.	8A/	ſunt	8r	.	8r	.	8r	8r
!LO:TX:b:t='Tut	!	!	!	!	!	!	!	!	!	!	!	!	!
8A\J	.	8a/	8ee\L	8A\	Qui	8d\	qui	8a\	Qui	8a\	Qui	8e/L	8e/L
8E\L	.	8g#X/L	8gg\	8E\	pro-	8e\	pro-	8g#X\	p(ro)pter	8b\	p(ro)pter	8e/	8e/
16F#X\L	.	16a/L	8gg\J	16F\	-pter	16e\	-pter	16a\	.	16b\	.	8e/J	8e/J
16G\JJ	.	16b/JJ	.	16G\	nos	16e\	nos	16b\	nos	16b\	nos	.	.
!	!	!	!	!	!	!	!	!LO:LB:g=original	!	!	!	!	!
=22	=22	=22	=22	=22	=22	=22	=22	=22	=22	=22	=22	=22	=22
8.A\L	.	8.cc\L	8.ee\L	8.A\	ho-	8.e\	ho-	8.a\	ho-	8.cc\	homi-	8e/L	8e/L
.	.	.	.	.	.	.	.	.	.	.	.	16e/L	16e/L
16A\	.	16cc\	16ee\K	16A\	-mi-	16A/	-mi-	16e\	-mi-	16cc,\	-nes	16e/JJ	16e/JJ
8A\	.	8ee\	8cc\	8A,\	-nes	8A,/	-nes	8e,\	-nes	8cc\	.	8e/	8e/
8A\J	.	8cc\J	8ee\J	8A\	et	8c\	et	8a\	et	8ee\	et	8r	8r
!	!	!	!	!LO:LB:g=original	!	!	!	!	!	!	!	!LO:LB:g=original	!
8F\L	6	8dd\L	8ff\L	8F\	p(ro)pter	8d\	p(ro)pter	8a\	p(ro)pter	8ff\	p(ro)pter	2r	2r
8F\	.	8dd\	8ff\	8F\	.	8d\	.	8a\	.	8ff,\	.	.	.
8D\	.	8dd\	8ff\	8D/	no-	8d\	no-	8f\	no-	8ff\	noſ-	.	.
8D\J	.	8dd\J	8ff\J	16D/	-ſtra(m)	16d\	-ſtram	16a\	-ſstra(m)	16ff\	-tram	.	.
.	.	.	.	16D/	ſa-	16d\	ſa-	16a\	ſsa-	16ff\	ſa-	.	.
=23	=23	=23	=23	=23	=23	=23	=23	=23	=23	=23	=23	=23	=23
4G\	.	8b/L	8dd\L	4G\	-lu-	4B\	-lu-	4g\	-lu-	4dd\	-lu-	2r	2r
.	.	8b/	8dd\J	.	.	.	.	.	.	.	.	.	.
8B\L	6	8b/	16dd\LL	8G,\	-tem	8B,\	-tem	8d,\	-tem	8b,\	-tem	.	.
.	.	.	16ee\	.	.	.	.	.	.	.	.	.	.
8G\J	.	8b/J	16b\	8G\	deſ-	8B\	deſ-	8g\	deſ-	8dd\	de-	.	.
.	.	.	16dd\JJ	.	.	.	.	.	.	.	.	.	.
8E\L	.	16cc\LL	16cc\LL	8E\	-cen-	8c\	-cen-	8g\	-cen-	8ee\	-ſcen-	8r	8r
.	.	16dd\	16dd\	.	.	.	.	.	.	.	.	.	.
8C\	.	16ee\	16ee\	8C/	-dit	8c\	-dit	8e\	-dit	8ee\	-dit	8e/L	8cc\L
.	.	16ff\JJ	16ff\JJ	.	.	.	.	.	.	.	.	.	.
8r	.	16gg\LL	16gg\LL	8r	.	8r	.	8r	.	8r	.	8g/	8dd\
.	.	16aa\	16aa\	.	.	.	.	.	.	.	.	.	.
*	*	*	*	*	*ij	*	*ij	*	*ij	*	*	*	*
8G\J	.	16bb\	16bb\	8G\	deſ-	8d\	deſ-	8g\	deſ-	8b\	de-	8g/J	8dd\J
.	.	16gg\JJ	16gg\JJ	.	.	.	.	.	.	.	.	.	.
=24	=24	=24	=24	=24	=24	=24	=24	=24	=24	=24	=24	=24	=24
!	!	!LO:TX:a:t=P:problem:mixed beam	!LO:TX:a:t=P:problem:mixed beam	!	!	!	!	!	!	!	!	!	!
8E\L	.	16cc/LL	16cc/LL	8E\	-cen-	8c\	-cen-	8g\	-cen-	8cc\	-ſcen-	8r	8r
.	.	16ccc\	16ccc\	.	.	.	.	.	.	.	.	.	.
!	!	!	!	!	!	!	!	!	!	!	!	!LO:TX:a:t=P:problem:mixed beam	!
8C\J	.	16bb\	16bb\	8C/	-dit	8c\	-dit	8g\	-dit	8cc\	-dit	8cc\L	8ee\L
.	.	16aa\JJ	16aa\JJ	.	.	.	.	.	.	.	.	.	.
!	!	!	!	!	!	!LO:LB:g=original	!	!	!	!LO:LB:g=original	!	!	!
8r	.	16gg\LL	16gg\LL	8r	.	8r	.	8r	.	8r	.	8g/	8dd\
.	.	16ff\	16ff\	.	.	.	.	.	.	.	.	.	.
*	*	*	*	*	*	*	*	*	*Xij	*	*ij	*	*
8G\L	.	16ee\	16ee\	8G\	de-	8B\	de-	8b\	de-	8dd\	de-	8g/J	8dd\J
.	.	16dd\JJ	16dd\JJ	.	.	.	.	.	.	.	.	.	.
!	!	!	!	!	!	!	!	!	!	!	!	!	!LO:LB:g=original
8E\	6	16cc\LL	16cc\LL	8E\	-ſcen-	8c\	-ſcen-	8g\	-ſcen-	8ee\	-ſcen-	8r	8r
.	.	16dd\	16dd\	.	.	.	.	.	.	.	.	.	.
8C\J	.	16ee\	16ee\	8C/	-dit	8c\	-dit	8e\	-dit	8ee\	-dit	8d/L	8cc\L
.	.	16ff\JJ	16ff\JJ	.	.	.	.	.	.	.	.	.	.
*	*	*	*	*	*Xij	*	*Xij	*	*	*	*Xij	*	*
!LO:LB:g=original	!	!	!	!	!	!	!	!	!	!	!	!	!
8r	.	16gg\LL	16gg\LL	8r	.	8r	.	8r	.	8r	.	8g/	8dd\
.	.	16aa\	16aa\	.	.	.	.	.	.	.	.	.	.
8G\	.	16bb\	16bb\	8G\	de-	8d\	de-	8g\	de-	8b\	de-	8g/J	8dd\J
.	.	16gg\JJ	16gg\JJ	.	.	.	.	.	.	.	.	.	.
!	!	!	!	!	!	!	!	!LO:PB:g=original	!	!	!	!	!
=25	=25	=25	=25	=25	=25	=25	=25	=25	=25	=25	=25	=25	=25
8c\L	.	16ee\LL	16ccc\LL	8c\	-ſcen-	8c\	-ſcen-	8g\	-ſcen-	8cc\	-ſcend-	16cc\LL	16ee\LL
.	.	16dd\	16gg\	.	.	.	.	.	.	.	.	16ee\	16gg\
16E\L	.	16cc\	16ee\	16E\	-dit	16G/	-dit	16f\	-dit	16cc\	-dit	16dd\	16ff\
16F\JJ	.	16b\JJ	16dd\JJ	16F\	de	16A/	de	16e\	de	16cc\	de	16cc\JJ	16ee\JJ
!LO:TX:a:t=P:problem:mixed beam	!	!	!	!LO:TX:a:t=P:problem:mixed beam	!	!	!	!	!	!	!	!	!
8G\L	4	8.cc\L	8.dd\L	8G\L	Cae-	4G/	Cae-	4d\	Cae-	8cc\L	Cae-	8.g/L	8.dd\L
8GG/J	7 3	.	.	8GG/J	.	.	.	.	.	8b\J	.	.	.
.	.	16b\Jk	16dd\Jk	.	.	.	.	.	.	.	.	16g/Jk	16dd\Jk
!LO:TX:a:t=P:problem:mixed beam	!	!	!LO:LB:g=original	!	!	!	!	!	!	!	!	!	!LO:TX:a:t=P:problem:mixed beam
8C/L	.	8cc\L	8ee\L	8C/	lis	8G/	-lis	8e,\	-lis	8cc,\	-lis	4d/	8cc\L
*	*	*	*	*	*	*	*ij	*	*	*	*	*	*
!	!	!	!	!LO:LB:g=original	!	!	!	!	!	!	!	!	!
8c\	.	8b\	8cc\	8c\	de-	8c\L	de	8g\	de-	8ee\	de-	.	16g/L
.	.	.	.	.	.	.	.	.	.	.	.	.	16g/JJ
8B\	.	8a\	8b\	8B\L	ſcen-	8d\	Cae-	8g\L	-ſcen-	8dd\L	-ſcend-	8r	16g/LL
.	.	.	.	.	.	.	.	.	.	.	.	.	16g/
8A\J	.	8g\J	8a\J	8A\J	.	8A\J	.	8a\J	.	8cc\J	-dit	8g/	16g/
.	.	.	.	.	.	.	.	.	.	.	.	.	16g/JJ
=26	=26	=26	=26	=26	=26	=26	=26	=26	=26	=26	=26	=26	=26
8G\L	.	8g/L	8g/L	8G,\	-dit	8d\	-lis	8b,\	-dit	8b,\	.	8g/L	4g/
*	*	*	*	*	*ij	*	*	*	*ij	*	*ij	*	*
8c\	.	8cc/	8cc/	8c\	de	8c\	de	8g\	de-	8ee\	de-	16g/L	.
.	.	.	.	.	.	.	.	.	.	.	.	16g/JJ	.
8B\	6	8b/	8b/	8B\L	ſcen-	8d\L	Cae-	8g\L	-ſcen-	(8dd\	-ſcen-	16g/LL	8r
.	.	.	.	.	.	.	.	.	.	.	.	16g/	.
8A\J	6|	8a/J	8a/J	8A\J	.	8B\J	.	8a\J	.	8cc\)	.	16g/	8g/
.	.	.	.	.	.	.	.	.	.	.	.	16g/JJ	.
!	!	!LO:LB:g=original	!LO:TX:a:t=P:problem:mixed beam	!	!	!	!	!	!	!	!	!	!LO:TX:a:t=P:problem:mixed beam
4G\	.	16g/LL	16g/LL	4G\	-dit	4d\	-lis	4b\	-dit	4b\	-dit	8g/L	8g/L
.	.	16b/	16dd\	.	.	.	.	.	.	.	.	.	.
.	.	16b/	16dd\	.	.	.	.	.	.	.	.	8g/	8dd\
.	.	16b/JJ	16dd\JJ	.	.	.	.	.	.	.	.	.	.
*	*	*	*	*	*Xij	*	*	*	*Xij	*	*Xij	*	*
8r	.	16b/LL	16dd\LL	8r	.	8r	.	8r	.	8r	.	8g/	8dd\
.	.	16b/	16dd\	.	.	.	.	.	.	.	.	.	.
8G\	.	16g/	16b\	8G\	de-	8B\	de	8g\	de-	8dd\	de Cae-	8g/J	8dd\J
.	.	16b/JJ	16dd\JJ	.	.	.	.	.	.	.	.	.	.
=27	=27	=27	=27	=27	=27	=27	=27	=27	=27	=27	=27	=27	=27
8E\L	6	16cc\LL	16cc\LL	8E\	-ſcen-	8c\	Cae-	8g\	-ſcen-	8ee\	-lis	8r	8cc\L
.	.	16dd\	16dd\	.	.	.	.	.	.	.	.	.	.
8C\	.	16ee\	16ee\	8C/	-dit	8c\	-lis	8e\	-dit	8ee\	.	8e/L	8cc\
.	.	16ff\JJ	16ff\JJ	.	.	.	.	.	.	.	.	.	.
8r	.	16gg\LL	16gg\LL	8r	.	8r	.	8r	.	8r	.	8g/	8dd\
.	.	16aa\	16aa\	.	.	.	.	.	.	.	.	.	.
*	*	*	*	*	*	*	*Xij	*	*ij	*	*	*	*
8G\J	.	16bb\	16bb\	8G\	de-	8G/	de-	8d\	de-	8b\	de-	8g/J	8dd\J
.	.	16gg\JJ	16gg\JJ	.	.	.	.	.	.	.	.	.	.
!	!	!LO:TX:a:t=P:problem:mixed beam	!LO:TX:a:t=P:problem:mixed beam	!	!	!	!	!	!	!	!	!	!
4c\	.	16cc/LL	16cc/LL	4c\	-ſcen-	4G/	-ſcen-	4c/	-ſcen-	4cc\	-ſcen-	8r	8r
.	.	16ccc\	16ccc\	.	.	.	.	.	.	.	.	.	.
.	.	16bb\	16bb\	.	.	.	.	.	.	.	.	8e/L	8cc\L
.	.	16aa\JJ	16aa\JJ	.	.	.	.	.	.	.	.	.	.
!	!	!	!	!	!	!	!	!	!	!LO:LB:g=original	!	!	!
8G\L	.	16gg\LL	16gg\LL	8G,\	-dit	8G,/	-dit	8B,/	-dit	8dd,	-dit	8g/	8dd\
.	.	16ff\	16ff\	.	.	.	.	.	.	.	.	.	.
!	!	!	!	!LO:TX:a:t=P:problem:niewyraźny zapis	!	!	!	!	!	!	!	!	!
*	*	*	*	*	*	*	*	*	*Xij	*	*	*	*
!	!	!	!	!LO:TX:a:t=P:problem:bemol nad nutą	!	!	!	!	!	!	!	!	!
!	!	!	!	!LO:TX:a:t=♭	!	!	!	!	!	!	!	!	!
8B\J	.	16ee\	16ee\	8c\	de	8d\	de	8g\	de	8dd\	de	8g/J	8dd\J
.	.	16dd\JJ	16dd\JJ	.	.	.	.	.	.	.	.	.	.
!	!	!	!	!	!	!LO:PB:g=original	!	!	!	!	!	!	!
=28	=28	=28	=28	=28	=28	=28	=28	=28	=28	=28	=28	=28	=28
!LO:TX:a:t=P:problem:mixed beam	!	!	!	!LO:TX:a:t=P:problem:mixed beam	!	!	!	!	!	!	!	!	!
8c\L	.	16cc\LL	16ee\LL	8c\L	Cae-	16c\LL	Cae-	8g\L	Cae-	16ee\LL	Cae-	16cc\LL	16ee\LL
.	.	16ee\	16gg\	.	.	16e\	.	.	.	16gg\	.	16ee\	16gg\
8F\	6 5	16dd\	16ff\	8F\	.	16d\	.	8a\J	.	16ff\	.	16dd\	16ff\
.	.	16cc\JJ	16ee\JJ	.	.	16c\JJ	.	.	.	16ee\JJ	.	16cc\JJ	16ee\JJ
!	!	!	!	!	!	!	!	!LO:LB:g=original	!	!	!	!	!
8G\	4	8.cc\L	8.dd\L	8G\	.	(8c\L	.	4g\	.	4dd\	.	8.g/L	8.dd\L
8GG/J	7 3	.	.	8GG/J	.	8B\J)	-lis	.	.	.	.	.	.
.	.	16b\Jk	16dd\Jk	.	.	.	.	.	.	.	.	16g/Jk	16dd\Jk
!	!	!LO:TX:a:t=P:problem:mixed beam	!LO:TX:a:t=P:problem:mixed beam	!	!	!	!	!	!	!	!	!	!LO:TX:a:t=P:problem:mixed beam
4C/	.	8cc\L	8cc\L	4C/	-lis	4c\	.	4g\	-lis	4cc\	-lis	8e/L	8cc\L
.	.	8c/J	8c/J	.	.	.	.	.	.	.	.	16e/L	16g/L
.	.	.	.	.	.	.	.	.	.	.	.	16e/JJ	16g/JJ
!	!	!LO:TX:b:t=Verte Cito	!	!	!	!	!	!	!	!	!	!	!
4r	.	4r	4r	4r	.	4r	.	4r	.	4r	.	4c/	4e/
!	!	!	!	!	!	!	!	!	!	!	!	!LO:LB:g=original	!LO:PB:g=original
=29||	=29||	=29||	=29||	=29||	=29||	=29||	=29||	=29||	=29||	=29||	=29||	=29||	=29||
*M4/4	*	*M4/4	*M4/4	*	*	*	*	*	*	*M4/4	*	*M4/4	*M4/4
*met(c)	*	*met(c)	*met(c)	*	*	*	*	*	*	*met(c)	*	*met(c)	*met(c)
!LO:TX:b:t=adagio	!	!LO:TX:a:t=P:problem: metrum C z kropką w środku	!	!	!	!	!	!	!	!	!	!	!LO:TX:b:t=Et In Carnat(us)
!	!	!	!LO:TX:b:t=Et Incarn	!LO:TX:b:t=Adagio	!	!	!	!	!	!	!	!	!LO:TX:a:t=adagio
!LO:TX:a:t=Solo	!	!LO:TX:b:t=adagio	!LO:TX:a:t=adagio	!LO:TX:a:t=Et In Carnatus \nTacet	!	!LO:TX:a:t=Et Incarnatus Tacet	!	!LO:TX:a:t=Et Incarnatus eſt Tacet	!	!	!	!LO:TX:b:t=Et In Carnat(us)	!
8F'\L	.	8a/L	8ff'\L	1ryy	.	1ryy	.	1ryy	.	4cc\	Et	00r	00r
!LO:TX:b:t=Et Incarnatus	!	!	!	!	!	!	!	!	!	!	!	!	!
8F'\	.	8a/	8ff'\	.	.	.	.	.	.	.	.	.	.
8A'\	.	8a/	8ff'\	.	.	.	.	.	.	8cc\	In	.	.
!	!	!LO:TX:b:t=Et In Carnatus eſt	!	!	!	!	!	!	!	!LO:TX:a:t=P:problem:błąd w tekście	!	!	!
8F'\J	.	8a/J	8ff'\J	.	.	.	.	.	.	8cc\	Car-	.	.
!LO:TX:a:t=P:problem:mixed beam	!	!	!LO:LB:g=original	!	!	!	!	!	!	!	!	!	!
8B-X'\L	.	8b-X/L	8ff'\L	.	.	.	.	.	.	8dd\	-na-	.	.
!LO:SIC:s=BB-:v	!	!	!	!	!	!	!	!	!	!	!	!	!
8BB'/	.	8b-/	8ff'\	.	.	.	.	.	.	8f,/	-tus	.	.
8D'/	.	8b-/	8ff'\	.	.	.	.	.	.	8f/	eſt	.	.
8BB'/J	.	8b-/J	8ff'\J	.	.	.	.	.	.	8dd\	de	.	.
!LO:PB:g=original	!	!	!	!	!	!	!	!	!	!	!	!	!
=30	=30	=30	=30	=30	=30	=30	=30	=30	=30	=30	=30	=30	=30
8F'\L	.	8cc\L	8ff'\L	1ryy	.	1ryy	.	1ryy	.	4.cc\	ſpi-	.	.
8F'\	.	8a\	8ff'\	.	.	.	.	.	.	.	.	.	.
8A'\	6	8a\	8ff'\	.	.	.	.	.	.	.	.	.	.
8F'\J	.	8ff\J	8aa'\J	.	.	.	.	.	.	16cc\	-ri-	.	.
.	.	.	.	.	.	.	.	.	.	16cc,\	-tu	.	.
8G'\L	-	8ee\L	8gg'\L	.	.	.	.	.	.	2b-X\	ſan-	.	.
8G'\	.	8ee\	8gg'\	.	.	.	.	.	.	.	.	.	.
8E'\	.	8ee\	8gg'\	.	.	.	.	.	.	.	.	.	.
8C'\J	.	8ee\J	8gg'\J	.	.	.	.	.	.	.	.	.	.
=31	=31	=31	=31	=31	=31	=31	=31	=31	=31	=31	=31	=31	=31
8F'\L	.	8ff\L	8ff'\L	1ryy	.	1ryy	.	1ryy	.	4a,\	-cto	.	.
8F'\	.	8cc\	8ff'\	.	.	.	.	.	.	.	.	.	.
8A'\	6	8cc\	8ff'\	.	.	.	.	.	.	8a\	ex	.	.
8F'\J	.	8cc\J	8ff'\J	.	.	.	.	.	.	8a\	Ma-	.	.
!	!	!LO:TX:a:t=P:problem:mixed beam	!	!	!	!	!	!	!	!	!	!	!
8C'/L	.	8cc\L	8ee'\L	.	.	.	.	.	.	4g/	-ri-	.	.
8C'/	.	8cc\	8ee'\	.	.	.	.	.	.	.	.	.	.
!	!	!	!	!	!	!	!	!	!	!LO:LB:g=original	!	!	!
8E'/	6	8g/	8ee'\	.	.	.	.	.	.	4cc\	-a	.	.
8C'/J	.	8g/J	8ee'\J	.	.	.	.	.	.	.	.	.	.
=32	=32	=32	=32	=32	=32	=32	=32	=32	=32	=32	=32	=32	=32
!LO:TX:a:t=P:problem:mixed beam	!	!	!	!	!	!	!	!	!	!	!	!	!
8F'\L	6 5	8a/L	8dd'\L	1ryy	.	1ryy	.	1ryy	.	4.cc\	Vir-	.	.
8D'\	.	8a/	8dd'\	.	.	.	.	.	.	.	.	.	.
8G'\	4	8g/	8dd'\	.	.	.	.	.	.	.	.	.	.
8GG'/J	n	8g/J	8dd'\J	.	.	.	.	.	.	8bn\	-gi-	.	.
!	!	!LO:TX:a:t=P:problem:mixed beam	!	!	!	!	!	!	!	!	!	!	!
8C'/L	.	8g/L	8cc\L	.	.	.	.	.	.	4cc,\	-ne	.	.
8C'/	.	8ee\	8gg'\	.	.	.	.	.	.	.	.	.	.
8E'/	.	8ee\	8gg'\	.	.	.	.	.	.	4cc\	et	.	.
8C'/J	.	8ee\J	8gg'\J	.	.	.	.	.	.	.	.	.	.
=33	=33	=33	=33	=33	=33	=33	=33	=33	=33	=33	=33	=33	=33
8F'\L	.	8ff\L	8aa'\L	1ryy	.	1ryy	.	1ryy	.	4.cc\	ho-	00r	00r
8F'\	.	8cc\	8aa'\	.	.	.	.	.	.	.	.	.	.
8A'\	6	8cc\	8aa'\	.	.	.	.	.	.	.	.	.	.
8B-X'\J	6	8dd\J	8gg'\J	.	.	.	.	.	.	16b-X\LL	-mo	.	.
.	.	.	.	.	.	.	.	.	.	16a,\JJ	.	.	.
!LO:TX:a:t=P:problem:mixed beam	!	!	!	!	!	!	!	!	!	!	!	!	!
8c'\L	.	8cc\L	8ff'\L	.	.	.	.	.	.	4.g/	fac-	.	.
8B-'\	.	8cc\	8ee'\	.	.	.	.	.	.	.	.	.	.
8c'\	.	8cc\	8ee'\	.	.	.	.	.	.	.	.	.	.
8C'/J	7	8cc\J	8ee'\J	.	.	.	.	.	.	8g/	-tus	.	.
=34	=34	=34	=34	=34	=34	=34	=34	=34	=34	=34	=34	=34	=34
8F'\L	.	8cc\L	8ff'\L	1ryy	.	1ryy	.	1ryy	.	8a,\	eſt	.	.
8F'\	.	8cc\	8aa'\	.	.	.	.	.	.	4cc\	Cru-	.	.
8A'\	.	8cc\	8aa'\	.	.	.	.	.	.	.	.	.	.
8F'\J	.	8cc\J	8aa'\J	.	.	.	.	.	.	8cc\	-ci-	.	.
8C'/L	.	8ee\L	8gg'\L	.	.	.	.	.	.	4cc\	-fi-	.	.
8C'/	.	8ee\	8gg'\	.	.	.	.	.	.	.	.	.	.
8E'/	6	8ee\	8gg'\	.	.	.	.	.	.	4cc\	-xus	.	.
8C'/J	.	8ee\J	8gg'\J	.	.	.	.	.	.	.	.	.	.
=35	=35	=35	=35	=35	=35	=35	=35	=35	=35	=35	=35	=35	=35
8F'\L	.	8ff\L	8ff'\L	1ryy	.	1ryy	.	1ryy	.	8.cc\	eti-	.	.
8F'\	.	8aa\	8ff'\	.	.	.	.	.	.	.	.	.	.
.	.	.	.	.	.	.	.	.	.	16cc\	.	.	.
8A'\	.	8aa\	8ff'\	.	.	.	.	.	.	8f/	-am	.	.
8F'\J	.	8aa\J	8ff'\J	.	.	.	.	.	.	8cc\	pro	.	.
8B-X'\L	.	8bb-X\L	8ff'\L	.	.	.	.	.	.	4dd\	no-	.	.
!LO:SIC:s=8BB-:v	!	!	!	!	!	!	!	!	!	!	!	!	!
8BB'/J	.	8bb-\	8ff'\	.	.	.	.	.	.	.	.	.	.
!LO:LB:g=original	!	!	!	!	!	!	!	!	!	!	!	!	!
8BB-X'/L	.	8bb-\	8ff'\	.	.	.	.	.	.	8f/	-bis	.	.
!	!	!	!	!	!	!	!	!	!	!LO:LB:g=original	!	!	!
8GG'/J	.	8bb-\J	8ff'\J	.	.	.	.	.	.	8dd\	ſub	.	.
!	!	!LO:LB:g=original	!LO:LB:g=original	!	!	!	!	!	!	!	!	!	!
=36	=36	=36	=36	=36	=36	=36	=36	=36	=36	=36	=36	=36	=36
8F'\L	.	8aa\L	8ff'\L	1ryy	.	1ryy	.	1ryy	.	8.cc\	Ponti-	.	.
8F'\	.	8ff\	8aa'\	.	.	.	.	.	.	.	.	.	.
.	.	.	.	.	.	.	.	.	.	16cc\	-o	.	.
8A'\	.	8ff\	8aa'\	.	.	.	.	.	.	8cc,\	.	.	.
8F'\J	.	8ff\J	8aa'\J	.	.	.	.	.	.	8cc\	Pi-	.	.
!	!	!	!LO:SIC:s=8bb-:v	!	!	!	!	!	!	!	!	!	!
8G'\L	-	8ee\L	8bb'\L	.	.	.	.	.	.	4.b-X\	-la-	.	.
8G'\	.	8ee\	8gg'\	.	.	.	.	.	.	.	.	.	.
8E'\	.	8ee\	8gg'\	.	.	.	.	.	.	.	.	.	.
8C'\J	7	8ee\J	8gg'\J	.	.	.	.	.	.	(16cc\LL	.	.	.
.	.	.	.	.	.	.	.	.	.	16b-\JJ)	.	.	.
=37	=37	=37	=37	=37	=37	=37	=37	=37	=37	=37	=37	=37	=37
8F'\L	.	8ff\L	8ff'\L	1ryy	.	1ryy	.	1ryy	.	8a,\	-to	00r	00r
8F'\	.	8cc\	16ff'\L	.	.	.	.	.	.	4a\	paſ-	.	.
.	.	.	16ff'\JJ	.	.	.	.	.	.	.	.	.	.
8A'\	6	8cc\	8ff'\L	.	.	.	.	.	.	.	.	.	.
8F'\J	.	8cc\J	8cc'\J	.	.	.	.	.	.	8a\	-sus	.	.
8E'\L	6_ 5_	8b-X/L	8cc'\L	.	.	.	.	.	.	4.g/	Pas-	.	.
8E'\	.	8b-/	8cc'\	.	.	.	.	.	.	.	.	.	.
8E'\	.	8b-/	8cc'\	.	.	.	.	.	.	.	.	.	.
8E'\J	.	8b-/J	8cc'\J	.	.	.	.	.	.	16f/LL	.	.	.
.	.	.	.	.	.	.	.	.	.	16g/JJ	.	.	.
=38	=38	=38	=38	=38	=38	=38	=38	=38	=38	=38	=38	=38	=38
8F'\L	x	8a/L	8cc'\L	1ryy	.	1ryy	.	1ryy	.	8a,\	-ſus	.	.
8F'\	.	8a/	8ff'\	.	.	.	.	.	.	4cc\	eti-	.	.
8A'\	6	8a/	8ff'\	.	.	.	.	.	.	.	.	.	.
8F'\J	.	8a/J	8ff'\J	.	.	.	.	.	.	8cc\	-am	.	.
8B-X'\L	.	8b-X/L	8ff'\L	.	.	.	.	.	.	4dd,\	.	.	.
8B-'\	.	8b-/	8ff'\	.	.	.	.	.	.	.	.	.	.
8G'\	6	8b-/	8gg'\	.	.	.	.	.	.	4ee\	pro	.	.
8G'\J	.	8b-/J	8gg'\J	.	.	.	.	.	.	.	.	.	.
=39	=39	=39	=39	=39	=39	=39	=39	=39	=39	=39	=39	=39	=39
8F'\L	.	8cc/L	8aa'\L	1ryy	.	1ryy	.	1ryy	.	4ff\	no-	.	.
8F'\	.	8a/	8ff'\	.	.	.	.	.	.	.	.	.	.
8A'\	6	8a/	8ff'\	.	.	.	.	.	.	8cc,\	-bis	.	.
8F'\J	.	8a/J	8ff'\J	.	.	.	.	.	.	8cc\	pro-	.	.
!LO:TX:a:t=P:problem:zamazane nuty (korekta)	!	!	!	!	!	!	!	!	!	!	!	!	!
8E'\L	6_ 5_	8b-X/L	8gg'\L	.	.	.	.	.	.	2cc\	-no	.	.
8E'\	.	8b-/	8gg'\	.	.	.	.	.	.	.	.	.	.
8E'\	.	8b-/	8gg'\	.	.	.	.	.	.	.	.	.	.
8E'\J	.	8b-/J	8gg'\J	.	.	.	.	.	.	.	.	.	.
!	!	!	!	!	!	!	!	!	!	!LO:LB:g=original	!	!	!
=40	=40	=40	=40	=40	=40	=40	=40	=40	=40	=40	=40	=40	=40
8F'\L	x	8cc\L	8aa'\L	1ryy	.	1ryy	.	1ryy	.	4cc,\	bis	.	.
8F'\	.	8ff\	8aa'\	.	.	.	.	.	.	.	.	.	.
8A'\	6	8ff\	8aa'\	.	.	.	.	.	.	8cc\	paſ-	.	.
8F'\J	.	8ff\J	8aa'\J	.	.	.	.	.	.	8cc\	-sus	.	.
8F'\L	.	8ff\L	8aa'\L	.	.	.	.	.	.	4.b-X\	eſt	.	.
8F'\	.	8ff\	8aa'\	.	.	.	.	.	.	.	.	.	.
8A'\	.	8cc\	8aa'\	.	.	.	.	.	.	.	.	.	.
!LO:SIC:s=8B-:v	!	!	!	!	!	!	!	!	!	!	!	!	!
8B'\J	.	8dd\J	8ff'\J	.	.	.	.	.	.	16b-\LL	ſe-	.	.
.	.	.	.	.	.	.	.	.	.	16a\JJ	.	.	.
=41	=41	=41	=41	=41	=41	=41	=41	=41	=41	=41	=41	=41	=41
8c'\L	.	8ee\L	8ff'\L	1ryy	.	1ryy	.	1ryy	.	4.g/	-pul-	0r	0r
8B'\J	.	8gg\	8ff'\	.	.	.	.	.	.	.	.	.	.
!LO:LB:g=original	!	!	!	!	!	!	!	!	!	!	!	!	!
!LO:TX:a:t=P:problem:mixed beam	!	!	!	!	!	!	!	!	!	!	!	!	!
8c'\L	.	8gg\	8ee'\	.	.	.	.	.	.	.	.	.	.
8C'/J	4	8cc\J	8ee'\J	.	.	.	.	.	.	16f/LL	-tus	.	.
.	3	.	.	.	.	.	.	.	.	16g/JJ	.	.	.
!	!	!LO:TX:a:t=P:problem:mixed beam	!LO:TX:a:t=P:problem:mixed beam	!	!	!	!	!	!	!	!	!	!
8F'\L	.	8cc\L	8ff'\L	.	.	.	.	.	.	4a,\	et	.	.
8F'\	.	8f/	8f'/	.	.	.	.	.	.	.	.	.	.
8A'\	.	8f/	8f'/	.	.	.	.	.	.	4cc\	ſe-	.	.
8F'\J	.	8f/J	8f'/J	.	.	.	.	.	.	.	.	.	.
!	!	!	!LO:LB:g=original	!	!	!	!	!	!	!	!	!	!
=42	=42	=42	=42	=42	=42	=42	=42	=42	=42	=42	=42	=42	=42
8B-X'\L	.	8f/L	8f'/L	1ryy	.	1ryy	.	1ryy	.	4.dd\	-pul-	.	.
8B-'\	.	8f/	8f'/	.	.	.	.	.	.	.	.	.	.
8B-'\	.	8f/	8f'/	.	.	.	.	.	.	.	.	.	.
8B-'\J	.	8f/J	8f'/J	.	.	.	.	.	.	8dd\	-tus	.	.
8A'\L	6	8f/L	8f'/L	.	.	.	.	.	.	4cc,\	eſt	.	.
8A'\	.	8f/	8f'/	.	.	.	.	.	.	.	.	.	.
8F'\	.	8f/	8f'/	.	.	.	.	.	.	4cc\	ſe-	.	.
8A'\J	.	8f/J	8f'/J	.	.	.	.	.	.	.	.	.	.
!	!	!LO:LB:g=original	!	!	!	!	!	!	!	!	!	!	!
=43	=43	=43	=43	=43	=43	=43	=43	=43	=43	=43	=43	=43	=43
8B-X'\L	.	8f/L	8f'/L	1ryy	.	1ryy	.	1ryy	.	4.dd\	-pul-	1r	1r
8B-'\	.	8f/	8f'/	.	.	.	.	.	.	.	.	.	.
8B-'\	.	8f/	8f'/	.	.	.	.	.	.	.	.	.	.
8B-'\J	.	8f/J	8f'/J	.	.	.	.	.	.	8dd\	-tus	.	.
2F\	.	2f/	2f'/	.	.	.	.	.	.	2cc\	eſt	.	.
=44||	=44||	=44||	=44||	=44||	=44||	=44||	=44||	=44||	=44||	=44||	=44||	=44||	=44||
*M4/4	*	*M4/4	*M4/4	*M4/4	*	*M4/4	*	*M4/4	*	*M4/4	*	*M4/4	*M4/4
*met(c)	*	*met(c)	*met(c)	*met(c)	*	*met(c)	*	*met(c)	*	*met(c)	*	*met(c)	*met(c)
!	!	!LO:TX:a:t=P:problem: metrum C z kropką w środku	!	!	!	!	!	!	!	!	!	!	!
!LO:TX:b:t=Solo	!	!LO:TX:a:t=P:problem:mixed beam	!	!	!	!	!	!	!	!	!	!	!
!LO:TX:b:t=Et reſurrexit	!	!LO:TX:b:t=Et reſurrexit	!LO:TX:b:t=Et reſur	!	!	!	!	!	!	!	!	!LO:TX:b:t=Et reſurrexit	!LO:TX:b:t=Et [E] reſurrexit
4C/	.	16cc\LL	16cc/LL	00r	.	00r	.	00r	.	00r	.	4cc\	4ee\
.	.	16g/	16g/	.	.	.	.	.	.	.	.	.	.
.	.	16g/	16g/	.	.	.	.	.	.	.	.	.	.
.	.	16g/JJ	16g/JJ	.	.	.	.	.	.	.	.	.	.
!	!	!	!LO:TX:b:t=rexit	!	!	!	!	!	!	!	!	!	!
8r	.	16cc\LL	16cc\LL	.	.	.	.	.	.	.	.	8r	8r
.	.	16dd\	16dd\	.	.	.	.	.	.	.	.	.	.
8C/	.	16ee\	16ee\	.	.	.	.	.	.	.	.	16ee\LL	16gg\LL
.	.	16dd\JJ	16dd\JJ	.	.	.	.	.	.	.	.	16dd\JJ	16ff\JJ
!	!	!LO:TX:a:t=P:problem:mixed beam	!	!	!	!	!	!	!	!	!	!	!
4C/	.	16cc\LL	16cc/LL	.	.	.	.	.	.	.	.	4cc\	4ee\
.	.	16g/	16g/	.	.	.	.	.	.	.	.	.	.
.	.	16g/	16g/	.	.	.	.	.	.	.	.	.	.
.	.	16g/JJ	16g/JJ	.	.	.	.	.	.	.	.	.	.
8r	.	16cc\LL	16cc\LL	.	.	.	.	.	.	.	.	8r	8r
.	.	16dd\	16dd\	.	.	.	.	.	.	.	.	.	.
8C/	.	16ee\	16ee\	.	.	.	.	.	.	.	.	8e/	8cc\
.	.	16dd\JJ	16cc\JJ	.	.	.	.	.	.	.	.	.	.
=45	=45	=45	=45	=45	=45	=45	=45	=45	=45	=45	=45	=45	=45
8G\L	.	8b/L	8dd\L	.	.	.	.	.	.	.	.	8g/L	8dd\L
8G\	.	8b/J	8dd\J	.	.	.	.	.	.	.	.	8g/J	8dd\J
8B\	6	16b\LL	16dd\LL	.	.	.	.	.	.	.	.	8g/L	16dd\LL
.	.	16cc\	16ee\	.	.	.	.	.	.	.	.	.	16ee\
8G\J	.	16a\	16cc\	.	.	.	.	.	.	.	.	16e/L	16cc\
.	.	16b\JJ	16dd\JJ	.	.	.	.	.	.	.	.	16g/JJ	16dd\JJ
!LO:TX:a:t=P:problem:mixed beam	!	!	!	!	!	!	!	!	!	!	!	!	!
8c\L	.	16cc\LL	16ee\LL	.	.	.	.	.	.	.	.	4cc\	4ee\
.	.	16dd\J	16dd\J	.	.	.	.	.	.	.	.	.	.
8C/	.	8ee\J	8cc\J	.	.	.	.	.	.	.	.	.	.
8E/	6	16r	16r	.	.	.	.	.	.	.	.	16r	16r
.	.	16ee\LL	16gg\LL	.	.	.	.	.	.	.	.	16ee\LL	16gg\LL
8C/J	.	16cc\	16ee\	.	.	.	.	.	.	.	.	16cc\	16ee\
.	.	16ee\JJ	16gg\JJ	.	.	.	.	.	.	.	.	16ee\JJ	16gg\JJ
=46	=46	=46	=46	=46	=46	=46	=46	=46	=46	=46	=46	=46	=46
4F\	.	8ff\L	8aa\L	.	.	.	.	.	.	.	.	8ff\L	8aa\L
.	.	16ff\L	16aa\L	.	.	.	.	.	.	.	.	16ff\L	16aa\L
.	.	16ee\JJ	16gg\JJ	.	.	.	.	.	.	.	.	16ee\JJ	16gg\JJ
8r	.	16ff\LL	16aa\LL	.	.	.	.	.	.	.	.	16ff\LL	16aa\LL
.	.	16ee\	16gg\	.	.	.	.	.	.	.	.	16ee\	16gg\
8F\	6 5	16dd\	16ff\	.	.	.	.	.	.	.	.	16dd\	16ff\
.	.	16cc\JJ	16ee\JJ	.	.	.	.	.	.	.	.	16cc\JJ	16ee\JJ
!	!	!	!LO:LB:g=original	!	!	!	!	!	!	!	!	!	!
!	!	!	!LO:TX:a:t=P:problem:mixed beam	!	!	!	!	!	!	!	!	!	!
8G\L	.	8b/L	8dd\L	.	.	.	.	.	.	.	.	8g/L	8dd\L
8G\	.	8b/J	8g/J	.	.	.	.	.	.	.	.	8g/	8dd\
8B\	6	16r	16r	.	.	.	.	.	.	.	.	8g/	8dd\
.	.	16g/LL	16g/LL	.	.	.	.	.	.	.	.	.	.
8G\J	.	16a/	16a/	.	.	.	.	.	.	.	.	8g/J	8dd\J
.	.	16b/JJ	16b/JJ	.	.	.	.	.	.	.	.	.	.
=47	=47	=47	=47	=47	=47	=47	=47	=47	=47	=47	=47	=47	=47
!	!	!LO:TX:a:t=P:problem:mixed beam	!LO:TX:a:t=P:problem:mixed beam	!	!	!	!	!	!	!	!	!	!
4c\	.	16cc\LL	8cc\L	.	.	.	.	.	.	.	.	4e/	4cc\
.	.	16g/	.	.	.	.	.	.	.	.	.	.	.
.	.	16g/	8g/J	.	.	.	.	.	.	.	.	.	.
.	.	16g/JJ	.	.	.	.	.	.	.	.	.	.	.
4r	.	16cc\LL	16cc\LL	.	.	.	.	.	.	.	.	8r	8r
.	.	16dd\	16dd\	.	.	.	.	.	.	.	.	.	.
.	.	16ee\	16ee\	.	.	.	.	.	.	.	.	16ee\LL	16gg\LL
.	.	16dd\JJ	16dd\JJ	.	.	.	.	.	.	.	.	16dd\JJ	16ff\JJ
!	!	!LO:LB:g=original	!	!	!	!	!	!	!	!	!	!	!
8C\L	.	16cc\LL	16cc\LL	.	.	.	.	.	.	.	.	16cc\LL	16ee\LL
.	.	16ee\	16gg\	.	.	.	.	.	.	.	.	16ee\	16gg\
8F\J	6 5	16dd\	16ff\	.	.	.	.	.	.	.	.	16dd\	16ff\
.	.	16cc\JJ	16ee\JJ	.	.	.	.	.	.	.	.	16cc\JJ	16ee\JJ
!LO:LB:g=original	!	!	!	!	!	!	!	!	!	!	!	!	!
!LO:TX:a:t=P:problem:mixed beam	!	!	!	!	!	!	!	!	!	!	!	!	!LO:LB:g=original
8G\L	.	8.cc\L	8.dd\L	.	.	.	.	.	.	.	.	16g/LL	8.dd\L
.	.	.	.	.	.	.	.	.	.	.	.	16e/	.
8GG/J	.	.	.	.	.	.	.	.	.	.	.	16c/	.
.	.	16b\Jk	16dd\Jk	.	.	.	.	.	.	.	.	16g/JJ	16dd\Jk
!	!	!	!	!LO:LB:g=original	!	!	!	!LO:LB:g=original	!	!	!	!	!
=48	=48	=48	=48	=48	=48	=48	=48	=48	=48	=48	=48	=48	=48
!LO:TX:b:t='Tutti	!	!	!	!	!	!	!	!	!	!	!	!	!
!LO:TX:a:t=P:problem:mixed beam	!	!	!	!	!	!	!	!	!	!	!	!	!
8C/L	.	8cc\L	16cc\LL	8r	.	8r	.	8r	.	8r	.	4e/	4cc\
.	.	.	16ee\	.	.	.	.	.	.	.	.	.	.
8c\	.	8cc\	16ee\	8c\	Et	8c\	Et	8g\	Et	8ee\	Et	.	.
.	.	.	16ee\JJ	.	.	.	.	.	.	.	.	.	.
8B\	6	8dd\	16gg\LL	8B\	reſur-	8d\	reſur-	8d\	reſur-	8dd\	re-	4r	4r
.	.	.	16dd\	.	.	.	.	.	.	.	.	.	.
8G\J	.	8dd\J	16dd\	8G\	.	8d\	.	8g\	.	8b\	-ſur-	.	.
.	.	.	16dd\JJ	.	.	.	.	.	.	.	.	.	.
!	!	!	!	!	!	!	!	!	!	!LO:LB:g=original	!	!LO:LB:g=original	!
8c\L	.	8cc\L	16ee\LL	8c\	-rexit	8e\	-rexit	8d\	-rexit	8cc\	-rexit	2r	2r
.	.	.	16gg\	.	.	.	.	.	.	.	.	.	.
8G\	.	8b\	16gg\	8G\	.	8d\	.	8g\	.	8b,\	.	.	.
.	.	.	16gg\JJ	.	.	.	.	.	.	.	.	.	.
8A\	6	8cc\	16ff\LL	8A\	ter-	8c\	Ter-	8e\	ter-	8cc\	ter-	.	.
.	.	.	16ff\	.	.	.	.	.	.	.	.	.	.
8B\J	6 5	8dd\J	16ff\	8B\	-tia	16B\	-tia	16g\	-tia	16dd\	-ti-	.	.
.	.	.	16ff\JJ	.	.	16d\	.	16g\	.	16dd\	-a	.	.
!	!	!	!	!	!	!LO:LB:g=original	!	!	!	!	!	!	!
=49	=49	=49	=49	=49	=49	=49	=49	=49	=49	=49	=49	=49	=49
!LO:TX:a:t=P:problem:mixed beam	!	!	!	!	!	!	!	!	!	!	!	!	!
8c\L	.	8ee\L	16ee\LL	4c,\	.	4c\	di-	4g\	di-	4ee\	di-	8r	8r
.	.	.	16cc\	.	.	.	.	.	.	.	.	.	.
8C/	.	8ee\	16cc\	.	.	.	.	.	.	.	.	8e/L	8cc\L
.	.	.	16cc\JJ	.	.	.	.	.	.	.	.	.	.
8c\	.	8cc\	16ee\LL	8c\	die	8c\	-e	8e,\	-e	8cc,\	-e	8g/	8dd\
.	.	.	16ee\	.	.	.	.	.	.	.	.	.	.
8B\J	6	8dd\J	16dd\	8B\	ſe-	8G/	ſe-	8g\	ſe-	8dd\	ſe-	8g/J	8dd\J
.	.	.	16dd\JJ	.	.	.	.	.	.	.	.	.	.
!	!	!	!	!	!	!	!	!	!	!	!	!LO:TX:a:t=P:problem:mixed beam	!
8c\L	.	8ee\L	8ee\L	8c\	-cun-	8c\	-cun-	8g\	-cun-	8ee\	-cun-	8g/L	8ee\L
8B\	6	8dd\	8gg\	16B\	-dum	16d\	-dum	16g\	-du(m)	16dd,\	-dum	8dd\	8gg\
!	!	!	!	!	!	!	!	!LO:TX:a:t=P:problem:wykreślona kreska taktowa	!	!	!	!	!
.	.	.	.	16B\	.	16d\	ſcri-	16g\	ſcri-	16dd\	ſcrip-	.	.
8A\	7	8cc\	8.gg\	8A\L	-ſcrip-	4A/	-ptu-	8g\L	-ptu-	4cc\	-tu-	8cc\	8gg\
!LO:TX:a:t=#	!	!	!	!	!	!	!	!	!	!	!	!	!
8D\J	7	8cc\J	.	8D\J	-tu-	.	.	8f#X\J	.	.	.	8cc\J	8ff#X\J
.	.	.	16ff#X\Jk	.	.	.	.	.	.	.	.	.	.
=50	=50	=50	=50	=50	=50	=50	=50	=50	=50	=50	=50	=50	=50
8G\	.	16dd\LL	16gg\LL	8G,\	-ras	8B\	-ras	8g\	-ras	8b,\	-ras	4dd\	8gg\L
.	.	16dd\	16dd\	.	.	.	.	.	.	.	.	.	.
!	!	!	!	!LO:TX:a:t=P:problem:tekst s="et ascendit"	!	!	!	!LO:SIC:l:s=et:v	!	!	!	!	!
4G\	.	16dd\	16dd\	4G\	et	4G/	et	4d\	e	4dd\	et	.	16dd\L
.	.	16dd\JJ	16dd\JJ	.	.	.	.	.	.	.	.	.	16dd\JJ
.	.	16gg\LL	16gg\LL	.	.	.	.	.	.	.	.	8r	16dd\LL
.	.	16aa\	16aa\	.	.	.	.	.	.	.	.	.	16dd\
8G\	.	16bb\	16bb\	8G\	a-	8B\	a-	8g\	a-	8b\	a-	8dd\	16dd\
.	.	16gg\JJ	16gg\JJ	.	.	.	.	.	.	.	.	.	16dd\JJ
!	!	!	!LO:LB:g=original	!	!	!	!	!LO:LB:g=original	!	!	!	!	!
8F#X\	6	16aa\LL	16aa\LL	8F#X\	-ſcen-	8d\	-ſcen-	8d\	-scen-	8a\	-ſcen-	8dd\L	4dd\
.	.	16gg\	16gg\	.	.	.	.	.	.	.	.	.	.
!	!	!	!LO:SIC:s=16ff#:v	!	!	!	!	!	!	!	!	!	!
4D/	.	16ff#X\	16ff\	4D\	-dit	4d\	-dit	4f#X\	-dit	4a,\	-dit	16dd\L	.
.	.	16gg\JJ	16gg\JJ	.	.	.	.	.	.	.	.	16dd\JJ	.
.	.	16aa\LL	16aa\LL	.	.	.	.	.	.	.	.	16dd\LL	8r
.	.	16gg\	16gg\	.	.	.	.	.	.	.	.	16dd\	.
!	!	!	!LO:SIC:s=16ff#:v	!	!	!	!	!	!	!	!	!	!
8F#X\	6	16ff#\	16ff\	8F#\	in	8d\	in	8d\	in	8a\	in	16dd\	8dd\
.	.	16aa\JJ	16aa\JJ	.	.	.	.	.	.	.	.	16dd\JJ	.
=51	=51	=51	=51	=51	=51	=51	=51	=51	=51	=51	=51	=51	=51
8G\L	.	8gg\L	16gg\LL	8G\	Cae-	8d\	Cae-	8g\	Cae-	8b\	Cae-	8dd\L	8dd\L
.	.	.	16dd\	.	.	.	.	.	.	.	.	.	.
!	!	!	!	!LO:LB:g=original	!	!	!	!	!	!	!	!	!
8G\	.	8dd\	16dd\	8G\	-lum	8B\	-lum	8g,\	-lum	8b,\	-lum	8dd\J	8dd\J
.	.	.	16dd\JJ	.	.	.	.	.	.	.	.	.	.
!	!	!	!LO:TX:a:t=P:problem:mixed beam	!	!	!	!	!	!	!	!	!	!
8F#X\	6	8dd\	16a/LL	8F#X\	ſedet	8A/	ſedet	8a\	ſe-	8dd\	ſe-	4r	4r
.	.	.	16ff#X\	.	.	.	.	.	.	.	.	.	.
8D\J	.	8dd\J	16ff#\	16D,/	.	16A/	.	16f#X\	-det	16dd\	-det	.	.
!	!	!	!	!	!	!LO:TX:a:t=P:problem:tekst s="ad"	!	!	!	!LO:LB:g=original	!	!	!
.	.	.	16ff#\JJ	16D/	ad	16A/	a	16f#\	ad	16dd\	ad	.	.
!LO:TX:a:t=P:problem:mixed beam	!	!	!	!	!	!	!	!	!	!	!	!	!
8G\L	.	8dd\L	16gg\LL	8G\	dex-	8B\	dex-	8e\	dex-	8b\	dex-	2r	2r
.	.	.	16gg\	.	.	.	.	.	.	.	.	.	.
8E\	6 5	8dd\	16gg\	16E\	-teram	16B\	-teram	16e\	-teram	16cc\	-ter-	.	.
.	.	.	16gg\JJ	16E\	.	16B\	.	16e,\	.	16ee\	-am	.	.
!	!	!	!	!LO:TX:a:t=P:problem:mixed beam	!	!	!	!	!	!	!	!	!
8A\	4	8dd\	16ee\LL	8A\L	Pa-	4A/	Pa-	4e\	Pa-	(8dd\L	'Pa-	.	.
.	.	.	16ee\	.	.	.	.	.	.	.	.	.	.
8AA/J	# 3	8cc#X\J	16ee\	8AA/J	-tris	.	.	.	.	8cc#X\J)	-tris	.	.
.	.	.	16ee\JJ	.	.	.	.	.	.	.	.	.	.
!	!	!	!	!	!	!LO:LB:g=original	!	!	!	!	!	!	!
=52	=52	=52	=52	=52	=52	=52	=52	=52	=52	=52	=52	=52	=52
!	!	!LO:TX:a:t=P:problem:mixed beam	!LO:TX:a:t=P:problem:mixed beam	!	!	!	!	!	!	!	!	!	!
4D/	#	16dd\LL	16dd\LL	4D/	.	4A/	-tris	4f#X\	-tris	4dd\	.	0r	0r
.	.	16a/	16a/	.	.	.	.	.	.	.	.	.	.
.	.	16a/	16a/	.	.	.	.	.	.	.	.	.	.
.	.	16a/JJ	16a/JJ	.	.	.	.	.	.	.	.	.	.
8r	.	16dd\LL	16dd\LL	4r	.	4r	.	4r	.	4r	.	.	.
.	.	16ee\	16ee\	.	.	.	.	.	.	.	.	.	.
8D/	.	16ff#X\	16ff#X\	.	.	.	.	.	.	.	.	.	.
.	.	16ee\JJ	16ee\JJ	.	.	.	.	.	.	.	.	.	.
!	!	!LO:TX:a:t=P:problem:mixed beam	!LO:TX:a:t=P:problem:mixed beam	!	!	!	!	!	!	!	!	!	!
4D/	.	16dd\LL	16dd\LL	2r	.	2r	.	2r	.	2r	.	.	.
.	.	16a/	16a/	.	.	.	.	.	.	.	.	.	.
.	.	16a/	16a/	.	.	.	.	.	.	.	.	.	.
.	.	16a/JJ	16a/JJ	.	.	.	.	.	.	.	.	.	.
!	!	!LO:LB:g=original	!	!	!	!	!	!	!	!	!	!	!
8r	.	16dd\LL	16dd\LL	.	.	.	.	.	.	.	.	.	.
.	.	16ee\	16ee\	.	.	.	.	.	.	.	.	.	.
8D/	.	16ff#X\	16ff#X\	.	.	.	.	.	.	.	.	.	.
.	.	16dd\JJ	16dd\JJ	.	.	.	.	.	.	.	.	.	.
=53	=53	=53	=53	=53	=53	=53	=53	=53	=53	=53	=53	=53	=53
8AA/L	.	16cc#X\LL	16ee\LL	0r	.	1r	.	0r	.	0r	.	.	.
.	.	16b\	16dd\	.	.	.	.	.	.	.	.	.	.
8AA/	.	16cc#\	16ee\	.	.	.	.	.	.	.	.	.	.
.	.	16dd\JJ	16ff#X\JJ	.	.	.	.	.	.	.	.	.	.
8C#X/	6	16cc#\LL	16ee\LL	.	.	.	.	.	.	.	.	.	.
.	.	16dd\	16ff#\	.	.	.	.	.	.	.	.	.	.
8AA/J	.	16b\	16dd\	.	.	.	.	.	.	.	.	.	.
.	.	16cc#\JJ	16ee\JJ	.	.	.	.	.	.	.	.	.	.
8D/L	#	8dd\L	16ff#X\LL	.	.	.	.	.	.	.	.	.	.
.	.	.	16aa\	.	.	.	.	.	.	.	.	.	.
8r	.	8r	16aa\	.	.	.	.	.	.	.	.	.	.
.	.	.	16aa\JJ	.	.	.	.	.	.	.	.	.	.
!	!	!	!LO:LB:g=original	!	!	!	!	!	!	!	!	!	!
8C#X/J	6	8a\J	16ee\LL	.	.	.	.	.	.	.	.	.	.
.	.	.	16aa\	.	.	.	.	.	.	.	.	.	.
8r	.	8r	16aa\	.	.	.	.	.	.	.	.	.	.
.	.	.	16aa\JJ	.	.	.	.	.	.	.	.	.	.
!LO:LB:g=original	!	!	!	!	!	!	!	!	!	!	!	!	!
=54	=54	=54	=54	=54	=54	=54	=54	=54	=54	=54	=54	=54	=54
8D/L	#	8dd\L	16ff#X\LL	.	.	1r	.	.	.	.	.	1r	1r
.	.	.	16aa\	.	.	.	.	.	.	.	.	.	.
8r	.	8r	16aa\	.	.	.	.	.	.	.	.	.	.
.	.	.	16aa\JJ	.	.	.	.	.	.	.	.	.	.
8AA/J	#	8cc#X\J	16ee\LL	.	.	.	.	.	.	.	.	.	.
.	.	.	16aa\	.	.	.	.	.	.	.	.	.	.
8r	.	8r	16aa\	.	.	.	.	.	.	.	.	.	.
.	.	.	16aa\JJ	.	.	.	.	.	.	.	.	.	.
!LO:TX:a:t=P:problem:mixed beam	!	!	!	!	!	!	!	!	!	!	!	!	!
8G\L	5	16gg\LL	16bb\LL	.	.	.	.	.	.	.	.	.	.
!	!	!LO:SIC:s=16ff#:v	!	!	!	!	!	!	!	!	!	!	!
.	.	16ff\	16aa\	.	.	.	.	.	.	.	.	.	.
8E\	.	16ee\	16gg\	.	.	.	.	.	.	.	.	.	.
.	.	16dd\JJ	16ff#X\JJ	.	.	.	.	.	.	.	.	.	.
8A\	#	8.dd\L	8.ee\L	.	.	.	.	.	.	.	.	.	.
8AA/J	.	.	.	.	.	.	.	.	.	.	.	.	.
.	.	16cc#X\Jk	16ee\Jk	.	.	.	.	.	.	.	.	.	.
=55	=55	=55	=55	=55	=55	=55	=55	=55	=55	=55	=55	=55	=55
!LO:TX:a:t=Tut	!	!	!	!	!	!	!	!	!	!	!	!	!
4D/	.	8dd\L	8ff#X\L	4r	.	4r	.	4r	.	4r	.	4r	4r
.	.	8dd\	8ff#\	.	.	.	.	.	.	.	.	.	.
8r	.	8r	8r	8r	.	8r	.	8r	.	8r	.	8r	8r
8D/	.	8ff#X\J	8aa\J	8D/	Et	8d\	Et	8d\	Et	8a\	Et	8dd\	8dd\
8.D\L	.	8.ff#\L	8.aa\L	8.D/	I-	8.A/	Ite-	8.f#X\	Ite-	8.dd\	ite-	8dd\L	8dd\L
.	.	.	.	.	.	.	.	.	.	.	.	16dd\L	16dd\L
16E\K	#	16ee\K	16gg\Jk	16E\	-te-	16G/	.	16g\	.	16cc\	-rum	16dd\JJ	16dd\JJ
8F\	6	8dd\	16ff#X\LL	8F,\	-rum	8F#X/	-rum	8a\	-rum	8dd,\	.	16dd\LL	16dd\LL
.	.	.	16aa\	.	.	.	.	.	.	.	.	16dd\	16dd\
8D\J	.	8ff#\J	16gg\	8D\	ven-	8A/	ven-	8a\	ven-	8a\	ven-	16dd\	16dd\
.	.	.	16ff#X\JJ	.	.	.	.	.	.	.	.	16dd\JJ	16dd\JJ
!	!	!	!	!	!	!	!	!LO:LB:g=original	!	!	!	!	!
=56	=56	=56	=56	=56	=56	=56	=56	=56	=56	=56	=56	=56	=56
!LO:TX:a:t=P:problem:mixed beam	!	!LO:TX:a:t=P:problem:mixed beam	!	!	!	!	!	!	!	!	!	!	!
8G\L	.	8gg\L	16gg\LL	8G\	-tu-	8B\	-tu-	8g\	-tu-	8b\	-tu-	8dd\L	8dd\L
.	.	.	16dd\	.	.	.	.	.	.	.	.	.	.
8GG/	.	16b/L	16dd\	8G\	-rus	8d\	-rus	8d\	-rus	8b\	-rus	8dd\J	8dd\J
.	.	16a/JJ	16cc\JJ	.	.	.	.	.	.	.	.	.	.
!	!	!	!	!	!	!	!	!	!	!	!	!	!LO:LB:g=original
8r	.	16g/LL	16b\LL	8r	.	8r	.	8r	.	8r	.	8r	8r
.	.	16a/	16cc\	.	.	.	.	.	.	.	.	.	.
8G\J	.	16b/	16dd\	8G\	ven-	8B\	ven-	8g\	ven-	8dd\	ven-	8g/	8g/
.	.	16a/JJ	16cc\JJ	.	.	.	.	.	.	.	.	.	.
8G\L	.	16g/LL	16b/LL	8G\	-tu-	8B\	-tu-	8g\	-tu-	8dd\	-tu-	8g/L	8g/L
.	.	16g/	16b/	.	.	.	.	.	.	.	.	.	.
8A\	.	16f/	16a/	8A\	-rus	8c\	-rus	8f\	-rus	8cc,\	-rus	16g/L	16g/L
.	.	16f/JJ	16a/JJ	.	.	.	.	.	.	.	.	16g/JJ	16g/JJ
8B\	6	8g/L	16g/LL	8B\	eſt	8d\	eſt	8g,\	eſt	8b\	eſt	16g/LL	16g/LL
.	.	.	16gg\	.	.	.	.	.	.	.	.	16g/	16g/
8G\J	.	8b/J	16dd\	8G\	cu(m)	8B\	cum	8b\	Cum	8dd\	cum	16g/	16g/
.	.	.	16gg\JJ	.	.	.	.	.	.	.	.	16g/JJ	16g/JJ
!	!	!	!	!LO:LB:g=original	!	!	!	!	!	!	!	!	!
=57	=57	=57	=57	=57	=57	=57	=57	=57	=57	=57	=57	=57	=57
8c\L	.	8cc\L	16ee\LL	8c\	glo-	8c\	glo-	8g\	glo-	8ee\	glo-	8g/L	8g/L
.	.	.	16gg\	.	.	.	.	.	.	.	.	.	.
!	!	!	!	!	!	!	!	!	!	!LO:LB:g=original	!	!	!
8c\	.	8cc\J	16gg\	16c\	-ria	16c\	-ria	16g\	-ria	16ee\	-ria	8g/J	8g/J
.	.	.	16gg\JJ	16c,\	.	16c\	.	16e,\	.	16ee,\	.	.	.
8G\	.	16b\LL	16dd\LL	8G\	Ju-	8B\	Ju-	8g\	Ju-	8dd\	Ju-	4r	4r
.	.	16cc\	16cc\	.	.	.	.	.	.	.	.	.	.
8G\J	.	16dd\	16b\	8G\	-di-	8B\	-di-	8g\	-di-	8dd\	-di-	.	.
.	.	16b\JJ	16dd\JJ	.	.	.	.	.	.	.	.	.	.
!	!	!LO:LB:g=original	!LO:LB:g=original	!	!	!	!	!	!	!	!	!	!
8A\L	5	8cc\L	8cc\L	8A\	-ca-	8A/	-ca-	8e\	-ca-	8cc\	-ca-	2r	2r
8r	.	8r	8r	8r	.	8r	.	8r	.	8r	.	.	.
!	!	!	!	!	!	!LO:LB:g=original	!	!	!	!	!	!	!
8E\J	6	8cc\J	8gg\J	8E\	-re	8c\	-re	8g\	-re	8cc\	-re	.	.
8r	.	8r	8r	8r	.	8r	.	8r	.	8r	.	.	.
!	!	!	!	!	!	!	!	!	!	!	!	!LO:LB:g=original	!
=58	=58	=58	=58	=58	=58	=58	=58	=58	=58	=58	=58	=58	=58
8F\L	.	8cc\L	8aa\L	8F\	Ju-	8c\	Ju-	8a\	Ju-	8a\	Ju-	1r	1r
8E\	6	8cc\	8gg\	8E\	-di-	8c\	-di-	8g\	-di-	8cc\	-di-	.	.
8D\	7	8cc\	8.ff\	8D/	-care	8d\	-care	8f\	-ca-	8cc\	-ca-	.	.
8G\J	7	8b\J	.	8G,\	.	8d,\	.	8f\	-re	8b\	-re	.	.
.	.	.	16ff\Jk	.	.	.	.	.	.	.	.	.	.
!	!	!	!LO:TX:a:t=P:problem:mixed beam	!	!	!	!	!	!	!LO:TX:a:t=P:problem:korygowany tekst	!	!	!
8C/	.	8cc\L	16ee\LL	8C/	vi-	8e\	vi-	8g\	vi-	8cc\	vivos	.	.
.	.	.	16g/	.	.	.	.	.	.	.	.	.	.
!	!	!	!	!	!	!	!	!LO:LB:g=original	!	!	!	!	!
4C/	.	8cc\	16g/	4C,/	-vos	4c\	-vos	4g,\	-vos	4ee,\	.	.	.
.	.	.	16g/JJ	.	.	.	.	.	.	.	.	.	.
.	.	8cc\	16cc\LL	.	.	.	.	.	.	.	.	.	.
.	.	.	16dd\	.	.	.	.	.	.	.	.	.	.
8E\	6	8cc\J	16ee\	8E\	et	8c\	et	8g\	et	8cc\	et	.	.
.	.	.	16cc\JJ	.	.	.	.	.	.	.	.	.	.
=59	=59	=59	=59	=59	=59	=59	=59	=59	=59	=59	=59	=59	=59
!LO:TX:a:t=P:problem:mixed beam	!	!	!	!	!	!	!	!LO:TX:a:t=P:problem:niewyraźny rytm	!	!	!	!	!
8F\L	.	16ff\LL	16gg\LL	(8F\L	mor-	4.A/	mortu-	4f\	mor-	8cc\L	mor-	2r	2r
.	.	16ee\	16ee\	.	.	.	.	.	.	.	.	.	.
8D\	6 5	16dd\	16dd\	8D\J)	.	.	.	.	.	8b\J	.	.	.
.	.	16cc\JJ	16cc\JJ	.	.	.	.	.	.	.	.	.	.
8E\	.	16b\LL	8.b\L	8.E\	-tu-	.	.	8.e\	-tu-	8.b\	.	.	.
.	.	16gg#X\	.	.	.	.	.	.	.	.	.	.	.
8EE/J	4	16ff\	.	.	.	8G#X/	.	.	.	.	.	.	.
.	# 3	16gg#\JJ	16b\Jk	16E\	.	.	.	16e\	-os	16b\	-tuos	.	.
8AA/	.	16aa\LL	16cc\LL	8AA/	-os	8A,/	-os	8e,\	.	8cc,\	.	8r	8r
.	.	16cc\	16a\	.	.	.	.	.	.	.	.	.	.
4A\	.	16cc\	16a\	4A\	Cuius	4c\	Cujus	4a\	Cujus	4a\	cu-	8e/L	8e/L
.	.	16cc\JJ	16a\JJ	.	.	.	.	.	.	.	.	.	.
.	.	16cc\LL	16cc\LL	.	.	.	.	.	.	.	.	8e/	8e/
.	.	16cc\	16ee\	.	.	.	.	.	.	.	.	.	.
8G#X\	6	16b\	16ee\	8G#X\	.	8B\	.	8e\	.	8b\	-jus	8e/J	8e/J
.	.	16b\JJ	16ee\JJ	.	.	.	.	.	.	.	.	.	.
=60	=60	=60	=60	=60	=60	=60	=60	=60	=60	=60	=60	=60	=60
8A\	.	8cc\L	16aa\LL	8A\	regni	8A\	regni	8c/	re-	8cc\	re-	4e/	8e/L
.	.	.	16ee\	.	.	.	.	.	.	.	.	.	.
!LO:LB:g=original	!	!	!	!	!	!	!	!	!	!	!	!	!
!LO:TX:a:t=#	!	!	!	!	!	!	!	!	!	!	!	!	!
4E\	.	8b\	16ee\	4E\	.	4B\	.	4g#X\	-gni	4cc\	-gni	.	16e/L
.	.	.	16ee\JJ	.	.	.	.	.	.	.	.	.	16e/JJ
.	.	8b\	16b\LL	.	.	.	.	.	.	.	.	8r	16e/LL
.	.	.	16ee\	.	.	.	.	.	.	.	.	.	16e/
!	!	!	!	!	!	!	!	!	!	!LO:PB:g=original	!	!	!
8G#X\	.	8b\J	16ee\	8G#X\	non	8B\	non	8e\	n(on)	8ee\	non	8e/	16e/
.	.	.	16ee\JJ	.	.	.	.	.	.	.	.	.	16e/JJ
!	!	!	!	!LO:LB:g=original	!	!	!	!	!	!	!	!	!
4A\	.	16cc\LL	16cc\LL	4A\	n(on)	4e\	n(on)	4a\	n(on)	4cc\	n(on)	8e/L	4e/
.	.	16cc\	16ee\	.	.	.	.	.	.	.	.	.	.
.	.	16cc\	16ee\	.	.	.	.	.	.	.	.	16e/L	.
.	.	16cc\JJ	16ee\JJ	.	.	.	.	.	.	.	.	16e/JJ	.
8r	.	16b/LL	16b\LL	8r	.	8r	.	8r	.	8r	.	16e/LL	8r
.	.	16b/	16ee\	.	.	.	.	.	.	.	.	16e/	.
8G#X\	.	16b/	16ee\	8G#X\	n(on)	8B\	n(on)	8e\	n(on)	8b\	non	16e/	8e/
.	.	16b/JJ	16ee\JJ	.	.	.	.	.	.	.	.	16e/JJ	.
=61	=61	=61	=61	=61	=61	=61	=61	=61	=61	=61	=61	=61	=61
!LO:TX:a:t=P:problem:mixed beam	!	!	!	!	!	!	!	!	!	!	!	!	!
8A\L	.	16cc/LL	16aa\LL	8A\	e-	(16A\LL	e	8e\	erit	(16cc\LL	e-	8e/L	8e/L
.	.	16cc/	16ee\	.	.	16c\JJ)	.	.	.	16ee\JJ)	-rit	.	.
!	!	!	!	!	!	!LO:LB:g=original	!	!	!	!	!	!	!
8D\	6 5	16b/	16dd\	8D/	-rit	(16B\LL	rit	8f\	.	(16dd\LL	.	8e/	16e/L
.	.	16b/JJ	16cc\JJ	.	.	16A\JJ)	.	.	.	16cc,\JJ)	.	.	16e/JJ
8E\	4	8.a/L	8.b\L	4E\	Fi-	(8.A/L	fi-	4e\	Fi-	4b\	Fi-	8e/	16e/LL
.	#	.	.	.	.	.	.	.	.	.	.	.	16e/
8EE/J	.	.	.	.	.	.	.	.	.	.	.	8e/J	16e/
.	.	16g#X/Jk	16b\Jk	.	.	16G#X/Jk)	-nis	.	.	.	.	.	16e/JJ
!LO:TX:b:t=Solo	!	!	!	!	!	!	!	!	!	!	!	!	!
4AA/	.	16a/LL	16cc\LL	4AA/	-nis	4A\	.	4e\	-nis	4cc\	-nis	4e/	4e/
.	.	16cc/	16ee\	.	.	.	.	.	.	.	.	.	.
.	.	16cc/	16ee\	.	.	.	.	.	.	.	.	.	.
.	.	16cc/JJ	16ee\JJ	.	.	.	.	.	.	.	.	.	.
!	!	!	!LO:PB:g=original	!	!	!	!	!	!	!	!	!	!
8r	.	16ee\LL	16aa\LL	4r	.	4r	.	4r	.	4r	.	4r	4r
.	.	16cc\	16ee\	.	.	.	.	.	.	.	.	.	.
8A\	.	16cc\	16ee\	.	.	.	.	.	.	.	.	.	.
.	.	16cc\JJ	16ee\JJ	.	.	.	.	.	.	.	.	.	.
=62	=62	=62	=62	=62	=62	=62	=62	=62	=62	=62	=62	=62	=62
4B\	n	16b/LL	16dd\LL	1r	.	00r	.	00r	.	00r	.	00r	00r
.	.	16b/	16dd\	.	.	.	.	.	.	.	.	.	.
.	.	16b/	16dd\	.	.	.	.	.	.	.	.	.	.
.	.	16b/JJ	16dd\JJ	.	.	.	.	.	.	.	.	.	.
!	!	!LO:LB:g=original	!	!	!	!	!	!	!	!	!	!	!
8r	.	16dd\LL	16b\LL	.	.	.	.	.	.	.	.	.	.
.	.	16b\	16dd\	.	.	.	.	.	.	.	.	.	.
8E\	7 #	16b\	16dd\	.	.	.	.	.	.	.	.	.	.
.	.	16b\JJ	16dd\JJ	.	.	.	.	.	.	.	.	.	.
4A\	.	16b/LL	16cc\LL	.	.	.	.	.	.	.	.	.	.
.	.	16e/	16g#X\	.	.	.	.	.	.	.	.	.	.
.	.	16f#X/	16a\	.	.	.	.	.	.	.	.	.	.
.	.	16g#X/JJ	16b\JJ	.	.	.	.	.	.	.	.	.	.
4r	.	16a/LL	16cc\LL	.	.	.	.	.	.	.	.	.	.
.	.	16g#X/	16b\	.	.	.	.	.	.	.	.	.	.
.	.	16a/	16cc\	.	.	.	.	.	.	.	.	.	.
.	.	16b/JJ	16dd\JJ	.	.	.	.	.	.	.	.	.	.
=63	=63	=63	=63	=63	=63	=63	=63	=63	=63	=63	=63	=63	=63
!LO:TX:a:t=P:problem:mixed beam	!	!	!	!	!	!	!	!	!	!	!	!	!
8C\L	6	16cc\LL	16ee\LL	2r	.	.	.	.	.	.	.	.	.
.	.	16cc\	16ee\	.	.	.	.	.	.	.	.	.	.
8D\	6 5	16b\	16dd\	.	.	.	.	.	.	.	.	.	.
.	.	16a\JJ	16cc\JJ	.	.	.	.	.	.	.	.	.	.
8E\	#	8.a/L	8.b\L	.	.	.	.	.	.	.	.	.	.
8EE/J	.	.	.	.	.	.	.	.	.	.	.	.	.
.	.	16g#X/Jk	16b\Jk	.	.	.	.	.	.	.	.	.	.
8AA/L	.	8a/L	8cc\L	8r	.	.	.	.	.	.	.	.	.
8AA/	.	8r	8r	4A\	-Et	.	.	.	.	.	.	.	.
8C/	6	8cc/J	8ee\J	.	.	.	.	.	.	.	.	.	.
8AA/J	.	8r	8r	8A\	in	.	.	.	.	.	.	.	.
=64	=64	=64	=64	=64	=64	=64	=64	=64	=64	=64	=64	=64	=64
!LO:TX:a:t=P:problem:mixed beam	!	!	!	!	!	!	!	!	!	!	!	!	!
8BB/L	n	8b/L	8dd\L	8B\	ſpi-	.	.	.	.	.	.	.	.
8B\	.	8r	8r	16B\	-ritum	.	.	.	.	.	.	.	.
.	.	.	.	16B,\	.	.	.	.	.	.	.	.	.
!	!	!	!	!LO:SIC:s=8G#:v	!	!	!	!	!	!	!	!	!
8G#X\	.	8b/J	8dd\J	8G\	ſan-	.	.	.	.	.	.	.	.
8E\J	7	8r	8r	8E\	-ctu(m)	.	.	.	.	.	.	.	.
!LO:TX:a:t=P:problem:mixed beam	!	!	!	!	!	!	!	!	!	!	!	!	!
8AA/L	.	8a/L	8cc\L	8A\	Do-	.	.	.	.	.	.	.	.
8A\	.	8r	8r	16A\	-mi-	.	.	.	.	.	.	.	.
.	.	.	.	16A\	-nu(m)	.	.	.	.	.	.	.	.
8G#X\	6	8b/J	8b\J	8G#X\	et	.	.	.	.	.	.	.	.
8E\J	.	8r	8r	8E\	vi-	.	.	.	.	.	.	.	.
=65	=65	=65	=65	=65	=65	=65	=65	=65	=65	=65	=65	=65	=65
!LO:TX:a:t=P:problem:mixed beam	!	!	!	!	!	!	!	!	!	!	!	!	!
8A\L	.	8cc\L	8a/L	8A\	-vi-	.	.	.	.	.	.	.	.
8F#X\	6 5	8r	8r	8F\	-fi-	.	.	.	.	.	.	.	.
!	!	!	!	!LO:LB:g=original	!	!	!	!	!	!	!	!	!
!	!	!	!	!LO:TX:a:t=P:problem:mixed beam	!	!	!	!	!	!	!	!	!
8B\	.	8b\J	8dd#X/J	(8B\L	-can-	.	.	.	.	.	.	.	.
.	4	.	.	.	.	.	.	.	.	.	.	.	.
8BB/J	# 3	8r	8r	8BB/J)	.	.	.	.	.	.	.	.	.
8E\	#	8b\	8ee\L	8E,\	-tem	.	.	.	.	.	.	.	.
4E\	.	8r	8r	4E\	qui	.	.	.	.	.	.	.	.
.	.	8ee\L	8gg\	.	.	.	.	.	.	.	.	.	.
8D#X/	6	8ff#X\J	8bb\J	8D#X/	ex	.	.	.	.	.	.	.	.
!LO:LB:g=original	!	!	!	!	!	!	!	!	!	!	!	!	!
=66	=66	=66	=66	=66	=66	=66	=66	=66	=66	=66	=66	=66	=66
!	!	!	!	!LO:TX:a:t=P:problem:to naprawdę tak brzmi i jest zapisane	!	!	!	!	!	!	!	!	!
8E\L	#	8gg\L	8bb\L	(8E\L	Pa-	00r	.	00r	.	00r	.	00r	00r
8D#X\J	6	8ff#X\J	8bb\	8D\J)	.	.	.	.	.	.	.	.	.
.	7	.	.	.	.	.	.	.	.	.	.	.	.
4C#X/	6	8ee\L	8bb\	4C/	-tre	.	.	.	.	.	.	.	.
.	.	8ee\J	8aa#X\J	.	.	.	.	.	.	.	.	.	.
8BB/	#	8dd#X\	8bb\	8BB,/	.	.	.	.	.	.	.	.	.
!	!	!	!LO:LB:g=original	!	!	!	!	!	!	!	!	!	!
!	!	!	!LO:SIC:s=4ff#:v	!	!	!	!	!	!	!	!	!	!
4D#X\	6	4dd#\	4ff\	4D/	Fi-	.	.	.	.	.	.	.	.
8E\	.	16dd#\LL	16ee\LL	8E\	-li-	.	.	.	.	.	.	.	.
.	.	16cc\JJ	16dd#X\JJ	.	.	.	.	.	.	.	.	.	.
=67	=67	=67	=67	=67	=67	=67	=67	=67	=67	=67	=67	=67	=67
!LO:TX:a:t=P:problem:mixed beam	!	!	!	!	!	!	!	!	!	!	!	!	!
8F#X\L	#	8a#X/L	8cc#X\L	8F,\	-o	.	.	.	.	.	.	.	.
!	!	!	!	!LO:SIC:l:s=Filio que:v	!	!	!	!	!	!	!	!	!
8B\	#	8b/J	8dd#X\J	16B\	quae	.	.	.	.	.	.	.	.
.	.	.	.	16B\	pro-	.	.	.	.	.	.	.	.
!	!	!LO:LB:g=original	!	!	!	!	!	!	!	!	!	!	!
8F#X\	4	8cc/L	8.cc#\L	4F\	-ce-	.	.	.	.	.	.	.	.
.	#	.	.	.	.	.	.	.	.	.	.	.	.
8FF#X/J	.	8a#X/J	.	.	.	.	.	.	.	.	.	.	.
.	.	.	16cc#\Jk	.	.	.	.	.	.	.	.	.	.
!LO:TX:a:t=P:problem:mixed beam	!	!	!	!	!	!	!	!	!	!	!	!	!
8BB/L	.	8b/L	8dd#X\L	8BB,/	-dit	.	.	.	.	.	.	.	.
8B\	.	8b/	8ffn\	4B\	qui	.	.	.	.	.	.	.	.
8G#X\	6	8b/	8gg\	.	.	.	.	.	.	.	.	.	.
8E\J	.	8b/J	8gg\J	8B\	Cum	.	.	.	.	.	.	.	.
=68	=68	=68	=68	=68	=68	=68	=68	=68	=68	=68	=68	=68	=68
8F#X\L	3_	8a#X/L	4aa\	4A\	Patre	.	.	.	.	.	.	.	.
8F#\	.	8cc#X/J	.	.	.	.	.	.	.	.	.	.	.
8D#X\	.	8r	8r	8A,\	.	.	.	.	.	.	.	.	.
8BB\J	# 7	8ff#X\	8ff#X\	(16B\LL	et	.	.	.	.	.	.	.	.
.	.	.	.	16F\JJ)	.	.	.	.	.	.	.	.	.
8.E\L	.	8.ee\L	8gg#X\L	8.G\	Fi-	.	.	.	.	.	.	.	.
.	.	.	8aa\	.	.	.	.	.	.	.	.	.	.
16F#X\K	.	16dd#X\K	.	16F\	-li-	.	.	.	.	.	.	.	.
8G#X\	6	8ee\	8bb\	8E\	-o	.	.	.	.	.	.	.	.
8E\J	.	8ee\J	8gg#\J	8G\	et	.	.	.	.	.	.	.	.
!	!	!	!	!LO:PB:g=original	!	!	!	!	!	!	!	!	!
=69	=69	=69	=69	=691	=69	=69	=69	=69	=69	=69	=69	=69	=69
!LO:TX:a:t=P:problem:mixed beam	!	!	!	!	!	!	!	!	!	!	!	!	!
8A\L	.	8ee\L	8.ee\L	8.A\	Fi-	.	.	.	.	.	.	.	.
8AA/	.	8ccn\	.	.	.	.	.	.	.	.	.	.	.
.	.	.	16ee\	16A\	-li o-	.	.	.	.	.	.	.	.
8C/	6	8cc\	8cc\	4A\	.	.	.	.	.	.	.	.	.
8AA/J	.	8cc\J	8ee\J	.	.	.	.	.	.	.	.	.	.
!LO:TX:a:t=P:problem:mixed beam	!	!	!	!	!	!	!	!	!	!	!	!	!
8D\L	6 5	16dd\LL	16aa\LL	8A\	-quae	.	.	.	.	.	.	.	.
.	.	16cc\	16ee\	.	.	.	.	.	.	.	.	.	.
8BB\	.	16b\	16dd\	8D/	pro-	.	.	.	.	.	.	.	.
.	.	16a\JJ	16cc\JJ	.	.	.	.	.	.	.	.	.	.
8E\	#	8.a/L	8.b/L	4E\	-ce-	.	.	.	.	.	.	.	.
8EE/J	.	.	.	.	.	.	.	.	.	.	.	.	.
.	.	16g#X/Jk	16b/Jk	.	.	.	.	.	.	.	.	.	.
=70	=70	=70	=70	=70	=70	=70	=70	=70	=70	=70	=70	=70	=70
!	!	!	!LO:TX:a:t=P:problem:mixed beam	!	!	!	!	!	!	!	!	!	!
4AA/	.	16a/LL	16a/LL	4AA/	-dit	0r	.	0r	.	0r	.	0r	0r
.	.	16cc/	16ee\	.	.	.	.	.	.	.	.	.	.
.	.	16cc/	16ee\	.	.	.	.	.	.	.	.	.	.
.	.	16cc/JJ	16ee\JJ	.	.	.	.	.	.	.	.	.	.
8r	.	16a/LL	16cc\LL	4r	.	.	.	.	.	.	.	.	.
.	.	16cc/	16ee\	.	.	.	.	.	.	.	.	.	.
8AA/	.	16cc/	16a\	.	.	.	.	.	.	.	.	.	.
.	.	16cc/JJ	16ee\JJ	.	.	.	.	.	.	.	.	.	.
4D\	.	16dd\LL	16ff\LL	2r	.	.	.	.	.	.	.	.	.
.	.	16dd\	16ff\	.	.	.	.	.	.	.	.	.	.
.	.	16ff\	16dd\	.	.	.	.	.	.	.	.	.	.
.	.	16dd\JJ	16ff\JJ	.	.	.	.	.	.	.	.	.	.
!	!	!	!LO:TX:a:t=P:problem:mixed beam	!	!	!	!	!	!	!	!	!	!
8r	.	16dd\LL	16a/LL	.	.	.	.	.	.	.	.	.	.
.	.	16dd\	16ff\	.	.	.	.	.	.	.	.	.	.
8D\	.	16ff\	16dd\	.	.	.	.	.	.	.	.	.	.
.	.	16dd\JJ	16ff\JJ	.	.	.	.	.	.	.	.	.	.
!	!	!	!LO:LB:g=original	!	!	!	!	!	!	!	!	!	!
=71	=71	=71	=71	=71	=71	=71	=71	=71	=71	=71	=71	=71	=71
4AA/	.	16cc\LL	16ee\LL	0r	.	.	.	.	.	.	.	.	.
.	.	16a\	16cc\	.	.	.	.	.	.	.	.	.	.
.	.	16cc\	16a\	.	.	.	.	.	.	.	.	.	.
.	.	16cc\JJ	16ee\JJ	.	.	.	.	.	.	.	.	.	.
8r	.	16a/LL	16cc\LL	.	.	.	.	.	.	.	.	.	.
.	.	16cc/	16ee\	.	.	.	.	.	.	.	.	.	.
8A\	.	16cc/	16a\	.	.	.	.	.	.	.	.	.	.
.	.	16cc/JJ	16ee\JJ	.	.	.	.	.	.	.	.	.	.
!LO:LB:g=original	!	!	!	!	!	!	!	!	!	!	!	!	!
4B\	7	16b/LL	16dd\LL	.	.	.	.	.	.	.	.	.	.
.	.	16b/	16dd\	.	.	.	.	.	.	.	.	.	.
.	.	16b/	16dd\	.	.	.	.	.	.	.	.	.	.
.	.	16b/JJ	16dd\JJ	.	.	.	.	.	.	.	.	.	.
!	!	!LO:LB:g=original	!	!	!	!	!	!	!	!	!	!	!
8r	.	16b/LL	16dd\LL	.	.	.	.	.	.	.	.	.	.
.	.	16b/	16dd\	.	.	.	.	.	.	.	.	.	.
8E\	7 #	16cc/	16ee\	.	.	.	.	.	.	.	.	.	.
.	.	16b/JJ	16dd\JJ	.	.	.	.	.	.	.	.	.	.
=72	=72	=72	=72	=72	=72	=72	=72	=72	=72	=72	=72	=72	=72
4A\	.	16a/LL	16cc\LL	.	.	1r	.	1r	.	1r	.	1r	1r
.	.	16e/	16g#X\	.	.	.	.	.	.	.	.	.	.
.	.	16f#X/	16a\	.	.	.	.	.	.	.	.	.	.
.	.	16g#X/JJ	16b\JJ	.	.	.	.	.	.	.	.	.	.
4r	.	16a/LL	16cc\LL	.	.	.	.	.	.	.	.	.	.
.	.	16g#X/	16b\	.	.	.	.	.	.	.	.	.	.
.	.	16a/	16cc\	.	.	.	.	.	.	.	.	.	.
.	.	16b/JJ	16dd\JJ	.	.	.	.	.	.	.	.	.	.
!LO:TX:a:t=P:problem:mixed beam	!	!	!	!	!	!	!	!	!	!	!	!	!
8C\L	6	8cc/L	16ee\LL	.	.	.	.	.	.	.	.	.	.
.	.	.	16ee\	.	.	.	.	.	.	.	.	.	.
8D\	6 5	16b/L	16dd\	.	.	.	.	.	.	.	.	.	.
.	.	16a/JJ	16cc\JJ	.	.	.	.	.	.	.	.	.	.
8E\	7 #	8.a/L	8.b\L	.	.	.	.	.	.	.	.	.	.
8EE/J	.	.	.	.	.	.	.	.	.	.	.	.	.
.	.	16g#X/Jk	16b\Jk	.	.	.	.	.	.	.	.	.	.
!	!	!	!	!	!	!	!	!LO:LB:g=original	!	!	!	!	!LO:LB:g=original
=73||	=73||	=73||	=73||	=73||	=73||	=73||	=73||	=73||	=73||	=73||	=73||	=73||	=73||
*M3/2	*	*M3/2	*M3/2	*M3/2	*	*M3/2	*	*M3/2	*	*M3/2	*	*M3/2	*M3/2
*	*	*	*	*	*	*	*	*	*	*	*	*2\right	*2\right
!LO:TX:b:t=ſimul	!	!	!	!	!	!	!	!	!	!	!	!	!
!LO:TX:a:t=Tutti	!	!	!	!	!	!	!	!	!	!	!	!LO:TX:b:t=ſimul	!LO:TX:b:t=ſimul
2AA/	.	2a/	2cc\	2r	.	2r	.	2r	.	2r	.	2r	2r
2AA/	.	2cc\	2ee\	2AA/	ſimul	2c\	ſimul	2a\	ſimul	2a\	ſimul	2e/	2e/
2E\	#	2b\	2ee\	2E\	.	2B\	.	2g#X\	.	2b\	.	2e/	2e/
=74	=74	=74	=74	=74	=74	=74	=74	=74	=74	=74	=74	=74	=74
2.AA/	.	2.cc\	2.ee\	2.A\	ſimul	2.A\	ſimul	2.e\	ſimul	2.cc\	ſimul	2e/	2e/
.	.	.	.	.	.	.	.	.	.	.	.	4e/	4e/
4A\	.	4cc\	4aa\	4A\	.	4c\	.	4a\	.	4ee\	.	4e/	4e/
4G#X\	6	4b/	4bb\	4G#X\	ado-	4B\	a-	4e\	a-	4b\	ado-	4e/	4e/
4E\	.	4b/	4bb\	4E\	.	4B\	-do-	4g#X\	-do-	4b\	.	4e/	4e/
=75	=75	=75	=75	=75	=75	=75	=75	=75	=75	=75	=75	=75	=75
2A\	.	2cc\	2aa\	2A\	-ratur	2c\	-ratur	2a\	-ratur	2cc,\	-ratur	2e/	2e/
2AA/	.	2ee\	2cc\	2A\	.	2A\	.	2e,\	.	2cc\	.	2cc\	2ee\
2A\	.	2cc\	2ee\	2A\	et	2c\	et	2a\	et	2ee\	et	2cc\	2ee\
=76	=76	=76	=76	=76	=76	=76	=76	=76	=76	=76	=76	=76	=76
2.F\	.	2.dd\	2.ff\	2.F\	Con-	2.d\	Con-	2.a\	Con-	2.ff\	Con-	2dd\	2.ff\
.	.	.	.	.	.	.	.	.	.	.	.	4dd\	.
4F\	.	4dd\	4ff\	4F\	-glo-	4d\	-glo-	4a\	-glo-	4ff\	-glo-	4dd\	4ff\
!	!	!	!	!	!	!	!	!	!	!LO:LB:g=original	!	!LO:LB:g=original	!
4D/	.	4dd\	4ff\	4D/	-ri-	4d\	-ri-	4f\	-ri-	4ff\	-ri-	4dd\	4ff\
4D/	.	4dd\	4ff\	4D/	-fi-	4d\	-fi-	4f\	-fi-	4ff\	-fi	4dd\	4ff\
!	!	!	!LO:LB:g=original	!LO:LB:g=original	!	!	!	!	!	!	!	!	!
=77	=77	=77	=77	=77	=77	=77	=77	=77	=77	=77	=77	=77	=77
2G\	.	2b\	2dd\	2G\	-catur	2B\	-ca-	2g\	-catur	2dd\	catur	2.dd\	2.dd\
2G\	.	2b\	2dd\	2G,\	.	2B\	-tur	2g,\	.	2dd,\	.	.	.
.	.	.	.	.	.	.	.	.	.	.	.	4g/	4dd\
!	!	!	!	!	!	!LO:LB:g=original	!	!	!	!	!	!	!
4G\	.	4b\	4dd\	4G\	qui	4B\	qui	4d\	qui	4dd\	qui lo-	2g/	2dd\
4G\	.	4b\	4dd\	4G\	lo-	8B\	lo-	4g\	lo-	4dd\	.	.	.
!	!	!	!	!	!	!LO:TX:a:t=P:problem:niepełna miara taktu	!	!	!	!	!	!	!
.	.	.	.	.	.	8ryy	.	.	.	.	.	.	.
=78	=78	=78	=78	=78	=78	=78	=78	=78	=78	=78	=78	=78	=78
2.E\	.	2.cc\	2.ee\	2.E\	cut(us)	2.c\	-cu-	2.g\	-cutus	2.cc\	-cutus	2.g/	2.ee\
4D/	.	4dd\	4ff\	4D/	.	4d\	-tus	4f\	.	4b\	.	4dd\	4ff\
!	!	!LO:PB:g=original	!	!	!	!	!	!	!	!	!	!	!
4E\	.	4cc\	4gg\	4E\	eſt	4c\	eſvt	4e,\	eſt	4cc,\	eſt	4cc\	4ee\
4C/	.	4ee\	4ee\	4C/	lo-	4c\	lo-	4g\	lo-	4ee\	lo-	4cc\	4ee\
!	!	!	!	!	!	!	!	!LO:LB:g=original	!	!	!	!	!
=79	=79	=79	=79	=79	=79	=79	=79	=79	=79	=79	=79	=79	=79
2.G\	.	2.gg\	2.dd\	2.G\	-cut(us)	2.B\	-cu-	2.g\	-cu-	2.dd\	-cutus	2.g/	2.dd\
4G\	.	4dd\	4b\	4G\	.	4B\	-tus	4d\	-tus	4dd\	.	4g/	4dd\
2G\	.	2b/	2dd\	2G\	eſt	2B\	eſt	2d\	eſt	2dd\	est	2g/	2dd\
!LO:LB:g=original	!	!	!	!	!	!	!	!	!	!	!	!	!
=80	=80	=80	=80	=80	=80	=80	=80	=80	=80	=80	=80	=80	=80
2r	.	2r	2r	2r	.	2r	.	2r	.	2r	.	2r	2r
2G\	.	2b/	2dd\	2G\	qui	2B\	qui	2g\	qui	2dd\	qui	2dd\	2gg\
2A\	.	2a/	2cc\	2A\	lo-	2c\	lo-	2f\	lo-	2cc\	lo-	2cc\	2ff\
=81	=81	=81	=81	=81	=81	=81	=81	=81	=81	=81	=81	=81	=81
2.B\	.	2.g/	2.b\	2.B\	-cut(us)	2.d\	-cutus	2.g\	-cu-	2.b\	-cutus	2.g/	2.dd\
4A\	.	4a/	4cc\	4A\	eſt	4c\	.	4f\	-tus	4cc,\	.	4cc\	4cc\
2G\	.	2b/	4dd\	4B\	.	4B,\	eſt	4g,\	eſt	4dd,\	eſt	2dd\	2dd\
.	.	.	4dd\	4G\	lo-	4B\	lo-	4g\	lo-	4dd\	lo-	.	.
!	!	!	!	!	!	!	!	!	!	!	!	!	!LO:LB:g=original
=82	=82	=82	=82	=82	=82	=82	=82	=82	=82	=82	=82	=82	=82
2.c\	.	2.cc\	2.ee\	2.c\	-cut-	2.c\	-cu-	2.e\	-cu-	2.ee\	-cu-	2.cc\	2.ee\
4C/	.	4cc\	4gg\	4C/	-us	4c\	-tus	4g\	-tus	4ee\	-tus	4cc\	4ee\
2C/	.	2cc\	2gg\	2C/	eſt	2c\	eſt	2g\	eſt	2ee\	eſt	2cc\	2ee\
!	!	!	!	!	!	!	!	!	!	!LO:LB:g=original	!	!	!
=83	=83	=83	=83	=83	=83	=83	=83	=83	=83	=83	=83	=83	=83
2E\	6	2cc\	2gg\	2E\	per	2c\	per	2g\	per	2cc\	per	2g/	2cc\
2r	.	2r	2r	2r	.	2r	.	2r	.	2r	.	2r	2r
2C/	.	2ee\	2ccc\	2C/	per	2c\	per	2g\	Pro-	2ee\	per	2cc\	2ee\
!	!	!	!	!	!	!LO:LB:g=original	!	!	!	!	!	!	!
=84	=84	=84	=84	=84	=84	=84	=84	=84	=84	=84	=84	=84	=84
2F#X\	.	2dd\	2ccc\	2F#X\	Pro-	2c\	Pro-	2a\	-phe-	2dd\	Pro-	2cc\	2dd\
2G\	.	2dd\	2ccc\	(2G\	.	2c\	.	1g	.	2.dd\	-phe-	2.g/	2.dd\
2GG/	.	2dd\	2bb\	2GG/	-phe-	2B\	-phe-	.	.	.	.	.	.
.	.	.	.	.	.	.	.	.	.	8cc\L	.	4g/	4dd\
.	.	.	.	.	.	.	.	.	.	8dd\J	.	.	.
!	!	!	!	!LO:LB:g=original	!	!	!	!	!	!	!	!	!
=85||	=85||	=85||	=85||	=85||	=85||	=85||	=85||	=85||	=85||	=85||	=85||	=85|	=85|
*M4/4	*	*M4/4	*M4/4	*M4/4	*	*M4/4	*	*M4/4	*	*M4/4	*	*M4/4	*M4/4
*met(c)	*	*met(c)	*met(c)	*met(c)	*	*met(c)	*	*met(c)	*	*met(c)	*	*met(c)	*met(c)
!LO:TX:b:t=Solo	!	!	!	!	!	!	!	!	!	!	!	!	!
4C/	.	16ee\LL	16ccc\LL	4C/)	-tas	4c\	-tas	8g\	-tas	8ee\	-tas	4e/	4cc\
.	.	16cc\	16cc\	.	.	.	.	.	.	.	.	.	.
.	.	16cc\	16cc\	.	.	.	.	8r	.	8r	.	.	.
.	.	16g\JJ	16g\JJ	.	.	.	.	.	.	.	.	.	.
8r	.	16cc\LL	16cc\LL	4r	.	4r	.	4r	.	4r	.	8r	8r
.	.	16dd\	16dd\	.	.	.	.	.	.	.	.	.	.
8C/	.	16ee\	16ee\	.	.	.	.	.	.	.	.	16ee\LL	16gg\LL
.	.	16dd\JJ	16dd\JJ	.	.	.	.	.	.	.	.	16dd\JJ	16ff\JJ
!	!	!	!LO:LB:g=original	!	!	!	!	!	!	!	!	!LO:PB:g=original	!
4C/	.	16cc\LL	16cc/LL	2r	.	2r	.	2r	.	2r	.	4cc\	4ee\
.	.	16g\	16g/	.	.	.	.	.	.	.	.	.	.
.	.	16g\	16g/	.	.	.	.	.	.	.	.	.	.
.	.	16g\JJ	16g/JJ	.	.	.	.	.	.	.	.	.	.
8r	.	16cc\LL	16cc\LL	.	.	.	.	.	.	.	.	8r	8r
.	.	16dd\	16dd\	.	.	.	.	.	.	.	.	.	.
8C/	.	16ee\	16ee\	.	.	.	.	.	.	.	.	8e/	8cc\
.	.	16cc\JJ	16cc\JJ	.	.	.	.	.	.	.	.	.	.
=86	=86	=86	=86	=86	=86	=86	=86	=86	=86	=86	=86	=86	=86
8G\L	.	8b\L	8dd\L	00r	.	00r	.	0r	.	00r	.	8g/L	8dd\L
8G\	.	8b\J	8dd\J	.	.	.	.	.	.	.	.	8g/J	8dd\J
8B\	.	16b\LL	16dd\LL	.	.	.	.	.	.	.	.	8g/L	16dd\LL
.	.	16cc\	16ee\	.	.	.	.	.	.	.	.	.	16ee\
8G\J	.	16a\	16cc\	.	.	.	.	.	.	.	.	16e/L	16cc\
.	.	16b\JJ	16dd\JJ	.	.	.	.	.	.	.	.	16g/JJ	16dd\JJ
!LO:TX:a:t=P:problem:mixed beam	!	!LO:LB:g=original	!	!	!	!	!	!	!	!	!	!	!
8c\L	.	16cc\LL	16ee\LL	.	.	.	.	.	.	.	.	4cc\	4ee\
.	.	16dd\J	16dd\J	.	.	.	.	.	.	.	.	.	.
8C/	.	8ee\J	8cc\J	.	.	.	.	.	.	.	.	.	.
8E/	.	16r	16r	.	.	.	.	.	.	.	.	16r	16r
.	.	16ee\LL	16gg\LL	.	.	.	.	.	.	.	.	16ee\LL	16gg\LL
8C/J	.	16cc\	16ee\	.	.	.	.	.	.	.	.	16cc\	16ee\
.	.	16ee\JJ	16gg\JJ	.	.	.	.	.	.	.	.	16ee\JJ	16gg\JJ
=87	=87	=87	=87	=87	=87	=87	=87	=87	=87	=87	=87	=87	=87
4F\	.	8ff\L	8aa\L	.	.	.	.	.	.	.	.	8ff\L	8aa\L
.	.	16ff\L	16aa\L	.	.	.	.	.	.	.	.	16ff\L	16aa\L
.	.	16ee\JJ	16gg\JJ	.	.	.	.	.	.	.	.	16ee\JJ	16gg\JJ
8r	.	16ff\LL	16aa\LL	.	.	.	.	.	.	.	.	16ff\LL	16aa\LL
.	.	16ee\	16gg\	.	.	.	.	.	.	.	.	16ee\	16gg\
8F\	.	16dd\	16ff\	.	.	.	.	.	.	.	.	16dd\	16ff\
.	.	16cc\JJ	16ee\JJ	.	.	.	.	.	.	.	.	16cc\JJ	16ee\JJ
!LO:TX:a:t=P:problem:mixed beam	!	!	!LO:TX:a:t=P:problem:mixed beam	!	!	!	!	!	!	!	!	!	!
8G\L	.	8b/L	8dd\L	.	.	.	.	.	.	.	.	8g/L	8dd\L
8GG/	.	8b/J	8g/J	.	.	.	.	.	.	.	.	8g/	8dd\
8B\	.	16r	16r	.	.	.	.	.	.	.	.	8g/	8dd\
.	.	16g/LL	16g/LL	.	.	.	.	.	.	.	.	.	.
8G\J	.	16a/	16a/	.	.	.	.	.	.	.	.	8g/J	8dd\J
.	.	16b/JJ	16b/JJ	.	.	.	.	.	.	.	.	.	.
!LO:PB:g=original	!	!	!	!	!	!	!	!	!	!	!	!	!
=88	=88	=88	=88	=88	=88	=88	=88	=88	=88	=88	=88	=88	=88
!	!	!LO:TX:a:t=P:problem:mixed beam	!LO:TX:a:t=P:problem:mixed beam	!	!	!	!	!	!	!	!	!	!
4C/	.	16cc\LL	16cc\LL	.	.	.	.	1r	.	.	.	4e/	4cc\
.	.	16g/	16g/	.	.	.	.	.	.	.	.	.	.
.	.	16g/	16g/	.	.	.	.	.	.	.	.	.	.
.	.	16g/JJ	16g/JJ	.	.	.	.	.	.	.	.	.	.
4r	.	16cc\LL	16cc\LL	.	.	.	.	.	.	.	.	8r	8r
.	.	16dd\	16dd\	.	.	.	.	.	.	.	.	.	.
.	.	16ee\	16ee\	.	.	.	.	.	.	.	.	16ee\LL	16gg\LL
.	.	16dd\JJ	16dd\JJ	.	.	.	.	.	.	.	.	16dd\JJ	16ff\JJ
!LO:TX:a:t=P:problem:mixed beam	!	!	!	!	!	!	!	!	!	!	!	!	!LO:LB:g=original
8E\L	6	16cc\LL	16cc\LL	.	.	.	.	.	.	.	.	16cc\LL	16ee\LL
.	.	16ee\	16gg\	.	.	.	.	.	.	.	.	16ee\	16gg\
8F\	6 5	16dd\	16ff\	.	.	.	.	.	.	.	.	16dd\	16ff\
.	.	16cc\JJ	16ee\JJ	.	.	.	.	.	.	.	.	16cc\JJ	16ee\JJ
8G\	4	8.cc\L	8.dd\L	.	.	.	.	.	.	.	.	8.g/L	8.dd\L
8GG/J	3	.	.	.	.	.	.	.	.	.	.	.	.
.	.	16b\Jk	16dd\Jk	.	.	.	.	.	.	.	.	16g/Jk	16dd\Jk
!	!	!	!	!	!	!	!	!LO:LB:g=original	!	!	!	!	!
=89	=89	=89	=89	=89	=89	=89	=89	=89	=89	=89	=89	=89	=89
!LO:TX:a:t=P:problem:mixed beam	!	!	!	!	!	!	!	!	!	!	!	!	!
8C/L	.	4cc\	4ee\	.	.	.	.	8r	.	.	.	4e/	4cc\
8c\	.	.	.	.	.	.	.	8g\	Et-	.	.	.	.
8B\	6	4r	4r	.	.	.	.	8g\	-unam	.	.	4r	4r
8G\J	.	.	.	.	.	.	.	8g\	.	.	.	.	.
8C/L	.	2r	2r	.	.	.	.	16g\LL	ſan-	.	.	2r	2r
.	.	.	.	.	.	.	.	16f\	.	.	.	.	.
8C/	.	.	.	.	.	.	.	16e\	.	.	.	.	.
.	.	.	.	.	.	.	.	16d\JJ	.	.	.	.	.
8E/	6	.	.	.	.	.	.	8c,/	-cta(m)	.	.	.	.
8C/J	.	.	.	.	.	.	.	8cc\	ſan-	.	.	.	.
=90	=90	=90	=90	=90	=90	=90	=90	=90	=90	=90	=90	=90	=90
4D\	7	0r	0r	00r	.	00r	.	4.cc\	-cta(m)	00r	.	0r	0r
4G\	4	.	.	.	.	.	.	.	.	.	.	.	.
.	3	.	.	.	.	.	.	8b\	Ca-	.	.	.	.
8C/L	.	.	.	.	.	.	.	8.cc\	-tho-	.	.	.	.
8C/	.	.	.	.	.	.	.	.	.	.	.	.	.
.	.	.	.	.	.	.	.	16g\	-li-	.	.	.	.
8E/	6	.	.	.	.	.	.	8g,\	-cam	.	.	.	.
8C/J	.	.	.	.	.	.	.	8g\	et	.	.	.	.
=91	=91	=91	=91	=91	=91	=91	=91	=91	=91	=91	=91	=91	=91
8F\L	.	.	.	.	.	.	.	4a\	Apo-	.	.	.	.
8F\	.	.	.	.	.	.	.	.	.	.	.	.	.
8E\	.	.	.	.	.	.	.	4g\	-sto-	.	.	.	.
8C\J	.	.	.	.	.	.	.	.	.	.	.	.	.
8D/L	.	.	.	.	.	.	.	16f\LL	.	.	.	.	.
.	.	.	.	.	.	.	.	16e\	.	.	.	.	.
8C/	.	.	.	.	.	.	.	16f\	.	.	.	.	.
.	.	.	.	.	.	.	.	16g\JJ	.	.	.	.	.
8BB/	.	.	.	.	.	.	.	16f\LL	.	.	.	.	.
.	.	.	.	.	.	.	.	16a\	.	.	.	.	.
8GG/J	7	.	.	.	.	.	.	16g\	.	.	.	.	.
.	.	.	.	.	.	.	.	16f\JJ	.	.	.	.	.
=92	=92	=92	=92	=92	=92	=92	=92	=92	=92	=92	=92	=92	=92
8C/L	.	1r	1r	.	.	.	.	8.e\	.	.	.	1r	1r
8C/	.	.	.	.	.	.	.	.	.	.	.	.	.
.	.	.	.	.	.	.	.	16d\	-li-	.	.	.	.
8E/	6 5	.	.	.	.	.	.	16c\	-cam	.	.	.	.
!	!	!	!	!	!	!	!	!LO:PB:g=original	!	!	!	!	!
.	.	.	.	.	.	.	.	16g\LL	Ec-	.	.	.	.
8C/J	.	.	.	.	.	.	.	16a\	.	.	.	.	.
.	.	.	.	.	.	.	.	16b\JJ	.	.	.	.	.
!LO:TX:a:t=P:problem:mixed beam	!	!	!	!	!	!	!	!	!	!	!	!	!
8E\L	6	.	.	.	.	.	.	16cc\LL	.	.	.	.	.
.	.	.	.	.	.	.	.	16g\	.	.	.	.	.
8F\	6 5	.	.	.	.	.	.	16f\	.	.	.	.	.
.	.	.	.	.	.	.	.	16e\JJ	.	.	.	.	.
8G\	.	.	.	.	.	.	.	8.d\	-cle-	.	.	.	.
8GG/J	4	.	.	.	.	.	.	.	.	.	.	.	.
.	3	.	.	.	.	.	.	16d\	-si-	.	.	.	.
!	!	!	!LO:LB:g=original	!	!	!	!	!	!	!	!	!	!
=93	=93	=93	=93	=93	=93	=93	=93	=93	=93	=93	=93	=93	=93
!	!	!LO:TX:a:t=P:problem:mixed beam	!LO:TX:a:t=P:problem:mixed beam	!	!	!	!	!	!	!	!	!	!
4C/	.	16cc\LL	16cc\LL	.	.	.	.	4e\	-am	.	.	4e/	4cc\
.	.	16g/	16g/	.	.	.	.	.	.	.	.	.	.
.	.	16g/	16g/	.	.	.	.	.	.	.	.	.	.
.	.	16g/JJ	16g/JJ	.	.	.	.	.	.	.	.	.	.
8r	.	16cc\LL	16cc\LL	.	.	.	.	4r	.	.	.	8r	8r
.	.	16dd\	16dd\	.	.	.	.	.	.	.	.	.	.
8C/	.	16ee\	16ee\	.	.	.	.	.	.	.	.	16ee\LL	16gg\LL
.	.	16dd\JJ	16dd\JJ	.	.	.	.	.	.	.	.	16dd\JJ	16ff\JJ
!	!	!LO:TX:a:t=P:problem:mixed beam	!LO:TX:a:t=P:problem:mixed beam	!	!	!	!	!	!	!	!	!	!
4C/	.	16cc\LL	16cc\LL	.	.	.	.	2r	.	.	.	4cc\	4ee\
.	.	16g/	16g/	.	.	.	.	.	.	.	.	.	.
.	.	16g/	16g/	.	.	.	.	.	.	.	.	.	.
.	.	16g/JJ	16g/JJ	.	.	.	.	.	.	.	.	.	.
8r	.	16cc\LL	16cc\LL	.	.	.	.	.	.	.	.	8r	8r
.	.	16dd\	16dd\	.	.	.	.	.	.	.	.	.	.
8C/	.	16ee\	16ee\	.	.	.	.	.	.	.	.	8e/	8cc\
.	.	16cc\JJ	16cc\JJ	.	.	.	.	.	.	.	.	.	.
!	!	!	!	!	!	!	!	!	!	!LO:TX:a:t=P:problem:brak kreski taktowej	!	!	!
=94	=94	=94	=94	=94	=94	=94	=94	=94	=94	=94-z	=94	=94	=94
8G\L	.	8b/L	8dd\L	2r	.	2r	.	2r	.	2r	.	8g/L	8dd\L
8GG/J	.	8b/J	8dd\J	.	.	.	.	.	.	.	.	8g/J	8dd\J
!LO:LB:g=original	!	!LO:LB:g=original	!	!	!	!	!	!	!	!	!	!LO:LB:g=original	!
8B\L	6	16b/LL	16dd\LL	.	.	.	.	.	.	.	.	8g/L	16dd\LL
.	.	16cc/	16ee\	.	.	.	.	.	.	.	.	.	16ee\
8G\J	.	16a/	16cc\	.	.	.	.	.	.	.	.	16e/L	16cc\
.	.	16b/JJ	16dd\JJ	.	.	.	.	.	.	.	.	16g/JJ	16dd\JJ
!LO:TX:a:t=P:problem:mixed beam	!	!	!	!	!	!	!	!	!	!	!	!	!
8C/L	.	8cc\L	8ee\L	8r	.	8r	.	8r	.	8r	.	8cc\L	8ee\L
8c\	.	8cc\	8gg\	8c\	Con-	8c\	Con-	8g\	Con-	8ee\	Con-	8cc\J	8cc\J
8.B\	6	8.dd\	8.gg\	8.B\	-fi-	8.d\	-fi-	8.g\	-fi-	8.dd\	-fi-	4r	4r
16A\Jk	6	16cc\Jk	16aa\Jk	16A\	-te-	16A/	-te-	16f\	-te-	16cc\	-te-	.	.
=95	=95	=95	=95	=95	=95	=95	=95	=95	=95	=95	=95	=95	=95
!LO:TX:a:t=P:problem:mixed beam	!	!	!	!	!	!	!	!	!	!	!	!	!
8G\L	.	8dd\L	8bb\L	8G,\	-or	8d,\	-or	8g\	-or	8b\	-or	2r	2r
*	*	*	*	*	*ij	*	*	*	*	*	*	*	*
8c\	.	8ee\	8gg\	8c\	Con-	8c\	Con-	8e\	Con-	8ee\	Con-	.	.
8G\	4	8.dd\	8.gg\	8.G\	-fi-	8.c\	-fi-	8.g\	-fi-	8.dd\	-fi-	.	.
8GG/J	3	.	.	.	.	.	.	.	.	.	.	.	.
.	.	16dd\Jk	16gg\Jk	16GG/	-te-	16B\	-te-	16g\	-te-	16dd\	-teor	.	.
!	!	!	!LO:TX:a:t=P:problem:mixed beam	!	!	!	!	!	!	!	!	!	!
8C\L	.	8ee\L	8gg\L	8C,/	-or	8c\	-or	8g\	-or	8ee,\	.	8r	8r
*	*	*	*	*	*Xij	*	*	*	*	*	*	*	*
8C/	.	8cc\	8cc/	8C/	unum	8c\	unum	8g\	unum	8cc\	u-	8cc\L	8ee\L
!	!	!	!	!	!	!	!	!	!	!LO:LB:g=original	!	!	!
8E/	6	8cc\	8cc/	8E\	.	8c\	.	8g\	.	8cc,\	-num	8cc\	8ee\
8C/J	.	8ee\J	8cc/J	8C/	ba-	8e\	Ba-	8g\	Ba-	8cc\	Ba-	8cc\J	8ee\J
=96	=96	=96	=96	=96	=96	=96	=96	=96	=96	=96	=96	=96	=96
4C/	9 2	4dd\	4dd\	4C/	ptiſma	4.d\	-pti-	4f\	-pti-	4.dd\	-pti-	4.dd\	4.ff\
4BB/	6 5	4dd\	4gg\	4BB/	.	.	.	4g\	-ſma	.	.	.	.
.	.	.	.	.	.	(16c\LL	.	.	.	16cc\LL	.	16ee\LL	16gg\LL
.	.	.	.	.	.	16d\JJ)	.	.	.	16dd\JJ	-sma	16dd\JJ	16ff\JJ
!	!	!	!	!	!	!LO:LB:g=original	!	!LO:LB:g=original	!	!	!	!	!
8D/	.	8cc\	16ee\LL	8C,/	.	8c\	sma	8g\	in	8ee\	.	8cc\	8ee\
.	.	.	16gg\	.	.	.	.	.	.	.	.	.	.
4C/	.	4ee\	16gg\	4D/	in	4e\	-in	4e\	re-	4gg\	in	4ee\	4gg\
.	.	.	16ee\JJ	.	.	.	.	.	.	.	.	.	.
.	.	.	16cc\LL	.	.	.	.	.	.	.	.	.	.
.	.	.	16gg\	.	.	.	.	.	.	.	.	.	.
8D/	.	8dd\	16ff\	8D/	-re-	8d\	re-	8f\	-miſ-	8ff\	re-	8dd\	8ff\
.	.	.	16dd\JJ	.	.	.	.	.	.	.	.	.	.
!	!	!	!	!LO:LB:g=original	!	!	!	!	!	!	!	!	!
=97	=97	=97	=97	=97	=97	=97	=97	=97	=97	=97	=97	=97	=97
8E/L	6	8cc\L	16cc\LL	(8E\L	-miſ-	4.c\	-mis-	8g\L	-si-	8ee\L	-miſ-	16cc\LL	16ee\LL
.	.	.	16gg\	.	.	.	.	.	.	.	.	16g\	16dd\
8D/	.	8cc\	16gg\	8D\J)	.	.	.	8f\J	.	8ff\J	.	16cc\	16ee\
.	.	.	16gg\JJ	.	.	.	.	.	.	.	.	16dd\JJ	16ff\JJ
!	!	!	!	!	!	!	!	!	!	!	!	!	!LO:LB:g=original
8E/	.	8cc\	16cc\LL	(8E\L	-si-	.	.	16g\LL	-o-	4ee\	-si-	16cc\LL	16ee\LL
.	.	.	16ee\	.	.	.	.	16f\	.	.	.	16ee\	16gg\
8C/J	.	8cc\J	16ee\	8C\J)	.	8c\	-ſi-	16g\	.	.	.	16dd\	16ff\
.	.	.	16ee\JJ	.	.	.	.	16e\JJ	.	.	.	16cc\JJ	16ee\JJ
!LO:TX:a:t=P:problem:mixed beam	!	!	!	!	!	!	!	!	!	!	!	!	!
8GG/L	.	8b\L	16dd\LL	8G\	-onem	8B\	-onem	8g\	.	8dd\	-onem	8g/L	8dd\L
.	.	.	16b\	.	.	.	.	.	.	.	.	.	.
8G\	.	8b\	16dd\	8G,\	.	8B\	.	8d\	-nem	8dd,\	.	8g/J	8dd\
.	.	.	16gg\JJ	.	.	.	.	.	.	.	.	.	.
!	!	!	!LO:LB:g=original	!	!	!	!	!	!	!	!	!	!
8E\	6	8cc\	16ee\LL	8E\	pec-	8c\	pec-	8g\	'pec-	8ee\	[ec-	8cc\L	8ee\
.	.	.	16cc\	.	.	.	.	.	.	.	.	.	.
8D\J	6	8dd\J	16dd\	8D/	-cato-	8d\	-cato-	8f\	-cato-	8ff\	-ca-	8dd\J	8ff\J
.	.	.	16ff\JJ	.	.	.	.	.	.	.	.	.	.
=98	=98	=98	=98	=98	=98	=98	=98	=98	=98	=98	=98	=98	=98
!LO:TX:a:t=P:problem:mixed beam	!	!	!	!	!	!	!	!	!	!	!	!	!
8C\L	.	8ee\L	16gg\LL	8C\L	.	8e\L	.	8e\L	.	8gg\L	-to-	8ee\L	8gg\L
.	.	.	16gg\	.	.	.	.	.	.	.	.	.	.
8F\	6 5	16dd\L	16ff\	8F\J	.	16d\L	.	8a\J	.	16ff\L	.	16dd\L	16ff\L
.	.	16cc\JJ	16ee\JJ	.	.	16c\JJ	.	.	.	16ee\JJ	.	16cc\JJ	16ee\JJ
!	!	!	!	!LO:TX:a:t=P:problem:mixed beam	!	!	!	!	!	!	!	!	!
8G\	.	8cc\L	8.dd\L	8G\L	.	4B\	.	4g\	.	4dd\	.	8.g/L	8.dd\L
8GG/J	4	8b\J	.	8GG/J	.	.	.	.	.	.	.	.	.
.	3	.	16dd\Jk	.	.	.	.	.	.	.	.	16g/Jk	16dd\Jk
4C/	.	16cc\LL	16cc\LL	4C/	rum	4c\	rum	4g\	-rum	4ee\	-rum	4e/	4cc\
.	.	16g\	16g\	.	.	.	.	.	.	.	.	.	.
.	.	16a\	16a\	.	.	.	.	.	.	.	.	.	.
.	.	16b\JJ	16b\JJ	.	.	.	.	.	.	.	.	.	.
4r	.	16cc\LL	16cc\LL	4r	.	4r	.	4r	.	4r	.	4r	4r
.	.	16dd\	16dd\	.	.	.	.	.	.	.	.	.	.
.	.	16ee\	16ee\	.	.	.	.	.	.	.	.	.	.
.	.	16ff\JJ	16ff\JJ	.	.	.	.	.	.	.	.	.	.
=99	=99	=99	=99	=99	=99	=99	=99	=99	=99	=99	=99	=99	=99
!LO:TX:b:t=ſolo	!	!	!	!	!	!	!	!	!	!	!	!	!
8c\L	.	16gg\LL	16gg\LL	0r	.	00r	.	00r	.	00r	.	0r	0r
.	.	16ff\	16ff\	.	.	.	.	.	.	.	.	.	.
8C/	.	16ee\	16ee\	.	.	.	.	.	.	.	.	.	.
.	.	16dd\JJ	16dd\JJ	.	.	.	.	.	.	.	.	.	.
8E/	.	16cc\LL	16cc\LL	.	.	.	.	.	.	.	.	.	.
.	.	16ee\	16ee\	.	.	.	.	.	.	.	.	.	.
8F/J	.	16dd\	16dd\	.	.	.	.	.	.	.	.	.	.
.	.	16cc\JJ	16cc\JJ	.	.	.	.	.	.	.	.	.	.
8G\L	.	8b/	8dd\	.	.	.	.	.	.	.	.	.	.
8G\	.	4b\	4g/	.	.	.	.	.	.	.	.	.	.
8B\	6	.	.	.	.	.	.	.	.	.	.	.	.
8G\J	.	8b/	8dd\	.	.	.	.	.	.	.	.	.	.
!	!	!LO:LB:g=original	!	!	!	!	!	!	!	!	!	!	!
=100	=100	=100	=100	=100	=100	=100	=100	=100	=100	=100	=100	=100	=100
!LO:TX:a:t=P:problem:mixed beam	!	!	!	!	!	!	!	!	!	!	!	!	!
8c\L	.	8cc\	16ee\LL	.	.	.	.	.	.	.	.	.	.
.	.	.	16cc\	.	.	.	.	.	.	.	.	.	.
8C/	.	4ee\	16b\	.	.	.	.	.	.	.	.	.	.
.	.	.	16cc\JJ	.	.	.	.	.	.	.	.	.	.
8E/	6	.	16gg\LL	.	.	.	.	.	.	.	.	.	.
.	.	.	16cc\	.	.	.	.	.	.	.	.	.	.
8C/J	.	8ee\	16b\	.	.	.	.	.	.	.	.	.	.
.	.	.	16cc\JJ	.	.	.	.	.	.	.	.	.	.
!LO:TX:a:t=P:problem:mixed beam	!	!LO:TX:a:t=P:problem:mixed beam	!	!	!	!	!	!	!	!	!	!	!
8F\L	.	8ff\L	16aa\LL	.	.	.	.	.	.	.	.	.	.
.	.	.	16cc\	.	.	.	.	.	.	.	.	.	.
8FF/J	.	8a/	16b\	.	.	.	.	.	.	.	.	.	.
.	.	.	16cc\JJ	.	.	.	.	.	.	.	.	.	.
!LO:LB:g=original	!	!	!	!	!	!	!	!	!	!	!	!	!
8A\L	.	8a/	16aa\LL	.	.	.	.	.	.	.	.	.	.
.	.	.	16cc\	.	.	.	.	.	.	.	.	.	.
8F\J	.	8a/J	16b\	.	.	.	.	.	.	.	.	.	.
.	.	.	16cc\JJ	.	.	.	.	.	.	.	.	.	.
=101	=101	=101	=101	=101	=101	=101	=101	=101	=101	=101	=101	=101	=101
8C/L	.	8g/L	16gg\LL	1r	.	.	.	.	.	.	.	1r	1r
.	.	.	16cc\	.	.	.	.	.	.	.	.	.	.
8C/	.	8g/	16b\	.	.	.	.	.	.	.	.	.	.
.	.	.	16cc\JJ	.	.	.	.	.	.	.	.	.	.
8E/	6	8g/	16gg\LL	.	.	.	.	.	.	.	.	.	.
.	.	.	16cc\	.	.	.	.	.	.	.	.	.	.
8C/J	.	8g/J	16b\	.	.	.	.	.	.	.	.	.	.
.	.	.	16cc\JJ	.	.	.	.	.	.	.	.	.	.
8G\L	.	16b/LL	16dd\LL	.	.	.	.	.	.	.	.	.	.
.	.	16a/	16cc\	.	.	.	.	.	.	.	.	.	.
8G\	.	16b/	16b\	.	.	.	.	.	.	.	.	.	.
.	.	16cc/JJ	16a\JJ	.	.	.	.	.	.	.	.	.	.
!	!	!	!LO:TX:a:t=P:problem:mixed beam	!	!	!	!	!	!	!	!	!	!
8B\	6	8b/L	8g/L	.	.	.	.	.	.	.	.	.	.
8G\J	.	8b/J	8dd\J	.	.	.	.	.	.	.	.	.	.
!	!	!	!LO:LB:g=original	!	!	!	!	!	!	!	!	!	!
=102	=102	=102	=102	=102	=102	=102	=102	=102	=102	=102	=102	=102	=102
!LO:TX:a:t=P:problem:mixed beam	!	!	!	!	!	!	!	!	!	!	!	!LO:TX:a:t=P:problem: takty 102-106 mocno zamazane	!
8C\L	.	16cc\LL	16ee\LL	2r	.	.	.	.	.	.	.	2r	2r
.	.	16ee\	16gg\	.	.	.	.	.	.	.	.	.	.
8F\	6 5	16dd\	16ff\	.	.	.	.	.	.	.	.	.	.
.	.	16cc\JJ	16ee\JJ	.	.	.	.	.	.	.	.	.	.
8G\	.	8.cc\L	8.dd\L	.	.	.	.	.	.	.	.	.	.
8GG/J	4	.	.	.	.	.	.	.	.	.	.	.	.
.	3	16b\Jk	16dd\Jk	.	.	.	.	.	.	.	.	.	.
!	!	!	!	!	!	!	!	!	!	!	!	!	!LO:TX:a:t=P:problem: takty 102-106 mocno zamazane
4.C/	.	4cc\	4cc\	4r	.	.	.	.	.	.	.	4r	4r
!	!	!	!	!	!	!	!	!	!	!	!	!LO:TX:a:t=P:problem: takty 102-106\nmocno pomazane- \nprawdopodobny przebieg partii	!
.	.	4r	4r	8C/	Et	.	.	.	.	.	.	8g/L	8cc\L
8BB/	6	.	.	8G\	ex-	.	.	.	.	.	.	8g/J	8dd\J
=103	=103	=103	=103	=103	=103	=103	=103	=103	=103	=103	=103	=103	=103
4C/	.	0r	0r	4c\	-pecto	00r	.	00r	.	00r	.	8g\L	16ee\LL
.	.	.	.	.	.	.	.	.	.	.	.	.	16dd\
.	.	.	.	.	.	.	.	.	.	.	.	16cc\L	16ee\
.	.	.	.	.	.	.	.	.	.	.	.	16dd\JJ	16ff\JJ
*	*	*	*	*	*ij	*	*	*	*	*	*	*	*
8E/L	6	.	.	8c\	et	.	.	.	.	.	.	8cc/L	8ee\L
8BB/J	6	.	.	8G\	ex-	.	.	.	.	.	.	8g/J	8dd\J
!	!	!	!	!	!	!	!	!	!	!	!	!LO:LB:g=original	!
4C/	.	.	.	8E\	-pec-	.	.	.	.	.	.	8e/L	8cc\L
.	.	.	.	8C,/	-to	.	.	.	.	.	.	8e/	8cc\
*	*	*	*	*	*Xij	*	*	*	*	*	*	*	*
4r	.	.	.	16C/	re-	.	.	.	.	.	.	8r	8r
.	.	.	.	16D/	-ſur-	.	.	.	.	.	.	.	.
.	.	.	.	16E\	-re-	.	.	.	.	.	.	8e/J	8cc\J
.	.	.	.	16C/	-cti-	.	.	.	.	.	.	.	.
!	!	!	!	!LO:LB:g=original	!	!	!	!	!	!	!	!	!
=104	=104	=104	=104	=104	=104	=104	=104	=104	=104	=104	=104	=104	=104
4BB/	6	.	.	16G\LL	-o-	.	.	.	.	.	.	4g/	4dd\
.	.	.	.	16F\	.	.	.	.	.	.	.	.	.
.	.	.	.	16G\	.	.	.	.	.	.	.	.	.
.	.	.	.	16A\JJ	.	.	.	.	.	.	.	.	.
8r	.	.	.	16G\LL	.	.	.	.	.	.	.	8r	8r
.	.	.	.	16A\	.	.	.	.	.	.	.	.	.
8GG/	.	.	.	16B\	.	.	.	.	.	.	.	8g/	8dd\
.	.	.	.	16G\JJ	.	.	.	.	.	.	.	.	.
4C/	.	.	.	8c\	.	.	.	.	.	.	.	16cc\LL	16ee\LL
.	.	.	.	.	.	.	.	.	.	.	.	16dd\	16ff\
.	.	.	.	8C,/	-nem	.	.	.	.	.	.	16ee\	16gg\
.	.	.	.	.	.	.	.	.	.	.	.	16cc\JJ	16ee\JJ
4BB/	6	.	.	16G\	re-	.	.	.	.	.	.	8g/L	8dd\L
.	.	.	.	16A\	-ſur-	.	.	.	.	.	.	.	.
.	.	.	.	16B\	-rec-	.	.	.	.	.	.	8g/J	8dd\J
.	.	.	.	16G\	-ti-	.	.	.	.	.	.	.	.
=105	=105	=105	=105	=105	=105	=105	=105	=105	=105	=105	=105	=105	=105
!	!	!	!	!	!	!	!	!	!	!	!	!	!LO:TX:a:t=P:problem:mixed beam
4C/	.	1r	1r	8c\L	-o-	.	.	.	.	.	.	8e/L	8cc\L
.	.	.	.	16B\L	.	.	.	.	.	.	.	16e/L	16e/L
.	.	.	.	16A\JJ	.	.	.	.	.	.	.	16e/JJ	16e/JJ
4r	.	.	.	16G\LL	.	.	.	.	.	.	.	16e/LL	16e/LL
.	.	.	.	16F\	.	.	.	.	.	.	.	16e/	16e/
.	.	.	.	16E\	.	.	.	.	.	.	.	16e/	16e/
.	.	.	.	16D\JJ	.	.	.	.	.	.	.	16e/JJ	16e/JJ
!	!	!	!	!	!	!	!	!	!	!	!	!	!LO:LB:g=original
8C/L	.	.	.	8C/	.	.	.	.	.	.	.	4c/	4e/
8C/	.	.	.	8C/	-nem	.	.	.	.	.	.	.	.
8E/	.	.	.	8r	.	.	.	.	.	.	.	4r	4r
8C/J	.	.	.	16E\	mort-	.	.	.	.	.	.	.	.
.	.	.	.	16G#X\	-u-	.	.	.	.	.	.	.	.
!	!	!	!LO:TX:b:t=Verte Cito	!	!	!	!	!	!	!	!	!	!
!	!	!LO:TX:a:t=P:problem:brak kreski taktowej	!LO:PB:g=original	!	!	!	!	!	!	!	!	!	!
=106	=106	=106-zz	=106	=106	=106	=106	=106	=106	=106	=106	=106	=106	=106
!LO:TX:a:t=P:problem:mixed beam	!	!	!	!	!	!	!	!	!	!	!	!	!
8F\L	.	2r	2r	(8A\L	-o-	.	.	.	.	.	.	8r	8r
8D\	5	.	.	8D\J)	.	.	.	.	.	.	.	8e/L	8e/L
8E\	#	.	.	4E\	.	.	.	.	.	.	.	8e/	8e/
8EE/J	.	.	.	.	.	.	.	.	.	.	.	8e/J	8e/J
4A\	.	16a/LL	16a\LL	4AA/	-rum	.	.	.	.	.	.	4e/	4e/
.	.	16b/	16b\	.	.	.	.	.	.	.	.	.	.
.	.	16cc/	16cc\	.	.	.	.	.	.	.	.	.	.
.	.	16dd/JJ	16dd\JJ	.	.	.	.	.	.	.	.	.	.
4G#X\	6	16ee\LL	16ee\LL	4r	.	.	.	.	.	.	.	4r	4r
.	.	16ff#X\	16ff#X\	.	.	.	.	.	.	.	.	.	.
.	.	16gg#X\	16gg#X\	.	.	.	.	.	.	.	.	.	.
.	.	16ee\JJ	16ee\JJ	.	.	.	.	.	.	.	.	.	.
=107	=107	=107	=107	=107	=107	=107	=107	=107	=107	=107	=107	=107	=107
4A\	.	8aa\L	16aa\LL	00r	.	00r	.	00r	.	00r	.	00r	00r
.	.	.	16ee\	.	.	.	.	.	.	.	.	.	.
.	.	16cc\L	16ee\	.	.	.	.	.	.	.	.	.	.
.	.	16b\JJ	16dd\JJ	.	.	.	.	.	.	.	.	.	.
8r	.	16a/LL	16cc\LL	.	.	.	.	.	.	.	.	.	.
.	.	16cc/	16ee\	.	.	.	.	.	.	.	.	.	.
8A\	.	16b/	16dd\	.	.	.	.	.	.	.	.	.	.
.	.	16a/JJ	16cc\JJ	.	.	.	.	.	.	.	.	.	.
4E\	#	16g#X/LL	16b/LL	.	.	.	.	.	.	.	.	.	.
.	.	16f#X/	16a/	.	.	.	.	.	.	.	.	.	.
.	.	16g#/	16b/	.	.	.	.	.	.	.	.	.	.
.	.	16a/JJ	16cc/JJ	.	.	.	.	.	.	.	.	.	.
8r	.	16g#X/LL	16b/LL	.	.	.	.	.	.	.	.	.	.
.	.	16a/	16cc/	.	.	.	.	.	.	.	.	.	.
8E\	.	16f#/	16a/	.	.	.	.	.	.	.	.	.	.
.	.	16g#X/JJ	16b/JJ	.	.	.	.	.	.	.	.	.	.
!LO:LB:g=original	!	!LO:LB:g=original	!	!	!	!	!	!	!	!	!	!	!
=108	=108	=108	=108	=108	=108	=108	=108	=108	=108	=108	=108	=108	=108
!LO:TX:a:t=P:problem:mixed beam	!	!	!	!	!	!	!	!	!	!	!	!	!
8A\L	.	16a/LL	16cc/LL	.	.	.	.	.	.	.	.	.	.
.	.	16b/	16b/	.	.	.	.	.	.	.	.	.	.
8AA/J	.	16a/	16cc/	.	.	.	.	.	.	.	.	.	.
.	.	16b/JJ	16b/JJ	.	.	.	.	.	.	.	.	.	.
!	!	!	!LO:TX:a:t=P:problem:mixed beam	!	!	!	!	!	!	!	!	!	!
16AA/LL	.	8cc\L	8a/L	.	.	.	.	.	.	.	.	.	.
16C/	.	.	.	.	.	.	.	.	.	.	.	.	.
16D/	.	8cc\J	8ee\J	.	.	.	.	.	.	.	.	.	.
16E/JJ	.	.	.	.	.	.	.	.	.	.	.	.	.
4F\	7	16cc/LL	16ee\LL	.	.	.	.	.	.	.	.	.	.
.	6	16cc/	16ee\	.	.	.	.	.	.	.	.	.	.
.	.	16b/	16dd\	.	.	.	.	.	.	.	.	.	.
.	.	16a/JJ	16cc\JJ	.	.	.	.	.	.	.	.	.	.
16BB/LL	.	8b/L	8dd\L	.	.	.	.	.	.	.	.	.	.
16BB/	.	.	.	.	.	.	.	.	.	.	.	.	.
16C/	.	8b/J	8dd\J	.	.	.	.	.	.	.	.	.	.
16D/JJ	.	.	.	.	.	.	.	.	.	.	.	.	.
=109	=109	=109	=109	=109	=109	=109	=109	=109	=109	=109	=109	=109	=109
4E\	7	16b/LL	16dd\LL	.	.	.	.	.	.	.	.	.	.
.	6	16b/	16dd\	.	.	.	.	.	.	.	.	.	.
.	.	16a/	16cc\	.	.	.	.	.	.	.	.	.	.
.	.	16g#X/JJ	16b\JJ	.	.	.	.	.	.	.	.	.	.
16AA/LL	.	4a/	4cc\	.	.	.	.	.	.	.	.	.	.
16AA/	.	.	.	.	.	.	.	.	.	.	.	.	.
16BB/	.	.	.	.	.	.	.	.	.	.	.	.	.
16C/JJ	.	.	.	.	.	.	.	.	.	.	.	.	.
4D\	7	16a/LL	16cc\LL	.	.	.	.	.	.	.	.	.	.
.	6	16a/	16cc\	.	.	.	.	.	.	.	.	.	.
.	.	16g#X/	16b\	.	.	.	.	.	.	.	.	.	.
.	.	16f#X/JJ	16a\JJ	.	.	.	.	.	.	.	.	.	.
16G\LL	#	4g#X/	4b/	.	.	.	.	.	.	.	.	.	.
16G\	.	.	.	.	.	.	.	.	.	.	.	.	.
16A\	.	.	.	.	.	.	.	.	.	.	.	.	.
16B\JJ	.	.	.	.	.	.	.	.	.	.	.	.	.
=110	=110	=110	=110	=110	=110	=110	=110	=110	=110	=110	=110	=110	=110
4c\	7	16g#y/LL	16b/LL	.	.	.	.	.	.	.	.	.	.
.	6	16g#X/	16b/	.	.	.	.	.	.	.	.	.	.
.	.	16f#X/	16a/	.	.	.	.	.	.	.	.	.	.
.	.	16e/JJ	16g/JJ	.	.	.	.	.	.	.	.	.	.
16F#X\LL	.	4f#X/	4a/	.	.	.	.	.	.	.	.	.	.
16F#\	.	.	.	.	.	.	.	.	.	.	.	.	.
16G\	.	.	.	.	.	.	.	.	.	.	.	.	.
16A\JJ	.	.	.	.	.	.	.	.	.	.	.	.	.
4B\	7	16f#/LL	16a/LL	.	.	.	.	.	.	.	.	.	.
.	6	16f#/	16a/	.	.	.	.	.	.	.	.	.	.
.	.	16e/	16g/	.	.	.	.	.	.	.	.	.	.
.	.	16d#X/JJ	16f/JJ	.	.	.	.	.	.	.	.	.	.
!	!	!	!LO:LB:g=original	!	!	!	!	!	!	!	!	!	!
16E\LL	.	4e/	4g/	.	.	.	.	.	.	.	.	.	.
16E\	.	.	.	.	.	.	.	.	.	.	.	.	.
16G#X\	.	.	.	.	.	.	.	.	.	.	.	.	.
16E\JJ	.	.	.	.	.	.	.	.	.	.	.	.	.
=111	=111	=111	=111	=111	=111	=111	=111	=111	=111	=111	=111	=111	=111
!LO:SIC:s=8G#:v	!	!	!	!	!	!	!	!	!	!	!	!	!
!LO:TX:a:t=P:problem:mixed beam	!	!	!	!	!	!	!	!	!	!	!	!	!
8G\L	6	16e/LL	16g/LL	0r	.	0r	.	0r	.	0r	.	00r	00r
.	.	16e/	16g/	.	.	.	.	.	.	.	.	.	.
8A\	6 5	16f#X/	16a/	.	.	.	.	.	.	.	.	.	.
.	.	16e/JJ	16g/JJ	.	.	.	.	.	.	.	.	.	.
8B\	.	8.e/L	8.f#X/L	.	.	.	.	.	.	.	.	.	.
8BB/J	4	.	.	.	.	.	.	.	.	.	.	.	.
.	3	16d#X/Jk	16f#/Jk	.	.	.	.	.	.	.	.	.	.
4E\	#	16e/LL	16e/LL	.	.	.	.	.	.	.	.	.	.
.	.	16f#X/	16f#/	.	.	.	.	.	.	.	.	.	.
.	.	16g/	16g/	.	.	.	.	.	.	.	.	.	.
.	.	16a/JJ	16a/JJ	.	.	.	.	.	.	.	.	.	.
4D#X/	6	16b\LL	16b\LL	.	.	.	.	.	.	.	.	.	.
.	.	16cc#X\	16cc#X\	.	.	.	.	.	.	.	.	.	.
.	.	16dd#X\	16dd#X\	.	.	.	.	.	.	.	.	.	.
.	.	16b\JJ	16b\JJ	.	.	.	.	.	.	.	.	.	.
=112	=112	=112	=112	=112	=112	=112	=112	=112	=112	=112	=112	=112	=112
!	!	!LO:TX:a:t=P:problem:mixed beam	!	!	!	!	!	!	!	!	!	!	!
8E\L	.	16ee\LL	16ee\LL	.	.	.	.	.	.	.	.	.	.
.	.	16g#X/	16b\	.	.	.	.	.	.	.	.	.	.
8E\	.	16g#/	16b\	.	.	.	.	.	.	.	.	.	.
.	.	16g#/JJ	16b\JJ	.	.	.	.	.	.	.	.	.	.
8G#X\	6	16g#X/LL	16b/LL	.	.	.	.	.	.	.	.	.	.
.	.	16g#/JJ	16b/	.	.	.	.	.	.	.	.	.	.
!	!	!LO:LB:g=original	!	!	!	!	!	!	!	!	!	!	!
8E\J	.	16f#X/LL	16a/	.	.	.	.	.	.	.	.	.	.
.	.	16g#/JJ	16b/JJ	.	.	.	.	.	.	.	.	.	.
!LO:TX:a:t=P:problem:mixed beam	!	!	!	!	!	!	!	!	!	!	!	!	!
8A\L	.	8a/L	8cc\L	.	.	.	.	.	.	.	.	.	.
8AA/	.	8a/J	8cc\J	.	.	.	.	.	.	.	.	.	.
8C/	.	16r	16r	.	.	.	.	.	.	.	.	.	.
.	.	16cc\LL	16ee\LL	.	.	.	.	.	.	.	.	.	.
8AA/J	.	16b\	16dd\	.	.	.	.	.	.	.	.	.	.
.	.	16cc\JJ	16ee\JJ	.	.	.	.	.	.	.	.	.	.
=113	=113	=113	=113	=113	=113	=113	=113	=113	=113	=113	=113	=113	=113
!LO:TX:a:t=P:problem:mixed beam	!	!	!	!	!	!	!	!	!	!	!	!	!
8D\L	6 5	16dd\LL	16ff\LL	2r	.	2r	.	2r	.	2r	.	.	.
.	.	16cc\	16ee\	.	.	.	.	.	.	.	.	.	.
8BB\	.	16b\	16dd\	.	.	.	.	.	.	.	.	.	.
.	.	16a\JJ	16cc\JJ	.	.	.	.	.	.	.	.	.	.
8E\	4	8.b\L	16b\LL	.	.	.	.	.	.	.	.	.	.
.	#	.	16gg#X\	.	.	.	.	.	.	.	.	.	.
8EE/J	.	.	16ff#X\	.	.	.	.	.	.	.	.	.	.
!	!	!	!LO:TX:a:t=#	!	!	!	!	!	!	!	!	!	!
.	.	16b\Jk	16gg#y\JJ	.	.	.	.	.	.	.	.	.	.
!LO:LB:g=original	!	!LO:TX:a:t=P:problem:mixed beam	!	!	!	!	!	!	!	!	!	!	!
8AA/	.	8cc/L	8aa\L	8r	.	8r	.	8r	.	8r	.	.	.
!LO:TX:b:t='Tutti	!	!	!	!	!	!	!	!	!	!	!	!	!
8A\L	.	8aa\	8ee\	8A\	Et	8e\	Et	8a\	Et	8cc\	et	.	.
!	!	!	!	!LO:LB:g=original	!	!	!	!	!	!LO:LB:g=original	!	!	!
8B\	7	8aa\	8dd\	8B\	vi-	8d\	vi-	8a\	vi-	8b\	vi-	.	.
8B\J	6|	8gg#X\J	8dd\J	16B\	-tam	16B\	-tam	16g#X,\	-tam	16dd,\	-tam	.	.
.	.	.	.	16B\	ven-	16B\	ven-	16g#\	ven-	16dd\	ven-	.	.
=114	=114	=114	=114	=114	=114	=114	=114	=114	=114	=114	=114	=114	=114
8c\L	.	8aa\L	8cc\L	8c\	-tu-	8c\	-tu-	8a\	-tu-	8a\	-turi	.	.
!	!	!	!	!	!	!	!	!LO:LB:g=original	!	!	!	!	!
8A\	6	8aa\	8cc\	8A\	-ri	8c\	-ri	8cc,\	-ri	8ee,\	.	.	.
!	!	!	!	!	!	!LO:LB:g=original	!	!	!	!	!	!	!
8B\	7	8aa\	8dd\	8.B\	ſae-	8.d\	ſae-	8.b\	ſae-	8.dd\	ſae-	.	.
8E\J	7	8gg#X\J	8dd\J	.	.	.	.	.	.	.	.	.	.
.	.	.	.	16BB/	-culi	16B\	-culi	16b\	-culi	16dd\	-culi	.	.
!LO:TX:a:t=P:problem:mixed beam	!	!LO:TX:a:t=P:problem:mixed beam	!	!	!	!	!	!	!	!	!	!	!
8AA/L	.	8aa\L	8ee\L	8A,\	.	8c,\	.	8a,\	.	8cc\	.	.	.
8A\	.	8a/	8cc\	8A\L	A-	8c\L	A-	4e\	A-	8cc\L	'A-	.	.
8G#X\	6	8b/	8b\	8G\	.	8B\	.	.	.	8b\	.	.	.
!	!	!	!	!LO:SIC:s=8f#:v	!	!	!	!	!	!	!	!	!
8F#X\J	6	8a/J	8dd#X\J	8F\J	.	8A\J	.	8f#X\	.	8dd\J	.	.	.
!	!	!	!LO:LB:g=original	!	!	!	!	!	!	!	!	!	!
=115	=115	=115	=115	=115	=115	=115	=115	=115	=115	=115	=115	=115	=115
!LO:TX:a:t=P:problem:mixed beam	!	!	!	!LO:TX:a:t=P:problem:mixed beam	!	!	!	!	!	!	!	!	!
8E\L	.	8g/L	16ee\LL	8E\L	.	8B\L	.	8g#X\L	.	4.ee\	.	2r	2r
.	.	.	16b\	.	.	.	.	.	.	.	.	.	.
8A\	6 5	8cc/	16ee\	8A\	.	8c\J	.	8f#X\J	.	.	.	.	.
.	.	.	16ff\JJ	.	.	.	.	.	.	.	.	.	.
8B\	.	8.b\	8ee\L	8B,\	-men	4B,\	-men	4f#\	.	.	.	.	.
8BB/J	4	.	8dd#X\J	8BB/J	a-	.	.	.	.	8dd#X\	.	.	.
.	3	16b\Jk	.	.	.	.	.	.	.	.	.	.	.
8E\L	.	8b/L	8ee\L	8E\L	.	8B\	A-	8g#,\	-men	8ee,\	-men	8r	8r
8E\	.	8b/	8ee\	8E\	.	8e\L	.	8g#\L	A-	8b\L	A-	16e/LL	16e/LL
.	.	.	.	.	.	.	.	.	.	.	.	16e/JJ	16e/JJ
8F#X\	6	8a/	8dd#\	8F\	.	8d\	.	8a\	.	8a\	.	16e/LL	16e/LL
.	.	.	.	.	.	.	.	.	.	.	.	16e/	16e/
8G#X\J	6 5	8b/J	8ee\J	8G\J	.	8B\J	.	8b\J	.	8b\J	.	16e/	16e/
.	.	.	.	.	.	.	.	.	.	.	.	16e/JJ	16e/JJ
=116	=116	=116	=116	=116	=116	=116	=116	=116	=116	=116	=116	=116	=116
!LO:TX:a:t=P:problem:mixed beam	!	!	!	!	!	!	!	!	!	!	!	!	!
8A\L	.	16cc\LL	16ee\LL	8A\	.	16c\LL	.	8a\	-men	16ee\LL	.	8e/L	8e/L
.	.	16b\	16dd\	.	.	16B\	.	.	.	16dd\	.	.	.
8AA/J	.	16cc\	16ee\	8A\	-men 	16c\	.	8e,\	.	16ee\	.	8e/J	8e/J
.	.	16a\JJ	16cc\JJ	.	.	16A\JJ	-men	.	.	16cc\JJ	.	.	.
16F\LL	6	8dd\L	8ff\L	16F\LL	A-	8d,\	.	16a\LL	A-	8ff\	.	4r	4r
16E\	.	.	.	16E\	.	.	.	16g\	.	.	.	.	.
16F\	.	8dd\J	8ff\J	16F\	.	8d\	A-	16a\	.	8ff,\	-men	.	.
16D\JJ	.	.	.	16D\JJ	.	.	.	16f\JJ	.	.	.	.	.
8G\L	.	16b/LL	16dd\LL	8G,\	-men	16B\LL	.	8b\	.	16dd\LL	A-	2r	2r
.	.	16a/	16cc\	.	.	16A\	.	.	.	16cc\	.	.	.
*	*	*	*	*	*ij	*	*	*	*	*	*	*	*
8G\J	.	16b/	16dd\	8G\	A-	16B\	.	8g,\	-men	16dd\	.	.	.
.	.	16g/JJ	16b\JJ	.	.	16G\JJ	.	.	.	16b\JJ	.	.	.
!	!	!	!	!	!	!	!	!	!	!LO:LB:g=original	!	!	!
16E\LL	6	8cc\L	8ee\L	16E\LL	.	8c,\	-men	16g\LL	A-	8ee\	-men	.	.
16D\	.	.	.	16D\	.	.	.	16f\	.	.	.	.	.
*	*	*	*	*	*	*	*ij	*	*	*	*	*	*
16E\	.	8cc\J	8ee\J	16E\	.	8c\	A-	16g\	.	8ee,\	.	.	.
16C\JJ	.	.	.	16C\JJ	.	.	.	16e\JJ	.	.	.	.	.
=117	=117	=117	=117	=117	=117	=117	=117	=117	=117	=117	=117	=117	=117
8F\L	.	16a/LL	16cc\LL	8F,\	-men	16A/LL	.	8a\	.	16cc\LL	A-	1r	1r
.	.	16g/	16b\	.	.	16G/	.	.	.	16b\	.	.	.
8F\J	.	16a/	16cc\	8F\	A-	16A/	.	8f\	-men	16cc\	.	.	.
!	!	!LO:SIC:s=16f	!	!	!	!	!	!	!	!	!	!	!
.	.	16f#X/JJ	16a\JJ	.	.	16F/JJ	.	.	.	16a\JJ	.	.	.
*	*	*	*	*	*	*	*	*	*ij	*	*	*	*
!	!	!	!	!LO:LB:g=original	!	!	!	!LO:LB:g=original	!	!	!	!	!
16D/LL	6	8b/L	8dd\L	16D/LL	.	8B,\	-men	16f\LL	A-	8dd\	-men	.	.
16C/	.	.	.	16C/	.	.	.	16e\	.	.	.	.	.
16D/	.	8b/J	8dd\J	16D/	.	8B\	A-	16f\	.	8dd\	.	.	.
16BB/JJ	.	.	.	16BB/JJ	.	.	.	16d\JJ	.	.	.	.	.
*	*	*	*	*	*	*	*	*	*	*	*ij	*	*
8E\L	.	16g#X/LL	16b/LL	8E\	-men	16G/LL	.	8g,\	-men	16b\LL	A-	.	.
.	.	16f#X/	16a/	.	.	16F/	.	.	.	16a\	.	.	.
*	*	*	*	*	*	*	*	*	*Xij	*	*	*	*
8E\J	.	16g#X/	16b/	8E\	A-	16G/	.	8e\	A-	16b\	.	.	.
!	!	!	!LO:SIC:s=16g#	!	!	!	!	!	!	!	!	!	!
.	.	16e/JJ	16g/JJ	.	.	16E/JJ	.	.	.	16g\JJ	.	.	.
!	!	!LO:LB:g=original	!	!	!	!	!	!	!	!	!	!	!
16C/LL	.	8a/L	8cc\L	16C/LL	.	8A,/	-men	16e\LL	.	8cc\	.	.	.
16BB/	.	.	.	16BB/	.	.	.	16d\	.	.	.	.	.
16C/	.	8a/J	8cc\J	16C/	.	8A/	A-	16e\	.	8cc\	-men	.	.
16AA/JJ	.	.	.	16AA/JJ	.	.	.	16c\JJ	.	.	.	.	.
!	!	!	!	!	!	!LO:PB:g=original	!	!	!	!	!	!	!
=118	=118	=118	=118	=118	=118	=118	=118	=118	=118	=118	=118	=118	=118
8D/L	.	16f/LL	16a/LL	8D,/	-men	16F/LL	.	8f,\	-men	16a\LL	A-	4r	4r
.	.	16e/	16g/	.	.	16E/	.	.	.	16g\	.	.	.
8D/J	.	16f/	16a/	8D/	A-	16F/	.	8f\	A-	16a\	.	.	.
.	.	16d/JJ	16f/JJ	.	.	16D/JJ	.	.	.	16f\JJ	.	.	.
!LO:LB:g=original	!	!LO:TX:a:t=P:problem:mixed beam	!	!	!	!	!	!	!	!	!	!	!
16BB/LL	.	8d/L	8b\L	16BB/LL	.	8G/	.	16d/LL	.	8b\	.	8r	8r
16AA/	.	.	.	16AA/	.	.	.	16c/	.	.	.	.	.
16BB/	.	8dd\J	8b\J	16BB/	.	8G/	.	16d/	.	8b\	.	8dd\	8dd\
16GG/JJ	.	.	.	16GG/JJ	.	.	.	16B/JJ	.	.	.	.	.
!	!	!	!	!	!	!	!	!	!	!	!	!LO:LB:g=original	!
4C/	.	8cc\L	16cc\LL	4C/	-men	4c\	-men	4g\	-men	4cc\	-men	8cc\L	8ee\L
.	.	.	16gg\	.	.	.	.	.	.	.	.	.	.
.	.	16ee\L	16gg\	.	.	.	.	.	.	.	.	16ee\L	16gg\L
.	.	16dd\JJ	16ff\JJ	.	.	.	.	.	.	.	.	16dd\JJ	16ff\JJ
*	*	*	*	*	*Xij	*	*Xij	*	*	*	*Xij	*	*
8r	.	16cc\LL	16ee\LL	8r	.	8r	.	8r	.	8r	.	16cc\LL	16ee\LL
.	.	16ee\	16gg\	.	.	.	.	.	.	.	.	16ee\	16gg\
*	*	*	*	*	*	*	*	*	*ij	*	*	*	*
8E\	.	16dd\	16ff\	8E\	A-	8c\	A-	8g\	A-	8cc\	A-	16dd\	16ff\
.	.	16cc\JJ	16ee\JJ	.	.	.	.	.	.	.	.	16cc\JJ	16ee\JJ
=119	=119	=119	=119	=119	=119	=119	=119	=119	=119	=119	=119	=119	=119
!LO:TX:a:t=P:problem:mixed beam	!	!	!	!LO:TX:a:t=P:problem:mixed beam	!	!	!	!	!	!	!	!	!
8F\L	6 5	16ff\LL	16aa\LL	8F\L	.	4.d\	.	4a\	.	4.cc\	.	16ff\LL	16aa\LL
.	.	16ee\	16gg\	.	.	.	.	.	.	.	.	16ee\	16gg\
8D\	.	16dd\	16ff\	8D\	.	.	.	.	.	.	.	16dd\	16ff\
.	.	16cc\JJ	16ee\JJ	.	.	.	.	.	.	.	.	16cc\JJ	16ee\JJ
8G\	.	8.cc\L	8.dd\L	8G\	.	.	.	4g\	-men	.	.	8.g/L	8.dd\L
8GG/J	4	.	.	8GG,/J	-men	16c\LL	.	.	.	8b,\	-men	.	.
.	3	16b\Jk	16dd\Jk	.	.	16d\JJ	.	.	.	.	.	16g/Jk	16dd\Jk
!LO:TX:a:t=P:problem:mixed beam	!	!	!	!	!	!	!	!	!	!	!	!	!
*	*	*	*	*	*	*	*	*	*	*	*ij	*	*
8C/L	.	16cc\LL	16ee\LL	8C,/	.	16e\LL	.	16g\LL	A-	8cc\	A-	4e/	4cc\
.	.	16b\	16dd\	.	.	16d\	.	16f\	.	.	.	.	.
8c\J	.	16cc\	16ee\	8c\	A-	16e\	.	16g\	.	8ee,\	-men	.	.
.	.	16ee\JJ	16cc\JJ	.	.	16c\JJ	.	16e\JJ	.	.	.	.	.
*	*	*	*	*	*	*	*	*	*	*	*Xij	*	*
16B\LL	6	8b/L	8dd\L	16B\LL	.	8d\	.	8g\	.	16dd\LL	A-	4r	4r
16A\	.	.	.	16A\	.	.	.	.	.	16cc\	.	.	.
16B\	.	8b/J	8dd\J	16B\	.	8d\	men	8g\	-men	16dd\	.	.	.
16G\JJ	.	.	.	16G\JJ	.	.	.	.	.	16b\JJ	.	.	.
!	!	!	!	!	!	!	!	!	!	!LO:LB:g=original	!	!	!
=120	=120	=120	=120	=120	=120	=120	=120	=120	=120	=120	=120	=120	=120
*	*	*	*	*	*	*	*ij	*	*	*	*	*	*
8A\L	.	16a/LL	16cc\LL	8A,\	-men	16A/LL	A-	16cc\LL	A-	8cc\	.	2r	2r
.	.	16g/	16b\	.	.	16G/	.	16b\	.	.	.	.	.
*	*	*	*	*	*ij	*	*	*	*	*	*	*	*
8A\J	.	16a/	16cc\	8A\	A-	16A/	.	16cc\	.	8cc\	.	.	.
.	.	16f/JJ	16a\JJ	.	.	16c/JJ	.	16a\JJ	.	.	.	.	.
16G\LL	.	8g/L	8b/L	16G\LL	.	8B\	.	8b\	.	16b\LL	.	.	.
16F\	.	.	.	16F\	.	.	.	.	.	16a\	.	.	.
16G\	.	8g/J	8b/J	16G\	.	8G/	men	8b\	-men	16b\	.	.	.
16E\JJ	.	.	.	16E\JJ	.	.	.	.	.	16g\JJ	.	.	.
8F\L	.	16f/LL	16a/LL	8F,\	-men	16F/LL	A-	16a\LL	A-	8a\	.	8r	8r
.	.	16e/	16g/	.	.	16E/	.	16g\	.	.	.	.	.
8F\J	.	16f/	16a/	8F\	A-	16F/	.	16a\	.	8a\	.	8c/L	8c/L
.	.	16a/JJ	16f/JJ	.	.	16A/JJ	.	16f\JJ	.	.	.	.	.
!	!	!LO:TX:a:t=P:problem:mixed beam	!LO:TX:a:t=P:problem:mixed beam	!LO:LB:g=original	!	!	!	!LO:LB:g=original	!	!	!	!	!
16E\LL	.	8g/L	8g/L	16E\LL	.	8G/	.	8g\	.	16g/LL	.	8c/	8c/
16D\	.	.	.	16D\	.	.	.	.	.	16f/	.	.	.
16E\	.	8ee\J	8gg\J	16E\	.	8c\	-men	8g\	-men	16g/	.	8c/J	8c/J
16C\JJ	.	.	.	16C\JJ	.	.	.	.	.	16e/JJ	.	.	.
=121	=121	=121	=121	=121	=121	=121	=121	=121	=121	=121	=121	=121	=121
8F\L	.	16ff\LL	16aa\LL	8F,\	-men	16c\LL	A-	16a\LL	A-	8a,\	-men	8c/L	4c/
.	.	16ee\	16gg\	.	.	16B\	.	16g\	.	.	.	.	.
*	*	*	*	*	*Xij	*	*	*	*	*	*	*	*
8F\J	.	16ff\	16aa\	8F\	A-	16c\	.	16a\	.	8a\L	A-	16c/L	.
.	.	16aa\JJ	16ff\JJ	.	.	16A\JJ	.	16f\JJ	.	.	.	16c/JJ	.
16E\LL	.	8ee\L	8gg\L	16E\LL	.	8G/	.	8e\	.	8cc\	.	16c/LL	8r
16D\	.	.	.	16D\	.	.	.	.	.	.	.	16c/	.
16E\	.	8ee\J	8gg\J	16E\	.	8c\	.	8g\	-men	8ee\J	.	16c/	8c/
16C\JJ	.	.	.	16C\JJ	.	.	.	.	.	.	.	16c/JJ	.
!LO:TX:a:t=P:problem:mixed beam	!	!	!	!LO:TX:a:t=P:problem:mixed beam	!	!LO:LB:g=original	!	!	!	!	!	!	!LO:LB:g=original
8F\L	.	8ff\L	16aa\LL	8F\L	.	8c\L	.	8a\L	A-	4.ff\	.	4c/	8c/L
.	.	.	16ff\	.	.	.	.	.	.	.	.	.	.
8B-X\	6 5	8dd\	16ff\	8B-X\	.	8d\J	.	16g\L	.	.	.	.	16c/L
.	.	.	16ff\JJ	.	.	.	.	16f\JJ	.	.	.	.	16c/JJ
8c\	.	8cc\	16ff\LL	8c\	.	4c\	.	4g\	.	.	.	8r	16c/LL
.	.	.	16gg\	.	.	.	.	.	.	.	.	.	16c/
8C/J	4	8cc\J	16cc\	8C/J	.	.	.	.	.	8ee\	.	8c/	16c/
.	3	.	16ee\JJ	.	.	.	.	.	.	.	.	.	16c/JJ
=122	=122	=122	=122	=122	=122	=122	=122	=122	=122	=122	=122	=122	=122
*	*	*	*	*	*	*	*	*	*	*	*ij	*	*
8F\L	.	8cc\L	16ff\LL	8F,\	-men	8c\	.	8a\	-men	8ff,\	-men	4c/	4c/
.	.	.	16aa\	.	.	.	.	.	.	.	.	.	.
*	*	*	*	*	*ij	*	*	*	*Xij	*	*	*	*
8F\J	.	8cc\	16aa\	8F\	A-	8c\	-men	8a\	A-	8a\	A-	.	.
.	.	.	16aa\JJ	.	.	.	.	.	.	.	.	.	.
*	*	*	*	*	*	*	*Xij	*	*	*	*	*	*
8E\L	.	8cc\	16cc\LL	8E\L	.	4c\	.	8g\L	.	4cc\	.	8r	8r
.	.	.	16gg\	.	.	.	.	.	.	.	.	.	.
16D\L	.	8cc\J	16gg\	16D\L	.	.	.	16f\L	.	.	.	8cc\	8gg\
16E\JJ	.	.	16gg\JJ	16E\JJ	.	.	.	16g\JJ	.	.	.	.	.
!	!	!LO:LB:g=original	!	!	!	!	!	!	!	!	!	!	!
4C/	.	16cc\LL	16ee\LL	4C/	-men	4c\	.	4e\	-men	4cc\	-men	16cc\LL	16ee\LL
.	.	16b\	16dd\	.	.	.	.	.	.	.	.	16g\	16dd\
.	.	16cc\	16ee\	.	.	.	.	.	.	.	.	16cc\	16ee\
.	.	16dd\JJ	16ff\JJ	.	.	.	.	.	.	.	.	16dd\JJ	16ff\JJ
*	*	*	*	*	*Xij	*	*	*	*	*	*Xij	*	*
8r	.	16ee\LL	16gg\LL	8r	.	8r	.	8r	.	8r	.	16ee\LL	16gg\LL
.	.	16dd\	16ff\	.	.	.	.	.	.	.	.	16dd\	16ff\
*	*	*	*	*	*	*	*	*	*ij	*	*	*	*
8E\	6	16ee\	16gg\	8E\	A-	8c\	A-	8g\	A-	8cc\	A-	16ee\	16gg\
.	.	16cc\JJ	16ee\JJ	.	.	.	.	.	.	.	.	16cc\JJ	16ee\JJ
=123	=123	=123	=123	=123	=123	=123	=123	=123	=123	=123	=123	=123	=123
!LO:TX:a:t=P:problem:mixed beam	!	!	!	!LO:TX:a:t=P:problem:mixed beam	!	!	!	!	!	!	!	!	!
8F\L	6 5	16ff\LL	16aa\LL	8F\L	.	(4.c\	.	4a\	.	4.dd\	.	16ff\LL	16aa\LL
.	.	16ee\	16gg\	.	.	.	.	.	.	.	.	16ee\	16gg\
8D\	.	16dd\	16ff\	8D\	.	.	.	.	.	.	.	16dd\	16ff\
.	.	16cc\JJ	16ee\JJ	.	.	.	.	.	.	.	.	16cc\JJ	16ee\JJ
8G\	.	8.cc\L	8.dd\L	8G\	.	.	.	4g\	.	.	.	16g/LL	8.dd\L
.	4	.	.	.	.	.	.	.	.	.	.	16e/	.
8GG/J	3	.	.	8GG/J	-men	8B\)	.	.	.	16cc\LL	.	16c/	.
.	.	16b\Jk	16cc\Jk	.	.	.	.	.	.	16dd\JJ	.	16g/JJ	16dd\Jk
!LO:LB:g=original	!	!	!	!	!	!	!	!	!	!	!	!	!
!LO:TX:a:t=P:problem:mixed beam	!	!	!	!	!	!	!	!	!	!LO:LB:g=original	!	!	!
8C/L	.	16cc\LL	16ee\LL	8C,/	.	8c\	-men	4g\	-men	16ee\LL	.	4e/	4cc\
.	.	16dd\	16ff\	.	.	.	.	.	.	16ff\	.	.	.
8c\J	.	16ee\	16gg\	8c\	A-	8c\	A-	.	.	16gg\	.	.	.
.	.	16cc\JJ	16ee\JJ	.	.	.	.	.	.	16ee\JJ	.	.	.
!	!	!LO:TX:a:t=P:problem:mixed beam	!LO:LB:g=original	!	!	!	!	!	!	!	!	!	!
16B\LL	.	8dd\L	8dd\L	16B\LL	.	16d\LL	.	8r	.	8dd,\	-men	4r	4r
16A\	.	.	.	16A\	.	16c\	.	.	.	.	.	.	.
16B\	.	8g/J	8dd\J	16B\	.	16d\	.	8g\	A-	8dd\	A-	.	.
16G\JJ	.	.	.	16G\JJ	.	16B\JJ	.	.	.	.	.	.	.
!	!	!	!	!	!	!	!	!	!	!	!	!LO:LB:g=original	!
=124	=124	=124	=124	=124	=124	=124	=124	=124	=124	=124	=124	=124	=124
*	*	*	*	*	*ij	*	*	*	*	*	*	*	*
8A\L	.	16a\LL	16cc\LL	8A,\	-men	8c\	men	8e\	.	16cc\LL	.	1r	1r
.	.	16b\	16dd\	.	.	.	.	.	.	16b\	.	.	.
*	*	*	*	*	*	*	*ij	*	*	*	*	*	*
8A\J	.	16cc\	16ee\	8A\	A-	8c\	A-	8cc\	-men	16cc\	.	.	.
.	.	16a\JJ	16cc\JJ	.	.	.	.	.	.	16a\JJ	.	.	.
16G\LL	.	8b\L	8b/L	16G\LL	.	4A/	.	16b\LL	A-	8b\	.	.	.
16F\	.	.	.	16F\	.	.	.	16a\	.	.	.	.	.
16G\	.	8b\J	8b/J	16G\	.	.	.	16b\	.	8b\	.	.	.
16E\JJ	.	.	.	16E\JJ	.	.	.	16g\JJ	.	.	.	.	.
!	!	!	!	!	!	!	!	!LO:LB:g=original	!	!	!	!	!
8F\L	.	16f/LL	16a/LL	8F,\	-men	16A\LL	.	8a\	.	16a\LL	.	.	.
.	.	16g/	16b/	.	.	16B\	.	.	.	16g\	.	.	.
8F\J	.	16a/	16cc/	8F\	A-	16c\	.	8a\	-men	16a\	.	.	.
.	.	16f/JJ	16a/JJ	.	.	16A\JJ	.	.	.	16f\JJ	.	.	.
!	!	!LO:TX:a:t=P:problem:mixed beam	!LO:TX:a:t=P:problem:mixed beam	!LO:LB:g=original	!	!	!	!	!	!	!	!	!
16E\LL	.	8e/L	8g/L	16E\LL	.	8G/	-men	16g\LL	A-	8g\	.	.	.
16D\	.	.	.	16D\	.	.	.	16f\	.	.	.	.	.
*	*	*	*	*	*	*	*Xij	*	*	*	*	*	*
16E\	.	8ee\J	8ee\J	16E\	.	8c\	A-	16g\	.	8ee\	.	.	.
16C\JJ	.	.	.	16C\JJ	.	.	.	16e\JJ	.	.	.	.	.
=125	=125	=125	=125	=125	=125	=125	=125	=125	=125	=125	=125	=125	=125
8D/L	.	16dd\LL	16ff\LL	8D,/	-men	16d\LL	.	8f\	.	16ff\LL	.	4r	4r
.	.	16ee\	16gg\	.	.	16c\	.	.	.	16ee\	.	.	.
*	*	*	*	*	*Xij	*	*	*	*	*	*	*	*
8D/J	.	16ff\	16aa\	8D/	A-	16d\	.	8f\	-men	16ff\	.	.	.
.	.	16dd\JJ	16ff\JJ	.	.	16f\JJ	.	.	.	16dd\JJ	.	.	.
!	!	!	!	!	!	!LO:LB:g=original	!	!	!	!	!	!	!
16BB/LL	6	8dd\L	8gg\L	16BB/LL	.	8d\	-men	16d\LL	A-	8dd\	.	8g/L	8dd\L
16AA/	.	.	.	16AA/	.	.	.	16c\	.	.	.	.	.
16BB/	.	8b\J	8dd\J	16BB/	.	8d\	A-	16d\	.	8dd\	.	8g/J	8dd\J
16GG/JJ	.	.	.	16GG/JJ	.	.	.	16B\JJ	.	.	.	.	.
!LO:TX:a:t=P:problem:mixed beam	!	!	!	!LO:TX:a:t=P:problem:mixed beam	!	!	!	!	!	!	!	!	!
8C\L	.	16cc\LL	16ee\LL	8C/L	.	16c\LL	.	8e\L	.	16ee\LL	.	16cc\LL	16ee\LL
.	.	16ee\	16gg\	.	.	16e\	.	.	.	16gg\	.	16ee\	16gg\
8F\	6 5	16dd\	16ff\	8F/	.	16d\	.	8a\J	.	16ff\	.	16dd\	16ff\
.	.	16cc\JJ	16ee\JJ	.	.	16c\JJ	.	.	.	16ee\JJ	.	16cc\JJ	16ee\JJ
!	!	!	!LO:TX:a:t=P:problem:mixed beam	!	!	!	!	!	!	!LO:LB:g=original	!	!	!
8G\	.	8.dd\L	16dd/LL	8G/	.	8c\L	.	4g\	-men	8.dd\L	.	8.g/L	8.dd\L
.	4	.	16bb\	.	.	.	.	.	.	.	.	.	.
8GG/J	3	.	16aa\	8GG/J	.	8B\J	-men	.	.	.	.	.	.
.	.	16dd\Jk	16bb\JJ	.	.	.	.	.	.	32cc\LL	.	16g/Jk	16dd\Jk
.	.	.	.	.	.	.	.	.	.	32dd\JJJ	.	.	.
*	*	*	*	*	*	*	*	*	*Xij	*	*	*	*
=126	=126	=126	=126	=126	=126	=126	=126	=126	=126	=126	=126	=126	=126
!LO:TX:a:t=P:problem:mixed beam	!	!	!	!	!	!	!	!	!	!	!	!	!LO:TX:a:t=P:problem:mixed beam
!LO:TX:b:t=A	!	!	!	!	!	!	!	!	!	!	!	!	!
8C\L	.	8ee\L	8ccc\L	8C,/	-men	8c,\	.	8g\	A-	8ee\	-men	8e/L	8cc\L
!LO:TX:b:t=men	!	!	!	!	!	!	!	!	!	!	!	!	!
8G\	.	8dd\	8bb\	8G\	A-	8B\	A-	8g\	.	8dd,\	A-	16e/L	16g/L
.	.	.	.	.	.	.	.	.	.	.	.	16e/JJ	16g/JJ
8C/J	.	8ee\J	8ccc\J	8C/	-men	8c\	-men	8g\	-men	8ee\	-men	16e/LL	16g/LL
.	.	.	.	.	.	.	.	.	.	.	.	16e/	16g/
8r	.	8r	8r	8r	.	8r	.	8r	.	8r	.	16e/	16g/
.	.	.	.	.	.	.	.	.	.	.	.	16e/JJ	16g/JJ
2r	.	2r	2r	2r	.	2r	.	2r	.	2r	.	8c/L	8e/L
.	.	.	.	.	.	.	.	.	.	.	.	8c/J	8e/J
.	.	.	.	.	.	.	.	.	.	.	.	4r	4r
==	==	==	==	==	==	==	==	==	==	==	==	==	==
*-	*-	*-	*-	*-	*-	*-	*-	*-	*-	*-	*-	*-	*-
!!!system-decoration: [(g1)][(g2)][(g3)][(g4)]
!!!ENC:Anna Matuszewska
!!!END:2020-11-14
!!!ENC: Andrzej Gręziak
!!!END: 2020-05-04
